; G-Code generated by Simplify3D(R) Version 3.0.0
; Jul 9, 2015 at 7:49:44 PM
; Settings Summary
;   processName,Process1
;   applyToModels,blowerduct3_nosupport
;   profileName,foundry (modified)
;   profileVersion,2015-07-05 11:16:27
;   baseProfile,
;   printMaterial,PLA
;   printQuality,Medium
;   printExtruders,
;   extruderName,Primary Extruder
;   extruderToolheadNumber,0
;   extruderDiameter,0.4
;   extruderAutoWidth,0
;   extruderWidth,0.4
;   extrusionMultiplier,1.02
;   extruderUseRetract,1
;   extruderRetractionDistance,2
;   extruderExtraRestartDistance,0
;   extruderRetractionZLift,0
;   extruderRetractionSpeed,1800
;   extruderUseCoasting,1
;   extruderCoastingDistance,0.2
;   extruderUseWipe,0
;   extruderWipeDistance,5
;   primaryExtruder,0
;   layerHeight,0.2063
;   topSolidLayers,4
;   bottomSolidLayers,3
;   perimeterOutlines,3
;   printPerimetersInsideOut,1
;   startPointOption,2
;   startPointOriginX,0
;   startPointOriginY,0
;   startPointOriginZ,300
;   sequentialIslands,0
;   spiralVaseMode,0
;   firstLayerHeightPercentage,100
;   firstLayerWidthPercentage,100
;   firstLayerUnderspeed,0.5
;   useRaft,0
;   raftExtruder,0
;   raftLayers,3
;   raftOffset,3
;   raftSeparationDistance,0.14
;   raftInfill,85
;   disableRaftBaseLayers,0
;   useSkirt,1
;   skirtExtruder,0
;   skirtLayers,1
;   skirtOutlines,2
;   skirtOffset,3
;   usePrimePillar,0
;   primePillarExtruder,999
;   primePillarWidth,12
;   primePillarLocation,7
;   primePillarSpeedMultiplier,1
;   useOozeShield,0
;   oozeShieldExtruder,999
;   oozeShieldOffset,2
;   oozeShieldOutlines,1
;   oozeShieldSidewallShape,1
;   oozeShieldSidewallAngle,30
;   oozeShieldSpeedMultiplier,1
;   infillExtruder,0
;   internalInfillPattern,Rectilinear
;   externalInfillPattern,Rectilinear
;   infillPercentage,20
;   outlineOverlapPercentage,15
;   infillExtrusionWidthPercentage,100
;   minInfillLength,2
;   infillLayerInterval,1
;   infillAngles,45,-45
;   overlapInfillAngles,0
;   generateSupport,1
;   supportExtruder,0
;   supportInfillPercentage,30
;   supportExtraInflation,0
;   denseSupportLayers,0
;   denseSupportInfillPercentage,70
;   supportLayerInterval,1
;   supportHorizontalPartOffset,0.3
;   supportUpperSeparationLayers,1
;   supportLowerSeparationLayers,2
;   supportType,0
;   supportGridSpacing,5
;   maxOverhangAngle,45
;   supportAngles,-35
;   temperatureName,Primary Extruder,Heated Bed
;   temperatureNumber,0,0
;   temperatureSetpointCount,1,1
;   temperatureSetpointLayers,1,1
;   temperatureSetpointTemperatures,210,60
;   temperatureStabilizeAtStartup,1,1
;   temperatureHeatedBed,0,1
;   temperatureRelayBetweenLayers,0,0
;   temperatureRelayBetweenLoops,0,0
;   fanLayers,1,2
;   fanSpeeds,0,60
;   blipFanToFullPower,1
;   adjustSpeedForCooling,1
;   minSpeedLayerTime,15
;   minCoolingSpeedSlowdown,35
;   increaseFanForCooling,0
;   minFanLayerTime,45
;   maxCoolingFanSpeed,60
;   increaseFanForBridging,1
;   bridgingFanSpeed,60
;   use5D,1
;   relativeEdistances,1
;   allowEaxisZeroing,1
;   independentExtruderAxes,0
;   includeM10123,0
;   stickySupport,1
;   applyToolheadOffsets,0
;   gcodeXoffset,0
;   gcodeYoffset,0
;   gcodeZoffset,0
;   overrideMachineDefinition,1
;   machineTypeOverride,0
;   strokeXoverride,155
;   strokeYoverride,155
;   strokeZoverride,150
;   originOffsetXoverride,77.5
;   originOffsetYoverride,77.5
;   originOffsetZoverride,0
;   homeXdirOverride,-1
;   homeYdirOverride,-1
;   homeZdirOverride,-1
;   flipXoverride,1
;   flipYoverride,1
;   flipZoverride,1
;   toolheadOffsets,0,0|0,0|0,0|0,0|0,0|0,0
;   overrideFirmwareConfiguration,1
;   firmwareTypeOverride,RepRap (Marlin/Repetier/Sprinter)
;   GPXconfigOverride,r2
;   baudRateOverride,250000
;   overridePrinterModels,0
;   printerModelsOverride
;   startingGcode,G92 X0 Y0,G01 X80 Y80 F3000,G92 X0 Y0,G28 Z0.0  ;home z axis,G92 Z0.8  ;switch is XXX mm above zero,G01 Z10 F1000  ;lift off surface 10mm,M201 X1000 Y1000  ;default accel of 1000,M205 X20  ;jerk of 20,G01 E10  F200 ;prime,G04 S3  ;time to clear excess
;   layerChangeGcode,
;   retractionGcode,
;   toolChangeGcode,
;   endingGcode,M104 S0 ; turn off temperature,G01 Z149  F3000 ;lift up to top,M18 X Y     ; disable X, Y motors,M106 S151  ;turn fan on,G04 S60 ;wait 60 seconds,M106 S0 ;turn fan off,M84
;   createX3G,0
;   celebration,0
;   celebrationSong,Random Song
;   createMB5G,0
;   postProcessing,
;   defaultSpeed,4200
;   outlineUnderspeed,0.5
;   solidInfillUnderspeed,1
;   supportUnderspeed,1
;   rapidXYspeed,12000
;   rapidZspeed,798
;   minBridgingArea,50
;   bridgingExtraInflation,0
;   bridgingExtrusionMultiplier,1
;   bridgingSpeedMultiplier,1
;   filamentDiameter,1.75
;   filamentPricePerKg,20
;   filamentDensity,1.25
;   useMinPrintHeight,0
;   minPrintHeight,0
;   useMaxPrintHeight,0
;   maxPrintHeight,0
;   useDiaphragm,0
;   diaphragmLayerInterval,20
;   robustSlicing,1
;   mergeAllIntoSolid,0
;   onlyRetractWhenCrossingOutline,1
;   retractBetweenLayers,1
;   useRetractionMinTravel,0
;   retractionMinTravel,3
;   retractWhileWiping,0
;   onlyWipeOutlines,1
;   avoidCrossingOutline,0
;   maxMovementDetourFactor,3
;   toolChangeRetractionDistance,12
;   toolChangeExtraRestartDistance,-0.5
;   toolChangeRetractionSpeed,600
;   allowThinWallGapFill,1
;   thinWallAllowedOverlapPercentage,10
;   horizontalSizeCompensation,0
G90
M83
M106 S0
M140 S60
M190 S60
M104 S210 T0
M109 S210 T0
G92 X0 Y0
G01 X80 Y80 F3000
G92 X0 Y0
G28 Z0.0  ;home z axis
G92 Z1.7  ;switch is XXX mm above zero
G01 Z10 F1000  ;lift off surface 10mm
M201 X1000 Y1000  ;default accel of 1000
M205 X20  ;jerk of 20
G01 E10  F200 ;prime
G04 S3  ;time to clear excess
G1 E-2.0000 F1800
G1 Z0.206 F798
; layer 1, Z = 0.2063
T0
; tool H0.206 W0.400
; skirt
G1 X3.293 Y1.373 F12000
G1 E2.0000 F540
G1 X3.231 Y1.570 E0.0072 F2100
G1 X3.086 Y2.232 E0.0237
G1 X3.020 Y2.903 E0.0236
G1 X3.018 Y3.110 E0.0072
G1 X3.072 Y3.785 E0.0237
G1 X3.194 Y4.394 E0.0217
G1 X3.405 Y5.040 E0.0238
G1 X3.486 Y5.228 E0.0072
G1 X3.804 Y5.822 E0.0236
G1 X4.470 Y6.772 E0.0406
G1 X4.479 Y6.786 E0.0006
G1 X4.575 Y6.940 E0.0064
G1 X4.583 Y6.955 E0.0006
G1 X4.805 Y7.360 E0.0162
G1 X4.816 Y7.383 E0.0009
G1 X4.928 Y7.636 E0.0097
G1 X4.937 Y7.659 E0.0009
G1 X5.180 Y8.360 E0.0259
G1 X5.187 Y8.384 E0.0009
G1 X5.255 Y8.652 E0.0097
G1 X5.260 Y8.677 E0.0009
G1 X5.344 Y9.180 E0.0178
G1 X5.348 Y9.205 E0.0009
G1 X5.370 Y9.481 E0.0097
G1 X5.371 Y9.506 E0.0009
G1 X5.369 Y10.294 E0.0276
G1 X5.367 Y10.328 E0.0012
G1 X5.325 Y10.695 E0.0129
G1 X5.319 Y10.728 E0.0012
G1 X5.132 Y11.541 E0.0292
G1 X5.123 Y11.573 E0.0012
G1 X5.000 Y11.922 E0.0129
G1 X4.988 Y11.953 E0.0012
G1 X4.625 Y12.704 E0.0292
G1 X4.608 Y12.734 E0.0012
G1 X4.412 Y13.046 E0.0129
G1 X4.392 Y13.074 E0.0012
G1 X3.922 Y13.663 E0.0264
G1 X3.909 Y13.678 E0.0007
G1 X3.769 Y13.833 E0.0073
G1 X3.755 Y13.847 E0.0007
G1 X2.930 Y14.648 E0.0403
G1 X2.906 Y14.669 E0.0011
G1 X2.634 Y14.882 E0.0121
G1 X2.608 Y14.900 E0.0011
G1 X1.910 Y15.339 E0.0288
G1 X1.881 Y15.355 E0.0012
G1 X1.548 Y15.515 E0.0129
G1 X1.517 Y15.528 E0.0012
G1 X0.729 Y15.804 E0.0292
G1 X0.697 Y15.813 E0.0012
G1 X0.336 Y15.896 E0.0130
G1 X0.303 Y15.902 E0.0012
G1 X-0.528 Y15.996 E0.0293
G1 X-0.562 Y15.998 E0.0012
G1 X-0.932 Y15.998 E0.0130
G1 X-0.966 Y15.996 E0.0012
G1 X-1.797 Y15.903 E0.0293
G1 X-1.830 Y15.898 E0.0012
G1 X-2.190 Y15.816 E0.0129
G1 X-2.223 Y15.807 E0.0012
G1 X-2.967 Y15.547 E0.0276
G1 X-2.991 Y15.538 E0.0009
G1 X-3.245 Y15.425 E0.0097
G1 X-3.268 Y15.413 E0.0009
G1 X-3.716 Y15.166 E0.0179
G1 X-3.737 Y15.153 E0.0009
G1 X-3.967 Y15.000 E0.0097
G1 X-3.988 Y14.985 E0.0009
G1 X-4.606 Y14.494 E0.0277
G1 X-4.632 Y14.471 E0.0012
G1 X-4.897 Y14.207 E0.0131
G1 X-4.919 Y14.181 E0.0012
G1 X-5.621 Y13.301 E0.0394
G1 X-5.627 Y13.293 E0.0004
G1 X-5.693 Y13.205 E0.0038
G1 X-5.699 Y13.196 E0.0003
G1 X-5.765 Y13.102 E0.0040
G1 X-11.754 Y10.621 E0.2269
G1 X-11.923 Y10.452 E0.0084
G1 X-12.965 Y7.936 E0.0953
G1 X-12.965 Y7.697 E0.0084
G1 X-3.550 Y-15.033 E0.8609
G1 X-3.382 Y-15.202 E0.0083
G1 X-0.868 Y-16.245 E0.0952
G1 X-0.629 Y-16.245 E0.0083
G1 X5.024 Y-13.911 E0.2140
G1 X5.530 Y-14.012 E0.0181
G1 X5.543 Y-14.014 E0.0004
G1 X5.680 Y-14.036 E0.0049
G1 X5.692 Y-14.037 E0.0004
G1 X6.778 Y-14.160 E0.0382
G1 X6.804 Y-14.161 E0.0009
G1 X7.085 Y-14.169 E0.0099
G1 X7.111 Y-14.168 E0.0009
G1 X7.623 Y-14.138 E0.0179
G1 X7.648 Y-14.136 E0.0009
G1 X7.923 Y-14.096 E0.0097
G1 X7.947 Y-14.092 E0.0009
G1 X8.717 Y-13.914 E0.0276
G1 X8.750 Y-13.905 E0.0012
G1 X9.099 Y-13.782 E0.0130
G1 X9.130 Y-13.769 E0.0012
G1 X9.883 Y-13.404 E0.0293
G1 X9.912 Y-13.388 E0.0012
G1 X10.225 Y-13.191 E0.0129
G1 X10.252 Y-13.171 E0.0012
G1 X10.868 Y-12.678 E0.0276
G1 X10.887 Y-12.662 E0.0009
G1 X11.089 Y-12.470 E0.0097
G1 X11.106 Y-12.452 E0.0009
G1 X11.446 Y-12.070 E0.0179
G1 X11.462 Y-12.051 E0.0009
G1 X11.628 Y-11.829 E0.0097
G1 X11.643 Y-11.809 E0.0009
G1 X12.037 Y-11.180 E0.0260
G1 X12.049 Y-11.158 E0.0009
G1 X12.177 Y-10.911 E0.0097
G1 X12.187 Y-10.888 E0.0009
G1 X12.382 Y-10.415 E0.0179
G1 X12.391 Y-10.391 E0.0009
G1 X12.475 Y-10.127 E0.0097
G1 X12.481 Y-10.103 E0.0009
G1 X12.654 Y-9.347 E0.0271
G1 X12.659 Y-9.316 E0.0011
G1 X12.700 Y-8.973 E0.0121
G1 X12.702 Y-8.942 E0.0011
G1 X12.719 Y-7.791 E0.0403
G1 X12.719 Y-7.772 E0.0007
G1 X12.708 Y-7.562 E0.0074
G1 X12.707 Y-7.543 E0.0007
G1 X12.622 Y-6.793 E0.0264
G1 X12.616 Y-6.759 E0.0012
G1 X12.534 Y-6.400 E0.0129
G1 X12.525 Y-6.367 E0.0012
G1 X12.250 Y-5.580 E0.0292
G1 X12.237 Y-5.549 E0.0012
G1 X12.077 Y-5.216 E0.0129
G1 X12.061 Y-5.187 E0.0012
G1 X11.617 Y-4.480 E0.0292
G1 X11.598 Y-4.452 E0.0012
G1 X11.368 Y-4.163 E0.0129
G1 X11.346 Y-4.138 E0.0012
G1 X10.757 Y-3.547 E0.0292
G1 X10.732 Y-3.524 E0.0012
G1 X10.443 Y-3.293 E0.0129
G1 X10.416 Y-3.274 E0.0012
G1 X9.711 Y-2.828 E0.0292
G1 X9.681 Y-2.812 E0.0012
G1 X9.349 Y-2.651 E0.0129
G1 X9.318 Y-2.638 E0.0012
G1 X8.577 Y-2.376 E0.0275
G1 X8.553 Y-2.369 E0.0009
G1 X8.289 Y-2.299 E0.0095
G1 X8.265 Y-2.294 E0.0009
G1 X7.077 Y-2.084 E0.0422
G1 X6.483 Y-1.905 E0.0217
G1 X5.863 Y-1.635 E0.0237
G1 X5.681 Y-1.535 E0.0073
G1 X5.121 Y-1.162 E0.0236
G1 X4.644 Y-0.755 E0.0219
G1 X4.222 Y-0.299 E0.0217
G1 X3.856 Y0.205 E0.0218
G1 X3.551 Y0.750 E0.0218
G1 X3.369 Y1.188 E0.0166
G1 X3.293 Y1.373 F2100
G1 X2.916 Y1.236 F12000
G1 X2.844 Y1.467 E0.0085 F2100
G1 X2.690 Y2.169 E0.0251
G1 X2.620 Y2.882 E0.0250
G1 X2.618 Y3.124 E0.0085
G1 X2.675 Y3.840 E0.0251
G1 X2.807 Y4.495 E0.0234
G1 X3.030 Y5.181 E0.0252
G1 X3.125 Y5.402 E0.0084
G1 X3.463 Y6.032 E0.0250
G1 X4.139 Y6.997 E0.0412
G1 X4.142 Y7.002 E0.0002
G1 X4.232 Y7.147 E0.0060
G1 X4.235 Y7.152 E0.0002
G1 X4.450 Y7.545 E0.0157
G1 X4.454 Y7.552 E0.0003
G1 X4.559 Y7.790 E0.0091
G1 X4.562 Y7.798 E0.0003
G1 X4.799 Y8.483 E0.0254
G1 X4.801 Y8.491 E0.0003
G1 X4.866 Y8.743 E0.0091
G1 X4.867 Y8.751 E0.0003
G1 X4.948 Y9.237 E0.0173
G1 X4.950 Y9.246 E0.0003
G1 X4.971 Y9.505 E0.0091
G1 X4.971 Y9.513 E0.0003
G1 X4.969 Y10.282 E0.0269
G1 X4.969 Y10.293 E0.0004
G1 X4.929 Y10.638 E0.0121
G1 X4.927 Y10.649 E0.0004
G1 X4.745 Y11.440 E0.0284
G1 X4.742 Y11.451 E0.0004
G1 X4.627 Y11.779 E0.0121
G1 X4.623 Y11.789 E0.0004
G1 X4.269 Y12.520 E0.0284
G1 X4.264 Y12.530 E0.0004
G1 X4.079 Y12.824 E0.0121
G1 X4.073 Y12.833 E0.0004
G1 X3.613 Y13.409 E0.0258
G1 X3.609 Y13.414 E0.0002
G1 X3.477 Y13.560 E0.0069
G1 X3.472 Y13.564 E0.0002
G1 X2.659 Y14.354 E0.0397
G1 X2.651 Y14.360 E0.0004
G1 X2.395 Y14.561 E0.0114
G1 X2.386 Y14.567 E0.0004
G1 X1.707 Y14.994 E0.0281
G1 X1.697 Y14.999 E0.0004
G1 X1.384 Y15.150 E0.0121
G1 X1.374 Y15.154 E0.0004
G1 X0.608 Y15.423 E0.0284
G1 X0.597 Y15.426 E0.0004
G1 X0.258 Y15.504 E0.0122
G1 X0.247 Y15.505 E0.0004
G1 X-0.562 Y15.597 E0.0285
G1 X-0.573 Y15.598 E0.0004
G1 X-0.921 Y15.598 E0.0122
G1 X-0.932 Y15.597 E0.0004
G1 X-1.741 Y15.507 E0.0285
G1 X-1.752 Y15.505 E0.0004
G1 X-2.091 Y15.428 E0.0121
G1 X-2.102 Y15.425 E0.0004
G1 X-2.828 Y15.172 E0.0269
G1 X-2.836 Y15.169 E0.0003
G1 X-3.074 Y15.063 E0.0091
G1 X-3.082 Y15.059 E0.0003
G1 X-3.515 Y14.820 E0.0173
G1 X-3.522 Y14.816 E0.0003
G1 X-3.739 Y14.672 E0.0091
G1 X-3.745 Y14.667 E0.0003
G1 X-4.349 Y14.188 E0.0270
G1 X-4.357 Y14.180 E0.0004
G1 X-4.606 Y13.932 E0.0123
G1 X-4.614 Y13.923 E0.0004
G1 X-5.306 Y13.054 E0.0389
G1 X-5.309 Y13.051 E0.0001
G1 X-5.370 Y12.968 E0.0036
G1 X-5.372 Y12.966 E0.0001
G1 X-5.503 Y12.777 E0.0080
G1 X-11.527 Y10.282 E0.2282
G1 X-11.584 Y10.226 E0.0028
G1 X-12.565 Y7.856 E0.0898
G1 X-12.565 Y7.776 E0.0028
G1 X-3.211 Y-14.806 E0.8554
G1 X-3.155 Y-14.863 E0.0028
G1 X-0.788 Y-15.845 E0.0897
G1 X-0.709 Y-15.845 E0.0028
G1 X4.983 Y-13.495 E0.2155
G1 X5.604 Y-13.619 E0.0222
G1 X5.608 Y-13.620 E0.0001
G1 X5.737 Y-13.640 E0.0046
G1 X5.741 Y-13.640 E0.0001
G1 X6.814 Y-13.761 E0.0378
G1 X6.823 Y-13.762 E0.0003
G1 X7.088 Y-13.769 E0.0093
G1 X7.096 Y-13.769 E0.0003
G1 X7.591 Y-13.740 E0.0173
G1 X7.599 Y-13.739 E0.0003
G1 X7.857 Y-13.702 E0.0091
G1 X7.866 Y-13.700 E0.0003
G1 X8.616 Y-13.527 E0.0270
G1 X8.627 Y-13.524 E0.0004
G1 X8.956 Y-13.408 E0.0122
G1 X8.966 Y-13.404 E0.0004
G1 X9.698 Y-13.049 E0.0285
G1 X9.708 Y-13.043 E0.0004
G1 X10.002 Y-12.858 E0.0121
G1 X10.011 Y-12.852 E0.0004
G1 X10.611 Y-12.371 E0.0269
G1 X10.618 Y-12.366 E0.0003
G1 X10.807 Y-12.186 E0.0091
G1 X10.813 Y-12.180 E0.0003
G1 X11.142 Y-11.810 E0.0173
G1 X11.147 Y-11.804 E0.0003
G1 X11.303 Y-11.596 E0.0091
G1 X11.308 Y-11.589 E0.0003
G1 X11.693 Y-10.975 E0.0254
G1 X11.697 Y-10.967 E0.0003
G1 X11.817 Y-10.735 E0.0091
G1 X11.821 Y-10.727 E0.0003
G1 X12.009 Y-10.270 E0.0173
G1 X12.012 Y-10.262 E0.0003
G1 X12.091 Y-10.014 E0.0091
G1 X12.093 Y-10.006 E0.0003
G1 X12.261 Y-9.268 E0.0265
G1 X12.263 Y-9.258 E0.0004
G1 X12.302 Y-8.936 E0.0113
G1 X12.302 Y-8.926 E0.0004
G1 X12.319 Y-7.792 E0.0397
G1 X12.319 Y-7.785 E0.0002
G1 X12.309 Y-7.588 E0.0069
G1 X12.309 Y-7.581 E0.0002
G1 X12.226 Y-6.849 E0.0258
G1 X12.224 Y-6.838 E0.0004
G1 X12.147 Y-6.499 E0.0121
G1 X12.144 Y-6.489 E0.0004
G1 X11.876 Y-5.723 E0.0284
G1 X11.872 Y-5.712 E0.0004
G1 X11.721 Y-5.399 E0.0121
G1 X11.716 Y-5.390 E0.0004
G1 X11.285 Y-4.702 E0.0284
G1 X11.278 Y-4.692 E0.0004
G1 X11.062 Y-4.421 E0.0121
G1 X11.055 Y-4.412 E0.0004
G1 X10.481 Y-3.837 E0.0284
G1 X10.473 Y-3.830 E0.0004
G1 X10.202 Y-3.613 E0.0121
G1 X10.193 Y-3.606 E0.0004
G1 X9.506 Y-3.172 E0.0284
G1 X9.497 Y-3.167 E0.0004
G1 X9.184 Y-3.016 E0.0121
G1 X9.174 Y-3.011 E0.0004
G1 X8.451 Y-2.756 E0.0268
G1 X8.443 Y-2.753 E0.0003
G1 X8.196 Y-2.688 E0.0090
G1 X8.188 Y-2.686 E0.0003
G1 X6.984 Y-2.474 E0.0428
G1 X6.345 Y-2.281 E0.0234
G1 X5.687 Y-1.994 E0.0251
G1 X5.474 Y-1.878 E0.0085
G1 X4.879 Y-1.481 E0.0250
G1 X4.366 Y-1.044 E0.0236
G1 X3.912 Y-0.553 E0.0234
G1 X3.518 Y-0.011 E0.0235
G1 X3.190 Y0.575 E0.0235
G1 X2.993 Y1.051 E0.0180
G1 X2.916 Y1.236 F2100
G1 E-2.0000 F1800
; inner perimeter
G1 X-1.581 Y2.999 F12000
G1 E2.0000 F1800
G1 X-1.583 Y3.258 E0.0090 F1750
G1 X-1.554 Y3.839 E0.0204
G1 X-1.490 Y4.421 E0.0205
G1 X-1.393 Y4.995 E0.0204
G1 X-1.262 Y5.563 E0.0204
G1 X-1.097 Y6.124 E0.0205
G1 X-0.899 Y6.675 E0.0205
G1 X-0.670 Y7.210 E0.0204
G1 X-0.410 Y7.731 E0.0204
G1 X-0.119 Y8.236 E0.0204
G1 X0.200 Y8.722 E0.0203
G1 X0.623 Y9.300 E0.0251
G1 X0.676 Y9.398 E0.0039
G1 X0.722 Y9.510 E0.0042
G1 X0.755 Y9.626 E0.0042
G1 X0.775 Y9.745 E0.0042
G1 X0.782 Y9.866 E0.0042
G1 X0.775 Y9.987 E0.0042
G1 X0.754 Y10.106 E0.0042
G1 X0.720 Y10.222 E0.0042
G1 X0.674 Y10.333 E0.0042
G1 X0.615 Y10.439 E0.0042
G1 X0.546 Y10.538 E0.0042
G1 X0.446 Y10.649 E0.0052
G1 X0.033 Y11.062 E0.0204
G1 X-0.078 Y11.161 E0.0052
G1 X-0.176 Y11.230 E0.0042
G1 X-0.283 Y11.289 E0.0043
G1 X-0.394 Y11.336 E0.0042
G1 X-0.510 Y11.369 E0.0042
G1 X-0.630 Y11.389 E0.0043
G1 X-0.751 Y11.396 E0.0042
G1 X-0.871 Y11.390 E0.0042
G1 X-0.991 Y11.369 E0.0043
G1 X-1.107 Y11.336 E0.0042
G1 X-1.219 Y11.290 E0.0042
G1 X-1.326 Y11.231 E0.0043
G1 X-1.424 Y11.162 E0.0042
G1 X-1.514 Y11.082 E0.0042
G1 X-1.607 Y10.978 E0.0049
G1 X-1.963 Y10.511 E0.0205
G1 X-2.458 Y9.798 E0.0304
G1 X-2.632 Y9.602 E0.0092
G1 X-2.963 Y9.327 E0.0150
G1 X-3.320 Y9.136 E0.0142
G1 X-7.811 Y7.275 E0.1701
G1 X-0.203 Y-11.093 E0.6957
G1 X4.134 Y-9.302 E0.1642
