( Made using CamBam - http://www.cambam.co.uk )
( full_layout3 6/9/2015 8:42:04 AM )
( T0 : 0.01 )
G20 G90 G64 G40
G0 Z0.125
( T0 : 0.01 )
T0 M6
( InsideProfile1 )
G17
M3 S1000
G0 X11.3695 Y12.4547
G0 Z0.03
G1 F5.0 Z-0.01
G1 F10.0 X11.369 Y12.4755
G1 X11.3675 Y12.4963
G1 X11.365 Y12.517
G1 X11.3615 Y12.5375
G1 X11.357 Y12.5578
G1 X11.3516 Y12.5779
G1 X11.3452 Y12.5977
G1 X11.3378 Y12.6172
G1 X11.3296 Y12.6363
G1 X11.3204 Y12.6549
G1 X11.3103 Y12.6731
G1 X11.2994 Y12.6909
G1 X11.2877 Y12.708
G1 X11.2751 Y12.7246
G1 X11.2617 Y12.7406
G1 X11.2476 Y12.7559
G1 X11.2328 Y12.7705
G1 X11.2173 Y12.7843
G1 X11.2011 Y12.7974
G1 X11.1844 Y12.8098
G1 X11.167 Y12.8213
G1 X11.1491 Y12.8319
G1 X11.1308 Y12.8417
G1 X11.112 Y12.8506
G1 X11.0927 Y12.8586
G1 X11.0732 Y12.8656
G1 X11.0533 Y12.8717
G1 X11.0331 Y12.8768
G1 X11.0127 Y12.881
G1 X10.9921 Y12.8841
G1 X10.9714 Y12.8863
G1 X10.9507 Y12.8875
G1 X10.9299 Y12.8877
G1 X10.9091 Y12.8869
G1 X10.8883 Y12.8851
G1 X10.8677 Y12.8822
G1 X10.8473 Y12.8784
G1 X10.827 Y12.8737
G1 X10.807 Y12.8679
G1 X10.7873 Y12.8612
G1 X10.7679 Y12.8536
G1 X10.749 Y12.845
G1 X10.7304 Y12.8356
G1 X10.72 Y12.8297
G1 X10.7022 Y12.8189
G1 X10.685 Y12.8072
G1 X10.6683 Y12.7947
G1 X10.6523 Y12.7815
G1 X10.6369 Y12.7674
G1 X10.6223 Y12.7527
G1 X10.6083 Y12.7372
G1 X10.5951 Y12.7211
G1 X10.5827 Y12.7044
G1 X10.5711 Y12.6872
G1 X10.5604 Y12.6693
G1 X10.5505 Y12.651
G1 X10.5415 Y12.6322
G1 X10.5335 Y12.6131
G1 X10.5263 Y12.5935
G1 X10.5201 Y12.5737
G1 X10.5149 Y12.5535
G1 X10.5106 Y12.5331
G1 X10.5074 Y12.5126
G1 X10.5051 Y12.4919
G1 X10.5038 Y12.4711
G1 X10.5035 Y12.4503
G1 X10.5042 Y12.4295
G1 X10.5059 Y12.4088
G1 X10.5086 Y12.3882
G1 X10.5123 Y12.3677
G1 X10.517 Y12.3474
G1 X10.5226 Y12.3274
G1 X10.5292 Y12.3077
G1 X10.5368 Y12.2883
G1 X10.5452 Y12.2692
G1 X10.5546 Y12.2507
G1 X10.5648 Y12.2326
G1 X10.5759 Y12.215
G1 X10.5879 Y12.1979
G1 X10.6006 Y12.1815
G1 X10.6141 Y12.1656
G1 X10.6284 Y12.1505
G1 X10.6434 Y12.136
G1 X10.659 Y12.1223
G1 X10.6753 Y12.1094
G1 X10.6922 Y12.0972
G1 X10.7097 Y12.0859
G1 X10.72 Y12.0798
G1 X10.7382 Y12.0698
G1 X10.757 Y12.0607
G1 X10.7761 Y12.0525
G1 X10.7956 Y12.0453
G1 X10.8154 Y12.039
G1 X10.8355 Y12.0337
G1 X10.8559 Y12.0293
G1 X10.8764 Y12.0259
G1 X10.8971 Y12.0235
G1 X10.9179 Y12.0222
G1 X10.9387 Y12.0218
G1 X10.9595 Y12.0224
G1 X10.9802 Y12.024
G1 X11.0009 Y12.0266
G1 X11.0214 Y12.0302
G1 X11.0417 Y12.0347
G1 X11.0617 Y12.0403
G1 X11.0815 Y12.0468
G1 X11.1009 Y12.0542
G1 X11.12 Y12.0626
G1 X11.1386 Y12.0718
G1 X11.1568 Y12.082
G1 X11.1744 Y12.093
G1 X11.1915 Y12.1048
G1 X11.208 Y12.1175
G1 X11.2239 Y12.1309
G1 X11.2391 Y12.1451
G1 X11.2537 Y12.16
G1 X11.2675 Y12.1756
G1 X11.2805 Y12.1918
G1 X11.2927 Y12.2087
G1 X11.3041 Y12.2261
G1 X11.3147 Y12.244
G1 X11.3244 Y12.2624
G1 X11.3332 Y12.2813
G1 X11.3411 Y12.3005
G1 X11.348 Y12.3201
G1 X11.354 Y12.3401
G1 X11.359 Y12.3603
G1 X11.3631 Y12.3807
G1 X11.3661 Y12.4013
G1 X11.3682 Y12.422
G1 X11.3693 Y12.4427
G1 X11.3695 Y12.4547
G0 Z0.125
G0 X11.5307 Y13.0098
G0 Z0.03
G1 F5.0 Z-0.01
G1 F10.0 X11.5381 Y13.0081
G1 X11.5456 Y13.0075
G1 X11.5532 Y13.0078
G1 X11.5607 Y13.0092
G1 X11.5679 Y13.0115
G1 X11.5747 Y13.0148
G1 X11.5811 Y13.0189
G1 X11.5869 Y13.0238
G1 X11.5919 Y13.0295
G1 X11.5962 Y13.0357
G1 X11.5996 Y13.0425
G1 X11.6021 Y13.0497
G1 X11.6037 Y13.0571
G1 X11.6042 Y13.0646
G1 Y13.065
G1 X11.6037 Y13.0725
G1 X11.6022 Y13.08
G1 X11.5997 Y13.0872
G1 X11.5964 Y13.0939
G1 X11.5921 Y13.1002
G1 X11.5871 Y13.1059
G1 X11.5814 Y13.1109
G1 X11.575 Y13.115
G1 X11.5682 Y13.1183
G1 X11.561 Y13.1207
G1 X11.5535 Y13.1221
G1 X11.546 Y13.1225
G1 X11.5384 Y13.1219
G1 X11.531 Y13.1203
G1 X11.5238 Y13.1177
G1 X11.5179 Y13.1148
G1 X11.5116 Y13.1106
G1 X11.506 Y13.1056
G1 X11.501 Y13.0998
G1 X11.4968 Y13.0935
G1 X11.4935 Y13.0867
G1 X11.4911 Y13.0795
G1 X11.4896 Y13.0721
G1 X11.4892 Y13.0645
G1 X11.4898 Y13.0569
G1 X11.4913 Y13.0495
G1 X11.4938 Y13.0423
G1 X11.4973 Y13.0356
G1 X11.5016 Y13.0293
G1 X11.5067 Y13.0237
G1 X11.5124 Y13.0188
G1 X11.5179 Y13.0152
G1 X11.5248 Y13.0118
G1 X11.5307 Y13.0098
G0 Z0.125
G0 X11.5459 Y11.902
G0 Z0.03
G1 F5.0 Z-0.01
G1 F10.0 X11.5383 Y11.9014
G1 X11.5309 Y11.8998
G1 X11.5238 Y11.8972
G1 X11.5179 Y11.8943
G1 X11.5116 Y11.8901
G1 X11.506 Y11.8851
G1 X11.501 Y11.8794
G1 X11.4968 Y11.873
G1 X11.4935 Y11.8662
G1 X11.4911 Y11.859
G1 X11.4896 Y11.8516
G1 X11.4892 Y11.844
G1 X11.4898 Y11.8365
G1 X11.4913 Y11.829
G1 X11.4938 Y11.8219
G1 X11.4973 Y11.8151
G1 X11.5016 Y11.8089
G1 X11.5067 Y11.8032
G1 X11.5124 Y11.7983
G1 X11.5179 Y11.7947
G1 X11.5248 Y11.7914
G1 X11.5319 Y11.7889
G1 X11.5394 Y11.7875
G1 X11.5469 Y11.787
G1 X11.5545 Y11.7875
G1 X11.5619 Y11.7891
G1 X11.5691 Y11.7916
G1 X11.5759 Y11.795
G1 X11.5821 Y11.7992
G1 X11.5878 Y11.8043
G1 X11.5927 Y11.81
G1 X11.5969 Y11.8164
G1 X11.6001 Y11.8232
G1 X11.6025 Y11.8305
G1 X11.6038 Y11.8379
G1 X11.6042 Y11.8445
G1 X11.6037 Y11.8521
G1 X11.6022 Y11.8595
G1 X11.5997 Y11.8667
G1 X11.5964 Y11.8735
G1 X11.5921 Y11.8798
G1 X11.5871 Y11.8854
G1 X11.5814 Y11.8904
G1 X11.575 Y11.8945
G1 X11.5682 Y11.8978
G1 X11.561 Y11.9002
G1 X11.5535 Y11.9016
G1 X11.546 Y11.902
G1 X11.5459
G0 Z0.125
G0 X10.9887 Y11.8494
G0 Z0.03
G1 F5.0 Z-0.01
G1 F10.0 X10.9876 Y11.8566
G1 X10.9854 Y11.8635
G1 X10.9823 Y11.8701
G1 X10.9784 Y11.8761
G1 X10.9736 Y11.8816
G1 X10.9682 Y11.8864
G1 X10.9621 Y11.8903
G1 X10.9555 Y11.8934
G1 X10.9486 Y11.8956
G1 X10.9415 Y11.8968
G1 X10.9342 Y11.897
G1 X10.927 Y11.8962
G1 X10.92 Y11.8944
G1 X10.9133 Y11.8916
G1 X10.9102 Y11.89
G1 X10.9042 Y11.8859
G1 X10.8988 Y11.8811
G1 X10.8941 Y11.8756
G1 X10.8903 Y11.8694
G1 X10.8873 Y11.8628
G1 X10.8852 Y11.8559
G1 X10.8841 Y11.8487
G1 X10.884 Y11.8415
G1 X10.885 Y11.8343
G1 X10.8869 Y11.8273
G1 X10.8897 Y11.8206
G1 X10.8934 Y11.8144
G1 X10.898 Y11.8088
G1 X10.9033 Y11.8038
G1 X10.9092 Y11.7996
G1 X10.9102 Y11.799
G1 X10.9167 Y11.7959
G1 X10.9236 Y11.7936
G1 X10.9307 Y11.7923
G1 X10.938 Y11.792
G1 X10.9452 Y11.7927
G1 X10.9522 Y11.7944
G1 X10.959 Y11.7971
G1 X10.9653 Y11.8006
G1 X10.9711 Y11.805
G1 X10.9762 Y11.8102
G1 X10.9805 Y11.816
G1 X10.984 Y11.8223
G1 X10.9866 Y11.8291
G1 X10.9883 Y11.8361
G1 X10.9889 Y11.8433
G1 X10.989 Y11.8445
G1 X10.9887 Y11.8494
G0 Z0.125
G0 X10.3837 Y11.8449
G0 Z0.03
G1 F5.0 Z-0.01
G1 F10.0 X10.3832 Y11.8525
G1 X10.3816 Y11.8599
G1 X10.3791 Y11.8671
G1 X10.3757 Y11.8738
G1 X10.3714 Y11.8801
G1 X10.3663 Y11.8857
G1 X10.3605 Y11.8906
G1 X10.3542 Y11.8948
G1 X10.3473 Y11.898
G1 X10.3401 Y11.9003
G1 X10.3326 Y11.9016
G1 X10.3251 Y11.902
G1 X10.3175 Y11.9013
G1 X10.3101 Y11.8997
G1 X10.303 Y11.8971
G1 X10.2975 Y11.8943
G1 X10.2912 Y11.8901
G1 X10.2855 Y11.8851
G1 X10.2805 Y11.8794
G1 X10.2763 Y11.873
G1 X10.273 Y11.8662
G1 X10.2706 Y11.859
G1 X10.2692 Y11.8516
G1 X10.2687 Y11.844
G1 X10.2693 Y11.8365
G1 X10.2708 Y11.829
G1 X10.2734 Y11.8219
G1 X10.2768 Y11.8151
G1 X10.2811 Y11.8089
G1 X10.2862 Y11.8032
G1 X10.292 Y11.7983
G1 X10.2975 Y11.7947
G1 X10.3043 Y11.7914
G1 X10.3115 Y11.7889
G1 X10.3189 Y11.7875
G1 X10.3265 Y11.787
G1 X10.334 Y11.7875
G1 X10.3415 Y11.7891
G1 X10.3486 Y11.7916
G1 X10.3554 Y11.795
G1 X10.3617 Y11.7992
G1 X10.3673 Y11.8043
G1 X10.3723 Y11.81
G1 X10.3764 Y11.8164
G1 X10.3796 Y11.8232
G1 X10.382 Y11.8305
G1 X10.3833 Y11.8379
G1 X10.3837 Y11.8445
G1 Y11.8449
G0 Z0.125
G0 X10.3289 Y13.0075
G0 Z0.03
G1 F5.0 Z-0.01
G1 F10.0 X10.3365 Y13.0084
G1 X10.3438 Y13.0102
G1 X10.3509 Y13.013
G1 X10.3575 Y13.0167
G1 X10.3636 Y13.0213
G1 X10.369 Y13.0266
G1 X10.3737 Y13.0325
G1 X10.3775 Y13.039
G1 X10.3805 Y13.046
G1 X10.3825 Y13.0533
G1 X10.3836 Y13.0608
G1 X10.3837 Y13.065
G1 X10.3832 Y13.0725
G1 X10.3817 Y13.08
G1 X10.3793 Y13.0872
G1 X10.3759 Y13.0939
G1 X10.3717 Y13.1002
G1 X10.3666 Y13.1059
G1 X10.3609 Y13.1109
G1 X10.3545 Y13.115
G1 X10.3477 Y13.1183
G1 X10.3405 Y13.1207
G1 X10.3331 Y13.1221
G1 X10.3255 Y13.1225
G1 X10.3179 Y13.1219
G1 X10.3105 Y13.1203
G1 X10.3034 Y13.1177
G1 X10.2975 Y13.1148
G1 X10.2912 Y13.1106
G1 X10.2855 Y13.1056
G1 X10.2805 Y13.0998
G1 X10.2763 Y13.0935
G1 X10.273 Y13.0867
G1 X10.2706 Y13.0795
G1 X10.2692 Y13.0721
G1 X10.2687 Y13.0645
G1 X10.2693 Y13.0569
G1 X10.2708 Y13.0495
G1 X10.2734 Y13.0423
G1 X10.2768 Y13.0356
G1 X10.2811 Y13.0293
G1 X10.2862 Y13.0237
G1 X10.292 Y13.0188
G1 X10.2975 Y13.0152
G1 X10.3043 Y13.0118
G1 X10.3115 Y13.0094
G1 X10.3189 Y13.0079
G1 X10.3265 Y13.0075
G1 X10.3289
G0 Z0.125
G0 X9.5082 Y13.7792
G0 Z0.03
G1 F5.0 Z-0.01
G1 F10.0 Y14.0692
G1 X9.2682
G1 Y13.7792
G1 X9.5082
G0 Z0.125
G0 X8.8298 Y14.001
G0 Z0.03
G1 F5.0 Z-0.01
G1 F10.0 X8.8319 Y14.0091
G1 X8.833 Y14.0174
G1 X8.8332 Y14.0227
G1 X8.8327 Y14.0311
G1 X8.8312 Y14.0393
G1 X8.8288 Y14.0473
G1 X8.8254 Y14.055
G1 X8.8211 Y14.0622
G1 X8.816 Y14.0688
G1 X8.8101 Y14.0747
G1 X8.8036 Y14.08
G1 X8.7965 Y14.0844
G1 X8.7889 Y14.0879
G1 X8.7809 Y14.0905
G1 X8.7727 Y14.0921
G1 X8.7644 Y14.0927
G1 X8.756 Y14.0924
G1 X8.7477 Y14.091
G1 X8.7397 Y14.0887
G1 X8.732 Y14.0854
G1 X8.7282 Y14.0834
G1 X8.7213 Y14.0788
G1 X8.7149 Y14.0733
G1 X8.7092 Y14.0672
G1 X8.7043 Y14.0604
G1 X8.7002 Y14.0531
G1 X8.697 Y14.0454
G1 X8.6948 Y14.0373
G1 X8.6935 Y14.0291
G1 X8.6933 Y14.0207
G1 X8.694 Y14.0124
G1 X8.6957 Y14.0042
G1 X8.6984 Y13.9963
G1 X8.7021 Y13.9887
G1 X8.7066 Y13.9817
G1 X8.7119 Y13.9752
G1 X8.7179 Y13.9694
G1 X8.7246 Y13.9644
G1 X8.7282 Y13.9621
G1 X8.7357 Y13.9584
G1 X8.7436 Y13.9556
G1 X8.7517 Y13.9537
G1 X8.7601 Y13.9528
G1 X8.7684 Y13.9529
G1 X8.7767 Y13.9541
G1 X8.7848 Y13.9562
G1 X8.7926 Y13.9592
G1 X8.8 Y13.9632
G1 X8.8068 Y13.968
G1 X8.8131 Y13.9736
G1 X8.8186 Y13.9799
G1 X8.8233 Y13.9868
G1 X8.8271 Y13.9942
G1 X8.8298 Y14.001
G0 Z0.125
G0 X6.097 Y14.0222
G0 Z0.03
G1 F5.0 Z-0.01
G1 F10.0 Y14.0227
G1 X6.0965 Y14.0311
G1 X6.095 Y14.0393
G1 X6.0926 Y14.0473
G1 X6.0892 Y14.055
G1 X6.0849 Y14.0622
G1 X6.0798 Y14.0688
G1 X6.0739 Y14.0747
G1 X6.0673 Y14.08
G1 X6.0602 Y14.0844
G1 X6.0526 Y14.0879
G1 X6.0447 Y14.0905
G1 X6.0365 Y14.0921
G1 X6.0281 Y14.0927
G1 X6.0198 Y14.0924
G1 X6.0115 Y14.091
G1 X6.0035 Y14.0887
G1 X5.9958 Y14.0854
G1 X5.992 Y14.0834
G1 X5.985 Y14.0788
G1 X5.9786 Y14.0733
G1 X5.973 Y14.0672
G1 X5.968 Y14.0604
G1 X5.964 Y14.0531
G1 X5.9608 Y14.0454
G1 X5.9586 Y14.0373
G1 X5.9573 Y14.0291
G1 X5.957 Y14.0207
G1 X5.9578 Y14.0124
G1 X5.9595 Y14.0042
G1 X5.9622 Y13.9963
G1 X5.9658 Y13.9887
G1 X5.9703 Y13.9817
G1 X5.9756 Y13.9752
G1 X5.9817 Y13.9694
G1 X5.9884 Y13.9644
G1 X5.992 Y13.9621
G1 X5.9995 Y13.9584
G1 X6.0074 Y13.9556
G1 X6.0155 Y13.9537
G1 X6.0238 Y13.9528
G1 X6.0322 Y13.9529
G1 X6.0405 Y13.9541
G1 X6.0486 Y13.9562
G1 X6.0564 Y13.9592
G1 X6.0638 Y13.9632
G1 X6.0706 Y13.968
G1 X6.0768 Y13.9736
G1 X6.0823 Y13.9799
G1 X6.0871 Y13.9868
G1 X6.0909 Y13.9942
G1 X6.0939 Y14.002
G1 X6.0959 Y14.0101
G1 X6.0969 Y14.0185
G1 X6.097 Y14.0222
G0 Z0.125
G0 X5.647
G0 Z0.03
G1 F5.0 Z-0.01
G1 F10.0 Y14.0692
G1 X5.407
G1 Y13.7792
G1 X5.647
G1 Y14.0222
G0 Z0.125
G0 X5.022
G0 Z0.03
G1 F5.0 Z-0.01
G1 F10.0 Y14.0692
G1 X4.732
G1 Y13.8292
G1 X5.022
G1 Y14.0222
G0 Z0.125
G0 X4.4809 Y13.951
G0 Z0.03
G1 F5.0 Z-0.01
G1 F10.0 X4.4794 Y13.9589
G1 X4.4769 Y13.9667
G1 X4.4734 Y13.974
G1 X4.4691 Y13.9809
G1 X4.464 Y13.9872
G1 X4.4581 Y13.9928
G1 X4.4516 Y13.9976
G1 X4.4445 Y14.0017
G1 X4.437 Y14.0048
G1 X4.4292 Y14.0069
G1 X4.4211 Y14.0081
G1 X4.413 Y14.0083
G1 X4.4049 Y14.0075
G1 X4.397 Y14.0057
G1 X4.3893 Y14.0029
G1 X4.3825 Y13.9995
G1 X4.3757 Y13.995
G1 X4.3696 Y13.9897
G1 X4.3641 Y13.9837
G1 X4.3594 Y13.9771
G1 X4.3556 Y13.9699
G1 X4.3526 Y13.9624
G1 X4.3506 Y13.9545
G1 X4.3496 Y13.9464
G1 Y13.9383
G1 X4.3506 Y13.9302
G1 X4.3526 Y13.9224
G1 X4.3555 Y13.9148
G1 X4.3594 Y13.9076
G1 X4.3641 Y13.901
G1 X4.3695 Y13.895
G1 X4.3757 Y13.8897
G1 X4.3825 Y13.8852
G1 X4.3898 Y13.8816
G1 X4.3974 Y13.8789
G1 X4.4054 Y13.8771
G1 X4.4135 Y13.8764
G1 X4.4216 Y13.8766
G1 X4.4296 Y13.8779
G1 X4.4374 Y13.8801
G1 X4.4449 Y13.8833
G1 X4.452 Y13.8873
G1 X4.4584 Y13.8922
G1 X4.4643 Y13.8979
G1 X4.4694 Y13.9042
G1 X4.4736 Y13.9111
G1 X4.477 Y13.9185
G1 X4.4795 Y13.9262
G1 X4.481 Y13.9342
G1 X4.4815 Y13.9423
G1 Y13.9424
G1 X4.481 Y13.9505
G1 X4.4809 Y13.951
G0 Z0.125
G0 X3.2582
G0 Z0.03
G1 F5.0 Z-0.01
G1 F10.0 Y14.0692
G1 X3.0182
G1 Y13.7792
G1 X3.2582
G1 Y13.951
G0 Z0.125
G0 X1.522
G0 Z0.03
G1 F5.0 Z-0.01
G1 F10.0 Y14.0692
G1 X1.232
G1 Y13.8292
G1 X1.522
G1 Y13.951
G0 Z0.125
G0 X0.9815 Y13.9433
G0 Z0.03
G1 F5.0 Z-0.01
G1 F10.0 X0.9809 Y13.9514
G1 X0.9793 Y13.9594
G1 X0.9767 Y13.9671
G1 X0.9732 Y13.9744
G1 X0.9688 Y13.9812
G1 X0.9637 Y13.9875
G1 X0.9577 Y13.9931
G1 X0.9512 Y13.9979
G1 X0.9441 Y14.0018
G1 X0.9366 Y14.0049
G1 X0.9287 Y14.007
G1 X0.9207 Y14.0081
G1 X0.9126 Y14.0083
G1 X0.9045 Y14.0074
G1 X0.8966 Y14.0056
G1 X0.889 Y14.0028
G1 X0.8825 Y13.9995
G1 X0.8757 Y13.995
G1 X0.8696 Y13.9897
G1 X0.8641 Y13.9837
G1 X0.8594 Y13.9771
G1 X0.8556 Y13.9699
G1 X0.8526 Y13.9624
G1 X0.8506 Y13.9545
G1 X0.8496 Y13.9464
G1 Y13.9383
G1 X0.8506 Y13.9302
G1 X0.8526 Y13.9224
G1 X0.8555 Y13.9148
G1 X0.8594 Y13.9076
G1 X0.8641 Y13.901
G1 X0.8695 Y13.895
G1 X0.8757 Y13.8897
G1 X0.8825 Y13.8852
G1 X0.8898 Y13.8816
G1 X0.8974 Y13.8789
G1 X0.9054 Y13.8771
G1 X0.9135 Y13.8764
G1 X0.9216 Y13.8766
G1 X0.9296 Y13.8779
G1 X0.9374 Y13.8801
G1 X0.9449 Y13.8833
G1 X0.952 Y13.8873
G1 X0.9584 Y13.8922
G1 X0.9643 Y13.8979
G1 X0.9694 Y13.9042
G1 X0.9736 Y13.9111
G1 X0.977 Y13.9185
G1 X0.9795 Y13.9262
G1 X0.981 Y13.9342
G1 X0.9815 Y13.9423
G1 Y13.9424
G1 Y13.9433
G0 Z0.125
G0 X1.8654 Y12.6752
G0 Z0.03
G1 F5.0 Z-0.01
G1 F10.0 X1.8605 Y12.6711
G1 X1.8563 Y12.6664
G1 X1.8529 Y12.6611
G1 X1.8504 Y12.6553
G1 X1.8488 Y12.6491
G1 X1.8482 Y12.6428
G1 X1.8487 Y12.6365
G1 X1.8501 Y12.6304
G1 X1.8524 Y12.6245
G1 X1.8557 Y12.6191
G1 X1.8598 Y12.6142
G1 X1.8646 Y12.6101
G1 X1.8682 Y12.6077
G1 X1.8739 Y12.605
G1 X1.88 Y12.6032
G1 X1.8863 Y12.6024
G1 X1.8926 Y12.6026
G1 X1.8988 Y12.6038
G1 X1.9048 Y12.6059
G1 X1.9103 Y12.609
G1 X1.9153 Y12.6129
G1 X1.9196 Y12.6175
G1 X1.9231 Y12.6228
G1 X1.9258 Y12.6285
G1 X1.9275 Y12.6346
G1 X1.9282 Y12.6409
G1 Y12.6423
G1 X1.9277 Y12.6486
G1 X1.9262 Y12.6548
G1 X1.9238 Y12.6606
G1 X1.9205 Y12.666
G1 X1.9163 Y12.6708
G1 X1.9115 Y12.6749
G1 X1.9061 Y12.6781
G1 X1.9002 Y12.6805
G1 X1.8941 Y12.6819
G1 X1.8878 Y12.6823
G1 X1.8815 Y12.6818
G1 X1.8753 Y12.6802
G1 X1.8695 Y12.6777
G1 X1.8682 Y12.677
G1 X1.8654 Y12.6752
G0 Z0.125
G0 X1.6627 Y11.84
G0 Z0.03
G1 F5.0 Z-0.01
G1 F10.0 X1.6564 Y11.841
G1 X1.6501
G1 X1.6439 Y11.84
G1 X1.6378 Y11.8381
G1 X1.6332 Y11.8358
G1 X1.628 Y11.8322
G1 X1.6234 Y11.8278
G1 X1.6196 Y11.8228
G1 X1.6166 Y11.8172
G1 X1.6145 Y11.8113
G1 X1.6134 Y11.805
G1 X1.6133 Y11.7987
G1 X1.6142 Y11.7925
G1 X1.616 Y11.7864
G1 X1.6188 Y11.7807
G1 X1.6225 Y11.7756
G1 X1.6269 Y11.771
G1 X1.632 Y11.7673
G1 X1.6332 Y11.7665
G1 X1.6389 Y11.7638
G1 X1.645 Y11.762
G1 X1.6513 Y11.7612
G1 X1.6576 Y11.7614
G1 X1.6638 Y11.7626
G1 X1.6698 Y11.7647
G1 X1.6753 Y11.7678
G1 X1.6803 Y11.7717
G1 X1.6846 Y11.7763
G1 X1.6881 Y11.7816
G1 X1.6908 Y11.7873
G1 X1.6925 Y11.7934
G1 X1.6932 Y11.7997
G1 Y11.8012
G1 X1.6927 Y11.8075
G1 X1.6912 Y11.8136
G1 X1.6888 Y11.8194
G1 X1.6855 Y11.8248
G1 X1.6813 Y11.8296
G1 X1.6765 Y11.8337
G1 X1.6711 Y11.8369
G1 X1.6652 Y11.8393
G1 X1.6627 Y11.84
G0 Z0.125
G0 X1.522 Y10.6142
G0 Z0.03
G1 F5.0 Z-0.01
G1 F10.0 X1.232
G1 Y10.3742
G1 X1.522
G1 Y10.6142
G0 Z0.125
G0 X0.9798 Y10.4885
G0 Z0.03
G1 F5.0 Z-0.01
G1 F10.0 X0.9775 Y10.4963
G1 X0.9742 Y10.5037
G1 X0.9701 Y10.5107
G1 X0.9651 Y10.5171
G1 X0.9594 Y10.5229
G1 X0.953 Y10.5279
G1 X0.946 Y10.5321
G1 X0.9386 Y10.5354
G1 X0.9308 Y10.5378
G1 X0.9228 Y10.5392
G1 X0.9147 Y10.5396
G1 X0.9066 Y10.539
G1 X0.8987 Y10.5374
G1 X0.8909 Y10.5348
G1 X0.8836 Y10.5313
G1 X0.8825 Y10.5307
G1 X0.8757 Y10.5262
G1 X0.8696 Y10.521
G1 X0.8641 Y10.515
G1 X0.8594 Y10.5083
G1 X0.8556 Y10.5012
G1 X0.8526 Y10.4936
G1 X0.8506 Y10.4857
G1 X0.8496 Y10.4777
G1 Y10.4695
G1 X0.8506 Y10.4615
G1 X0.8526 Y10.4536
G1 X0.8555 Y10.446
G1 X0.8594 Y10.4389
G1 X0.8641 Y10.4322
G1 X0.8695 Y10.4262
G1 X0.8757 Y10.4209
G1 X0.8825 Y10.4164
G1 X0.8898 Y10.4128
G1 X0.8974 Y10.4101
G1 X0.9054 Y10.4084
G1 X0.9135 Y10.4076
G1 X0.9216 Y10.4079
G1 X0.9296 Y10.4091
G1 X0.9374 Y10.4113
G1 X0.9449 Y10.4145
G1 X0.952 Y10.4185
G1 X0.9584 Y10.4234
G1 X0.9643 Y10.4291
G1 X0.9694 Y10.4354
G1 X0.9736 Y10.4423
G1 X0.977 Y10.4497
G1 X0.9795 Y10.4574
G1 X0.981 Y10.4654
G1 X0.9815 Y10.4735
G1 Y10.4736
G1 X0.981 Y10.4817
G1 X0.9798 Y10.4885
G0 Z0.125
G0 X3.0182
G0 Z0.03
G1 F5.0 Z-0.01
G1 F10.0 Y10.3742
G1 X3.2582
G1 Y10.6642
G1 X3.0182
G1 Y10.4885
G0 Z0.125
G0 X4.3495 Y10.4743
G0 Z0.03
G1 F5.0 Z-0.01
G1 F10.0 X4.3499 Y10.4662
G1 X4.3513 Y10.4582
G1 X4.3537 Y10.4504
G1 X4.357 Y10.443
G1 X4.3612 Y10.436
G1 X4.3663 Y10.4296
G1 X4.372 Y10.4239
G1 X4.3785 Y10.419
G1 X4.3825 Y10.4164
G1 X4.3898 Y10.4128
G1 X4.3974 Y10.4101
G1 X4.4054 Y10.4084
G1 X4.4135 Y10.4076
G1 X4.4216 Y10.4079
G1 X4.4296 Y10.4091
G1 X4.4374 Y10.4113
G1 X4.4449 Y10.4145
G1 X4.452 Y10.4185
G1 X4.4584 Y10.4234
G1 X4.4643 Y10.4291
G1 X4.4694 Y10.4354
G1 X4.4736 Y10.4423
G1 X4.477 Y10.4497
G1 X4.4795 Y10.4574
G1 X4.481 Y10.4654
G1 X4.4815 Y10.4735
G1 Y10.4736
G1 X4.481 Y10.4817
G1 X4.4795 Y10.4897
G1 X4.4771 Y10.4974
G1 X4.4737 Y10.5048
G1 X4.4694 Y10.5117
G1 X4.4643 Y10.518
G1 X4.4585 Y10.5237
G1 X4.452 Y10.5286
G1 X4.4449 Y10.5326
G1 X4.4375 Y10.5358
G1 X4.4297 Y10.538
G1 X4.4216 Y10.5393
G1 X4.4135 Y10.5395
G1 X4.4054 Y10.5388
G1 X4.3975 Y10.5371
G1 X4.3898 Y10.5344
G1 X4.3825 Y10.5307
G1 X4.3757 Y10.5262
G1 X4.3696 Y10.521
G1 X4.3641 Y10.515
G1 X4.3594 Y10.5083
G1 X4.3556 Y10.5012
G1 X4.3526 Y10.4936
G1 X4.3506 Y10.4857
G1 X4.3496 Y10.4777
G1 X4.3495 Y10.4743
G0 Z0.125
G0 X4.732
G0 Z0.03
G1 F5.0 Z-0.01
G1 F10.0 Y10.3742
G1 X5.022
G1 Y10.6142
G1 X4.732
G1 Y10.4743
G0 Z0.125
G0 X5.407
G0 Z0.03
G1 F5.0 Z-0.01
G1 F10.0 Y10.3742
G1 X5.647
G1 Y10.6642
G1 X5.407
G1 Y10.4743
G0 Z0.125
G0 X5.9573 Y10.4268
G0 Z0.03
G1 F5.0 Z-0.01
G1 F10.0 X5.9571 Y10.4184
G1 X5.9578 Y10.4101
G1 X5.9596 Y10.4019
G1 X5.9623 Y10.394
G1 X5.966 Y10.3865
G1 X5.9705 Y10.3794
G1 X5.9758 Y10.373
G1 X5.9819 Y10.3672
G1 X5.9886 Y10.3622
G1 X5.992 Y10.3601
G1 X5.9995 Y10.3564
G1 X6.0074 Y10.3536
G1 X6.0155 Y10.3517
G1 X6.0238 Y10.3508
G1 X6.0322 Y10.3509
G1 X6.0405 Y10.3521
G1 X6.0486 Y10.3542
G1 X6.0564 Y10.3572
G1 X6.0638 Y10.3612
G1 X6.0706 Y10.366
G1 X6.0768 Y10.3716
G1 X6.0823 Y10.3779
G1 X6.0871 Y10.3848
G1 X6.0909 Y10.3922
G1 X6.0939 Y10.4
G1 X6.0959 Y10.4081
G1 X6.0969 Y10.4165
G1 X6.097 Y10.4207
G1 X6.0965 Y10.4291
G1 X6.095 Y10.4373
G1 X6.0926 Y10.4453
G1 X6.0892 Y10.453
G1 X6.0849 Y10.4602
G1 X6.0798 Y10.4668
G1 X6.0739 Y10.4727
G1 X6.0673 Y10.478
G1 X6.0602 Y10.4824
G1 X6.0526 Y10.4859
G1 X6.0447 Y10.4885
G1 X6.0365 Y10.4901
G1 X6.0281 Y10.4907
G1 X6.0198 Y10.4904
G1 X6.0115 Y10.489
G1 X6.0035 Y10.4867
G1 X5.9958 Y10.4834
G1 X5.992 Y10.4814
G1 X5.985 Y10.4768
G1 X5.9786 Y10.4713
G1 X5.973 Y10.4652
G1 X5.968 Y10.4584
G1 X5.964 Y10.4511
G1 X5.9608 Y10.4434
G1 X5.9586 Y10.4353
G1 X5.9573 Y10.4271
G1 Y10.4268
G0 Z0.125
G0 X8.6932 Y10.4209
G0 Z0.03
G1 F5.0 Z-0.01
G1 F10.0 X8.6937 Y10.4125
G1 X8.6952 Y10.4043
G1 X8.6976 Y10.3963
G1 X8.701 Y10.3887
G1 X8.7053 Y10.3815
G1 X8.7104 Y10.3748
G1 X8.7163 Y10.3689
G1 X8.7228 Y10.3636
G1 X8.7282 Y10.3601
G1 X8.7357 Y10.3564
G1 X8.7436 Y10.3536
G1 X8.7517 Y10.3517
G1 X8.7601 Y10.3508
G1 X8.7684 Y10.3509
G1 X8.7767 Y10.3521
G1 X8.7848 Y10.3542
G1 X8.7926 Y10.3572
G1 X8.8 Y10.3612
G1 X8.8068 Y10.366
G1 X8.8131 Y10.3716
G1 X8.8186 Y10.3779
G1 X8.8233 Y10.3848
G1 X8.8271 Y10.3922
G1 X8.8301 Y10.4
G1 X8.8321 Y10.4081
G1 X8.8331 Y10.4165
G1 X8.8332 Y10.4207
G1 X8.8327 Y10.4291
G1 X8.8312 Y10.4373
G1 X8.8288 Y10.4453
G1 X8.8254 Y10.453
G1 X8.8211 Y10.4602
G1 X8.816 Y10.4668
G1 X8.8101 Y10.4727
G1 X8.8036 Y10.478
G1 X8.7965 Y10.4824
G1 X8.7889 Y10.4859
G1 X8.7809 Y10.4885
G1 X8.7727 Y10.4901
G1 X8.7644 Y10.4907
G1 X8.756 Y10.4904
G1 X8.7477 Y10.489
G1 X8.7397 Y10.4867
G1 X8.732 Y10.4834
G1 X8.7282 Y10.4814
G1 X8.7213 Y10.4768
G1 X8.7149 Y10.4713
G1 X8.7092 Y10.4652
G1 X8.7043 Y10.4584
G1 X8.7002 Y10.4511
G1 X8.697 Y10.4434
G1 X8.6948 Y10.4353
G1 X8.6935 Y10.4271
G1 X8.6932 Y10.4209
G0 Z0.125
G0 X9.2682
G0 Z0.03
G1 F5.0 Z-0.01
G1 F10.0 Y10.3742
G1 X9.5082
G1 Y10.6642
G1 X9.2682
G1 Y10.4209
( OutsideProfile1 )
S1000
G0 Z0.125
G0 X11.6632 Y14.2152
G0 Z0.03
G1 F5.0 Z-0.01
G1 F10.0 X11.6735 Y14.2147
G1 X11.6836 Y14.2132
G1 X11.6935 Y14.2108
G1 X11.7032 Y14.2073
G1 X11.7125 Y14.203
G1 X11.7213 Y14.1977
G1 X11.7295 Y14.1917
G1 X11.7372 Y14.1848
G1 X11.7441 Y14.1773
G1 X11.7502 Y14.1691
G1 X11.7555 Y14.1603
G1 X11.76 Y14.1511
G1 X11.7635 Y14.1414
G1 X11.7661 Y14.1315
G1 X11.7676 Y14.1214
G1 X11.7682 Y14.1112
G1 Y14.1102
G1 Y10.3332
G1 X11.7677 Y10.323
G1 X11.7662 Y10.3129
G1 X11.7638 Y10.3029
G1 X11.7603 Y10.2933
G1 X11.756 Y10.284
G1 X11.7507 Y10.2752
G1 X11.7447 Y10.2669
G1 X11.7378 Y10.2593
G1 X11.7302 Y10.2524
G1 X11.722 Y10.2463
G1 X11.7133 Y10.2409
G1 X11.704 Y10.2365
G1 X11.6944 Y10.233
G1 X11.6845 Y10.2304
G1 X11.6744 Y10.2288
G1 X11.6642 Y10.2282
G1 X11.6632
G1 X0.3632
G1 X0.353 Y10.2287
G1 X0.3429 Y10.2302
G1 X0.3329 Y10.2327
G1 X0.3233 Y10.2361
G1 X0.314 Y10.2405
G1 X0.3052 Y10.2457
G1 X0.2969 Y10.2518
G1 X0.2893 Y10.2587
G1 X0.2824 Y10.2662
G1 X0.2762 Y10.2744
G1 X0.2709 Y10.2832
G1 X0.2665 Y10.2924
G1 X0.263 Y10.3021
G1 X0.2604 Y10.312
G1 X0.2588 Y10.3221
G1 X0.2582 Y10.3323
G1 Y10.3332
G1 Y14.1102
G1 X0.2587 Y14.1205
G1 X0.2602 Y14.1306
G1 X0.2627 Y14.1406
G1 X0.2661 Y14.1502
G1 X0.2705 Y14.1595
G1 X0.2757 Y14.1683
G1 X0.2818 Y14.1765
G1 X0.2887 Y14.1842
G1 X0.2962 Y14.1911
G1 X0.3044 Y14.1972
G1 X0.3132 Y14.2025
G1 X0.3224 Y14.207
G1 X0.332 Y14.2105
G1 X0.342 Y14.2131
G1 X0.3521 Y14.2146
G1 X0.3623 Y14.2152
G1 X0.3632
G1 X11.2007
G1 X11.2029 Y14.2147
G1 X11.2047 Y14.2133
G1 X11.2056 Y14.2113
G1 X11.2057 Y14.2102
G1 X11.2062 Y14.2027
G1 X11.2077 Y14.1952
G1 X11.2102 Y14.1881
G1 X11.2136 Y14.1813
G1 X11.2178 Y14.175
G1 X11.2228 Y14.1693
G1 X11.2286 Y14.1644
G1 X11.2349 Y14.1602
G1 X11.2417 Y14.1569
G1 X11.2489 Y14.1545
G1 X11.2564 Y14.1532
G1 X11.264 Y14.1527
G1 X11.2715 Y14.1533
G1 X11.2789 Y14.1549
G1 X11.2861 Y14.1575
G1 X11.2928 Y14.1609
G1 X11.2991 Y14.1653
G1 X11.3047 Y14.1704
G1 X11.3096 Y14.1762
G1 X11.3136 Y14.1826
G1 X11.3168 Y14.1894
G1 X11.3191 Y14.1967
G1 X11.3204 Y14.2041
G1 X11.3207 Y14.2102
G1 X11.3212 Y14.2124
G1 X11.3226 Y14.2142
G1 X11.3247 Y14.2151
G1 X11.3257 Y14.2152
G1 X11.6632
( InsideProfile2 )
S1000
G0 Z0.125
G0 X14.7025 Y11.4625
G0 Z0.03
G1 F5.0 Z-0.01
G1 F10.0 X14.702 Y11.4701
G1 X14.7005 Y11.4775
G1 X14.6981 Y11.4847
G1 X14.6947 Y11.4915
G1 X14.6904 Y11.4977
G1 X14.6854 Y11.5034
G1 X14.6797 Y11.5084
G1 X14.6733 Y11.5125
G1 X14.6665 Y11.5158
G1 X14.6593 Y11.5182
G1 X14.6518 Y11.5196
G1 X14.6443 Y11.52
G1 X14.6367 Y11.5194
G1 X14.6293 Y11.5178
G1 X14.6221 Y11.5153
G1 X14.6163 Y11.5123
G1 X14.6099 Y11.5081
G1 X14.6043 Y11.5031
G1 X14.5993 Y11.4974
G1 X14.5951 Y11.491
G1 X14.5918 Y11.4842
G1 X14.5894 Y11.477
G1 X14.5879 Y11.4696
G1 X14.5875 Y11.462
G1 X14.5881 Y11.4544
G1 X14.5896 Y11.447
G1 X14.5921 Y11.4399
G1 X14.5956 Y11.4331
G1 X14.5999 Y11.4269
G1 X14.605 Y11.4212
G1 X14.6107 Y11.4163
G1 X14.6163 Y11.4127
G1 X14.6231 Y11.4094
G1 X14.6302 Y11.4069
G1 X14.6377 Y11.4055
G1 X14.6452 Y11.405
G1 X14.6528 Y11.4055
G1 X14.6602 Y11.4071
G1 X14.6674 Y11.4095
G1 X14.6742 Y11.413
G1 X14.6804 Y11.4172
G1 X14.6861 Y11.4223
G1 X14.691 Y11.428
G1 X14.6952 Y11.4344
G1 X14.6984 Y11.4412
G1 X14.7008 Y11.4485
G1 X14.7021 Y11.4559
G1 X14.7025 Y11.4625
G0 Z0.125
G0 X14.8875
G0 Z0.03
G1 F5.0 Z-0.01
G1 F10.0 X14.888 Y11.4549
G1 X14.8895 Y11.4475
G1 X14.8919 Y11.4403
G1 X14.8953 Y11.4335
G1 X14.8996 Y11.4273
G1 X14.9046 Y11.4216
G1 X14.9103 Y11.4166
G1 X14.9163 Y11.4127
G1 X14.9231 Y11.4094
G1 X14.9302 Y11.4069
G1 X14.9377 Y11.4055
G1 X14.9452 Y11.405
G1 X14.9528 Y11.4055
G1 X14.9602 Y11.4071
G1 X14.9674 Y11.4095
G1 X14.9742 Y11.413
G1 X14.9804 Y11.4172
G1 X14.9861 Y11.4223
G1 X14.991 Y11.428
G1 X14.9952 Y11.4344
G1 X14.9984 Y11.4412
G1 X15.0008 Y11.4485
G1 X15.0021 Y11.4559
G1 X15.0025 Y11.4625
G1 X15.002 Y11.4701
G1 X15.0005 Y11.4775
G1 X14.9981 Y11.4847
G1 X14.9947 Y11.4915
G1 X14.9904 Y11.4977
G1 X14.9854 Y11.5034
G1 X14.9797 Y11.5084
G1 X14.9733 Y11.5125
G1 X14.9665 Y11.5158
G1 X14.9593 Y11.5182
G1 X14.9518 Y11.5196
G1 X14.9443 Y11.52
G1 X14.9367 Y11.5194
G1 X14.9293 Y11.5178
G1 X14.9221 Y11.5153
G1 X14.9163 Y11.5123
G1 X14.9099 Y11.5081
G1 X14.9043 Y11.5031
G1 X14.8993 Y11.4974
G1 X14.8951 Y11.491
G1 X14.8918 Y11.4842
G1 X14.8894 Y11.477
G1 X14.8879 Y11.4696
G1 X14.8875 Y11.4625
G0 Z0.125
G0 X14.0775
G0 Z0.03
G1 F5.0 Z-0.01
G1 F10.0 X14.077 Y11.4701
G1 X14.0755 Y11.4775
G1 X14.0731 Y11.4847
G1 X14.0697 Y11.4915
G1 X14.0654 Y11.4977
G1 X14.0604 Y11.5034
G1 X14.0547 Y11.5084
G1 X14.0483 Y11.5125
G1 X14.0415 Y11.5158
G1 X14.0343 Y11.5182
G1 X14.0268 Y11.5196
G1 X14.0193 Y11.52
G1 X14.0117 Y11.5194
G1 X14.0043 Y11.5178
G1 X13.9971 Y11.5153
G1 X13.9913 Y11.5123
G1 X13.9849 Y11.5081
G1 X13.9793 Y11.5031
G1 X13.9743 Y11.4974
G1 X13.9701 Y11.491
G1 X13.9668 Y11.4842
G1 X13.9644 Y11.477
G1 X13.9629 Y11.4696
G1 X13.9625 Y11.462
G1 X13.9631 Y11.4544
G1 X13.9646 Y11.447
G1 X13.9671 Y11.4399
G1 X13.9706 Y11.4331
G1 X13.9749 Y11.4269
G1 X13.98 Y11.4212
G1 X13.9857 Y11.4163
G1 X13.9913 Y11.4127
G1 X13.9981 Y11.4094
G1 X14.0052 Y11.4069
G1 X14.0127 Y11.4055
G1 X14.0202 Y11.405
G1 X14.0278 Y11.4055
G1 X14.0352 Y11.4071
G1 X14.0424 Y11.4095
G1 X14.0492 Y11.413
G1 X14.0554 Y11.4172
G1 X14.0611 Y11.4223
G1 X14.066 Y11.428
G1 X14.0702 Y11.4344
G1 X14.0734 Y11.4412
G1 X14.0758 Y11.4485
G1 X14.0771 Y11.4559
G1 X14.0775 Y11.4625
G0 Z0.125
G0 X14.0329 Y11.6565
G0 Z0.03
G1 F5.0 Z-0.01
G1 F10.0 X14.0402 Y11.6586
G1 X14.0471 Y11.6618
G1 X14.0535 Y11.6658
G1 X14.0594 Y11.6706
G1 X14.0645 Y11.6761
G1 X14.0689 Y11.6823
G1 X14.0725 Y11.689
G1 X14.0751 Y11.6961
G1 X14.0768 Y11.7035
G1 X14.0775 Y11.7111
G1 Y11.7125
G1 X14.077 Y11.7201
G1 X14.0755 Y11.7275
G1 X14.0731 Y11.7347
G1 X14.0697 Y11.7415
G1 X14.0654 Y11.7477
G1 X14.0604 Y11.7534
G1 X14.0547 Y11.7584
G1 X14.0483 Y11.7625
G1 X14.0415 Y11.7658
G1 X14.0343 Y11.7682
G1 X14.0268 Y11.7696
G1 X14.0193 Y11.77
G1 X14.0117 Y11.7694
G1 X14.0043 Y11.7678
G1 X13.9971 Y11.7653
G1 X13.9913 Y11.7623
G1 X13.9849 Y11.7581
G1 X13.9793 Y11.7531
G1 X13.9743 Y11.7474
G1 X13.9701 Y11.741
G1 X13.9668 Y11.7342
G1 X13.9644 Y11.727
G1 X13.9629 Y11.7196
G1 X13.9625 Y11.712
G1 X13.9631 Y11.7044
G1 X13.9646 Y11.697
G1 X13.9671 Y11.6899
G1 X13.9706 Y11.6831
G1 X13.9749 Y11.6769
G1 X13.98 Y11.6712
G1 X13.9857 Y11.6663
G1 X13.9913 Y11.6627
G1 X13.9981 Y11.6594
G1 X14.0052 Y11.6569
G1 X14.0127 Y11.6555
G1 X14.0202 Y11.655
G1 X14.0278 Y11.6555
G1 X14.0329 Y11.6565
G0 Z0.125
G0 X13.7766 Y11.7024
G0 Z0.03
G1 F5.0 Z-0.01
G1 F10.0 X13.7774 Y11.7099
G1 X13.7775 Y11.7125
G1 X13.777 Y11.7201
G1 X13.7755 Y11.7275
G1 X13.7731 Y11.7347
G1 X13.7697 Y11.7415
G1 X13.7654 Y11.7477
G1 X13.7604 Y11.7534
G1 X13.7547 Y11.7584
G1 X13.7483 Y11.7625
G1 X13.7415 Y11.7658
G1 X13.7343 Y11.7682
G1 X13.7268 Y11.7696
G1 X13.7193 Y11.77
G1 X13.7117 Y11.7694
G1 X13.7043 Y11.7678
G1 X13.6971 Y11.7653
G1 X13.6913 Y11.7623
G1 X13.6849 Y11.7581
G1 X13.6793 Y11.7531
G1 X13.6743 Y11.7474
G1 X13.6701 Y11.741
G1 X13.6668 Y11.7342
G1 X13.6644 Y11.727
G1 X13.6629 Y11.7196
G1 X13.6625 Y11.712
G1 X13.6631 Y11.7044
G1 X13.6646 Y11.697
G1 X13.6671 Y11.6899
G1 X13.6706 Y11.6831
G1 X13.6749 Y11.6769
G1 X13.68 Y11.6712
G1 X13.6857 Y11.6663
G1 X13.6913 Y11.6627
G1 X13.6981 Y11.6594
G1 X13.7052 Y11.6569
G1 X13.7127 Y11.6555
G1 X13.7202 Y11.655
G1 X13.7278 Y11.6555
G1 X13.7352 Y11.6571
G1 X13.7424 Y11.6595
G1 X13.7492 Y11.663
G1 X13.7554 Y11.6672
G1 X13.7611 Y11.6723
G1 X13.766 Y11.678
G1 X13.7702 Y11.6844
G1 X13.7734 Y11.6912
G1 X13.7758 Y11.6985
G1 X13.7766 Y11.7024
G0 Z0.125
G0 X13.7332 Y11.5185
G0 Z0.03
G1 F5.0 Z-0.01
G1 F10.0 X13.7257 Y11.5197
G1 X13.7181 Y11.52
G1 X13.7106 Y11.5192
G1 X13.7032 Y11.5175
G1 X13.6961 Y11.5148
G1 X13.6913 Y11.5123
G1 X13.6849 Y11.5081
G1 X13.6793 Y11.5031
G1 X13.6743 Y11.4974
G1 X13.6701 Y11.491
G1 X13.6668 Y11.4842
G1 X13.6644 Y11.477
G1 X13.6629 Y11.4696
G1 X13.6625 Y11.462
G1 X13.6631 Y11.4544
G1 X13.6646 Y11.447
G1 X13.6671 Y11.4399
G1 X13.6706 Y11.4331
G1 X13.6749 Y11.4269
G1 X13.68 Y11.4212
G1 X13.6857 Y11.4163
G1 X13.6913 Y11.4127
G1 X13.6981 Y11.4094
G1 X13.7052 Y11.4069
G1 X13.7127 Y11.4055
G1 X13.7202 Y11.405
G1 X13.7278 Y11.4055
G1 X13.7352 Y11.4071
G1 X13.7424 Y11.4095
G1 X13.7492 Y11.413
G1 X13.7554 Y11.4172
G1 X13.7611 Y11.4223
G1 X13.766 Y11.428
G1 X13.7702 Y11.4344
G1 X13.7734 Y11.4412
G1 X13.7758 Y11.4485
G1 X13.7771 Y11.4559
G1 X13.7775 Y11.4625
G1 X13.777 Y11.4701
G1 X13.7755 Y11.4775
G1 X13.7731 Y11.4847
G1 X13.7697 Y11.4915
G1 X13.7654 Y11.4977
G1 X13.7604 Y11.5034
G1 X13.7547 Y11.5084
G1 X13.7483 Y11.5125
G1 X13.7415 Y11.5158
G1 X13.7343 Y11.5182
G1 X13.7332 Y11.5185
G0 Z0.125
G0 X12.0646 Y11.3226
G0 Z0.03
G1 F5.0 Z-0.01
G1 F10.0 X12.0631 Y11.3305
G1 X12.0607 Y11.3382
G1 X12.0574 Y11.3455
G1 X12.0532 Y11.3524
G1 X12.0481 Y11.3587
G1 X12.0423 Y11.3643
G1 X12.0359 Y11.3692
G1 X12.0289 Y11.3732
G1 X12.0215 Y11.3763
G1 X12.0137 Y11.3785
G1 X12.0058 Y11.3797
G1 X11.9977 Y11.38
G1 X11.9897 Y11.3792
G1 X11.9818 Y11.3774
G1 X11.9742 Y11.3747
G1 X11.9675 Y11.3713
G1 X11.9608 Y11.3668
G1 X11.9547 Y11.3616
G1 X11.9492 Y11.3556
G1 X11.9446 Y11.349
G1 X11.9408 Y11.3419
G1 X11.938 Y11.3344
G1 X11.936 Y11.3265
G1 X11.9351 Y11.3185
G1 X11.9352 Y11.3105
G1 X11.9362 Y11.3025
G1 X11.9383 Y11.2947
G1 X11.9413 Y11.2872
G1 X11.9451 Y11.2801
G1 X11.9499 Y11.2736
G1 X11.9554 Y11.2677
G1 X11.9616 Y11.2626
G1 X11.9675 Y11.2587
G1 X11.9747 Y11.2551
G1 X11.9823 Y11.2524
G1 X11.9902 Y11.2507
G1 X11.9982 Y11.25
G1 X12.0063 Y11.2503
G1 X12.0143 Y11.2516
G1 X12.022 Y11.2538
G1 X12.0294 Y11.257
G1 X12.0363 Y11.2611
G1 X12.0427 Y11.266
G1 X12.0485 Y11.2717
G1 X12.0535 Y11.278
G1 X12.0576 Y11.2849
G1 X12.0609 Y11.2923
G1 X12.0632 Y11.3
G1 X12.0646 Y11.308
G1 X12.065 Y11.315
G1 X12.0646 Y11.3226
G0 Z0.125
G0 X12.0016 Y13.945
G0 Z0.03
G1 F5.0 Z-0.01
G1 F10.0 X12.0096 Y13.9457
G1 X12.0175 Y13.9474
G1 X12.0251 Y13.95
G1 X12.0323 Y13.9536
G1 X12.0391 Y13.958
G1 X12.0452 Y13.9633
G1 X12.0506 Y13.9692
G1 X12.0553 Y13.9758
G1 X12.0591 Y13.9829
G1 X12.062 Y13.9904
G1 X12.0639 Y13.9983
G1 X12.0649 Y14.0063
G1 X12.065 Y14.01
G1 X12.0645 Y14.018
G1 X12.063 Y14.026
G1 X12.0605 Y14.0336
G1 X12.0572 Y14.041
G1 X12.0529 Y14.0478
G1 X12.0478 Y14.0541
G1 X12.042 Y14.0596
G1 X12.0355 Y14.0644
G1 X12.0285 Y14.0684
G1 X12.021 Y14.0715
G1 X12.0133 Y14.0736
G1 X12.0053 Y14.0748
G1 X11.9972 Y14.0749
G1 X11.9892 Y14.0741
G1 X11.9814 Y14.0723
G1 X11.9738 Y14.0695
G1 X11.9675 Y14.0663
G1 X11.9608 Y14.0618
G1 X11.9547 Y14.0566
G1 X11.9492 Y14.0506
G1 X11.9446 Y14.044
G1 X11.9408 Y14.0369
G1 X11.938 Y14.0294
G1 X11.936 Y14.0215
G1 X11.9351 Y14.0135
G1 X11.9352 Y14.0055
G1 X11.9362 Y13.9975
G1 X11.9383 Y13.9897
G1 X11.9413 Y13.9822
G1 X11.9451 Y13.9751
G1 X11.9499 Y13.9686
G1 X11.9554 Y13.9627
G1 X11.9616 Y13.9576
G1 X11.9675 Y13.9537
G1 X11.9747 Y13.9501
G1 X11.9823 Y13.9474
G1 X11.9902 Y13.9457
G1 X11.9982 Y13.945
G1 X12.0016
( OutsideProfile2 )
S1000
G0 Z0.125
G0 X12.09 Y11.48
G0 Z0.03
G1 F5.0 Z-0.01
G1 F10.0 Y13.845
G1 X11.875
G1 X11.8728 Y13.8455
G1 X11.8711 Y13.8469
G1 X11.8701 Y13.8489
G1 X11.87 Y13.85
G1 Y14.25
G1 X11.8705 Y14.2522
G1 X11.8719 Y14.2539
G1 X11.8739 Y14.2549
G1 X11.875 Y14.255
G1 X12.25
G1 X12.2522 Y14.2545
G1 X12.2534 Y14.2536
G1 X12.502 Y14.0175
G1 X15.792
G1 X15.7942 Y14.017
G1 X15.7959 Y14.0156
G1 X15.7969 Y14.0136
G1 X15.797 Y14.0125
G1 Y13.7625
G1 X15.7965 Y13.7603
G1 X15.7951 Y13.7586
G1 X15.7931 Y13.7576
G1 X15.792 Y13.7575
G1 X15.7108
G1 Y13.6425
G1 X16.0133
G1 X16.0132 Y13.7575
G1 X15.932
G1 X15.9298 Y13.758
G1 X15.9281 Y13.7594
G1 X15.9271 Y13.7614
G1 X15.927 Y13.7625
G1 Y14.0125
G1 X15.9275 Y14.0147
G1 X15.9289 Y14.0164
G1 X15.9309 Y14.0174
G1 X15.932 Y14.0175
G1 X16.8106
G1 X16.8128 Y14.017
G1 X16.8145 Y14.0156
G1 X16.8155 Y14.0136
G1 X16.8156 Y14.0125
G1 Y13.7625
G1 X16.8151 Y13.7603
G1 X16.8137 Y13.7586
G1 X16.8117 Y13.7576
G1 X16.8106 Y13.7575
G1 X16.7294
G1 Y13.6425
G1 X17.0319
G1 X17.0318 Y13.7575
G1 X16.9506
G1 X16.9484 Y13.758
G1 X16.9467 Y13.7594
G1 X16.9457 Y13.7614
G1 X16.9456 Y13.7625
G1 Y14.0125
G1 X16.9461 Y14.0147
G1 X16.9475 Y14.0164
G1 X16.9495 Y14.0174
G1 X16.9506 Y14.0175
G1 X17.7
G1 X17.7022 Y14.017
G1 X17.7039 Y14.0156
G1 X17.7049 Y14.0136
G1 X17.705 Y14.0125
G1 Y13.0825
G1 X17.7045 Y13.0803
G1 X17.7031 Y13.0786
G1 X17.7011 Y13.0776
G1 X17.7 Y13.0775
G1 X17.45
G1 X17.4478 Y13.078
G1 X17.4461 Y13.0794
G1 X17.4451 Y13.0814
G1 X17.445 Y13.0825
G1 Y13.1637
G1 X17.33 Y13.1638
G1 Y12.8612
G1 X17.445
G1 Y12.9425
G1 X17.4455 Y12.9447
G1 X17.4469 Y12.9464
G1 X17.4489 Y12.9474
G1 X17.45 Y12.9475
G1 X17.7
G1 X17.7022 Y12.947
G1 X17.7039 Y12.9456
G1 X17.7049 Y12.9436
G1 X17.705 Y12.9425
G1 Y11.8825
G1 X17.7045 Y11.8803
G1 X17.7031 Y11.8786
G1 X17.7011 Y11.8776
G1 X17.7 Y11.8775
G1 X17.45
G1 X17.4478 Y11.878
G1 X17.4461 Y11.8794
G1 X17.4451 Y11.8814
G1 X17.445 Y11.8825
G1 Y11.9637
G1 X17.33
G1 Y11.6612
G1 X17.445
G1 Y11.7425
G1 X17.4455 Y11.7447
G1 X17.4469 Y11.7464
G1 X17.4489 Y11.7474
G1 X17.45 Y11.7475
G1 X17.7
G1 X17.7022 Y11.747
G1 X17.7039 Y11.7456
G1 X17.7049 Y11.7436
G1 X17.705 Y11.7425
G1 Y11.3125
G1 X17.7045 Y11.3103
G1 X17.7031 Y11.3086
G1 X17.7011 Y11.3076
G1 X17.7 Y11.3075
G1 X12.502
G1 X12.2534 Y11.0714
G1 X12.2515 Y11.0702
G1 X12.25 Y11.07
G1 X11.875
G1 X11.8728 Y11.0705
G1 X11.8711 Y11.0719
G1 X11.8701 Y11.0739
G1 X11.87 Y11.075
G1 Y11.475
G1 X11.8705 Y11.4772
G1 X11.8719 Y11.4789
G1 X11.8739 Y11.4799
G1 X11.875 Y11.48
G1 X12.09
( InsideProfile3 )
S1000
G0 Z0.125
G0 X20.6775 Y11.4625
G0 Z0.03
G1 F5.0 Z-0.01
G1 F10.0 X20.677 Y11.4701
G1 X20.6755 Y11.4775
G1 X20.6731 Y11.4847
G1 X20.6697 Y11.4915
G1 X20.6654 Y11.4977
G1 X20.6604 Y11.5034
G1 X20.6547 Y11.5084
G1 X20.6483 Y11.5125
G1 X20.6415 Y11.5158
G1 X20.6343 Y11.5182
G1 X20.6268 Y11.5196
G1 X20.6193 Y11.52
G1 X20.6117 Y11.5194
G1 X20.6043 Y11.5178
G1 X20.5971 Y11.5153
G1 X20.5913 Y11.5123
G1 X20.5849 Y11.5081
G1 X20.5793 Y11.5031
G1 X20.5743 Y11.4974
G1 X20.5701 Y11.491
G1 X20.5668 Y11.4842
G1 X20.5644 Y11.477
G1 X20.5629 Y11.4696
G1 X20.5625 Y11.462
G1 X20.5631 Y11.4544
G1 X20.5646 Y11.447
G1 X20.5671 Y11.4399
G1 X20.5706 Y11.4331
G1 X20.5749 Y11.4269
G1 X20.58 Y11.4212
G1 X20.5857 Y11.4163
G1 X20.5913 Y11.4127
G1 X20.5981 Y11.4094
G1 X20.6052 Y11.4069
G1 X20.6127 Y11.4055
G1 X20.6202 Y11.405
G1 X20.6278 Y11.4055
G1 X20.6352 Y11.4071
G1 X20.6424 Y11.4095
G1 X20.6492 Y11.413
G1 X20.6554 Y11.4172
G1 X20.6611 Y11.4223
G1 X20.666 Y11.428
G1 X20.6702 Y11.4344
G1 X20.6734 Y11.4412
G1 X20.6758 Y11.4485
G1 X20.6771 Y11.4559
G1 X20.6775 Y11.4625
G0 Z0.125
G0 X20.8625
G0 Z0.03
G1 F5.0 Z-0.01
G1 F10.0 X20.863 Y11.4549
G1 X20.8645 Y11.4475
G1 X20.8669 Y11.4403
G1 X20.8703 Y11.4335
G1 X20.8746 Y11.4273
G1 X20.8796 Y11.4216
G1 X20.8853 Y11.4166
G1 X20.8913 Y11.4127
G1 X20.8981 Y11.4094
G1 X20.9052 Y11.4069
G1 X20.9127 Y11.4055
G1 X20.9202 Y11.405
G1 X20.9278 Y11.4055
G1 X20.9352 Y11.4071
G1 X20.9424 Y11.4095
G1 X20.9492 Y11.413
G1 X20.9554 Y11.4172
G1 X20.9611 Y11.4223
G1 X20.966 Y11.428
G1 X20.9702 Y11.4344
G1 X20.9734 Y11.4412
G1 X20.9758 Y11.4485
G1 X20.9771 Y11.4559
G1 X20.9775 Y11.4625
G1 X20.977 Y11.4701
G1 X20.9755 Y11.4775
G1 X20.9731 Y11.4847
G1 X20.9697 Y11.4915
G1 X20.9654 Y11.4977
G1 X20.9604 Y11.5034
G1 X20.9547 Y11.5084
G1 X20.9483 Y11.5125
G1 X20.9415 Y11.5158
G1 X20.9343 Y11.5182
G1 X20.9268 Y11.5196
G1 X20.9193 Y11.52
G1 X20.9117 Y11.5194
G1 X20.9043 Y11.5178
G1 X20.8971 Y11.5153
G1 X20.8913 Y11.5123
G1 X20.8849 Y11.5081
G1 X20.8793 Y11.5031
G1 X20.8743 Y11.4974
G1 X20.8701 Y11.491
G1 X20.8668 Y11.4842
G1 X20.8644 Y11.477
G1 X20.8629 Y11.4696
G1 X20.8625 Y11.4625
G0 Z0.125
G0 X20.0525
G0 Z0.03
G1 F5.0 Z-0.01
G1 F10.0 X20.052 Y11.4701
G1 X20.0505 Y11.4775
G1 X20.0481 Y11.4847
G1 X20.0447 Y11.4915
G1 X20.0404 Y11.4977
G1 X20.0354 Y11.5034
G1 X20.0297 Y11.5084
G1 X20.0233 Y11.5125
G1 X20.0165 Y11.5158
G1 X20.0093 Y11.5182
G1 X20.0018 Y11.5196
G1 X19.9943 Y11.52
G1 X19.9867 Y11.5194
G1 X19.9793 Y11.5178
G1 X19.9721 Y11.5153
G1 X19.9663 Y11.5123
G1 X19.9599 Y11.5081
G1 X19.9543 Y11.5031
G1 X19.9493 Y11.4974
G1 X19.9451 Y11.491
G1 X19.9418 Y11.4842
G1 X19.9394 Y11.477
G1 X19.9379 Y11.4696
G1 X19.9375 Y11.462
G1 X19.9381 Y11.4544
G1 X19.9396 Y11.447
G1 X19.9421 Y11.4399
G1 X19.9456 Y11.4331
G1 X19.9499 Y11.4269
G1 X19.955 Y11.4212
G1 X19.9607 Y11.4163
G1 X19.9663 Y11.4127
G1 X19.9731 Y11.4094
G1 X19.9802 Y11.4069
G1 X19.9877 Y11.4055
G1 X19.9952 Y11.405
G1 X20.0028 Y11.4055
G1 X20.0102 Y11.4071
G1 X20.0174 Y11.4095
G1 X20.0242 Y11.413
G1 X20.0304 Y11.4172
G1 X20.0361 Y11.4223
G1 X20.041 Y11.428
G1 X20.0452 Y11.4344
G1 X20.0484 Y11.4412
G1 X20.0508 Y11.4485
G1 X20.0521 Y11.4559
G1 X20.0525 Y11.4625
G0 Z0.125
G0 X20.0079 Y11.6565
G0 Z0.03
G1 F5.0 Z-0.01
G1 F10.0 X20.0152 Y11.6586
G1 X20.0221 Y11.6618
G1 X20.0285 Y11.6658
G1 X20.0344 Y11.6706
G1 X20.0395 Y11.6761
G1 X20.0439 Y11.6823
G1 X20.0475 Y11.689
G1 X20.0501 Y11.6961
G1 X20.0518 Y11.7035
G1 X20.0525 Y11.7111
G1 Y11.7125
G1 X20.052 Y11.7201
G1 X20.0505 Y11.7275
G1 X20.0481 Y11.7347
G1 X20.0447 Y11.7415
G1 X20.0404 Y11.7477
G1 X20.0354 Y11.7534
G1 X20.0297 Y11.7584
G1 X20.0233 Y11.7625
G1 X20.0165 Y11.7658
G1 X20.0093 Y11.7682
G1 X20.0018 Y11.7696
G1 X19.9943 Y11.77
G1 X19.9867 Y11.7694
G1 X19.9793 Y11.7678
G1 X19.9721 Y11.7653
G1 X19.9663 Y11.7623
G1 X19.9599 Y11.7581
G1 X19.9543 Y11.7531
G1 X19.9493 Y11.7474
G1 X19.9451 Y11.741
G1 X19.9418 Y11.7342
G1 X19.9394 Y11.727
G1 X19.9379 Y11.7196
G1 X19.9375 Y11.712
G1 X19.9381 Y11.7044
G1 X19.9396 Y11.697
G1 X19.9421 Y11.6899
G1 X19.9456 Y11.6831
G1 X19.9499 Y11.6769
G1 X19.955 Y11.6712
G1 X19.9607 Y11.6663
G1 X19.9663 Y11.6627
G1 X19.9731 Y11.6594
G1 X19.9802 Y11.6569
G1 X19.9877 Y11.6555
G1 X19.9952 Y11.655
G1 X20.0028 Y11.6555
G1 X20.0079 Y11.6565
G0 Z0.125
G0 X19.7516 Y11.7024
G0 Z0.03
G1 F5.0 Z-0.01
G1 F10.0 X19.7524 Y11.7099
G1 X19.7525 Y11.7125
G1 X19.752 Y11.7201
G1 X19.7505 Y11.7275
G1 X19.7481 Y11.7347
G1 X19.7447 Y11.7415
G1 X19.7404 Y11.7477
G1 X19.7354 Y11.7534
G1 X19.7297 Y11.7584
G1 X19.7233 Y11.7625
G1 X19.7165 Y11.7658
G1 X19.7093 Y11.7682
G1 X19.7018 Y11.7696
G1 X19.6943 Y11.77
G1 X19.6867 Y11.7694
G1 X19.6793 Y11.7678
G1 X19.6721 Y11.7653
G1 X19.6663 Y11.7623
G1 X19.6599 Y11.7581
G1 X19.6543 Y11.7531
G1 X19.6493 Y11.7474
G1 X19.6451 Y11.741
G1 X19.6418 Y11.7342
G1 X19.6394 Y11.727
G1 X19.6379 Y11.7196
G1 X19.6375 Y11.712
G1 X19.6381 Y11.7044
G1 X19.6396 Y11.697
G1 X19.6421 Y11.6899
G1 X19.6456 Y11.6831
G1 X19.6499 Y11.6769
G1 X19.655 Y11.6712
G1 X19.6607 Y11.6663
G1 X19.6663 Y11.6627
G1 X19.6731 Y11.6594
G1 X19.6802 Y11.6569
G1 X19.6877 Y11.6555
G1 X19.6952 Y11.655
G1 X19.7028 Y11.6555
G1 X19.7102 Y11.6571
G1 X19.7174 Y11.6595
G1 X19.7242 Y11.663
G1 X19.7304 Y11.6672
G1 X19.7361 Y11.6723
G1 X19.741 Y11.678
G1 X19.7452 Y11.6844
G1 X19.7484 Y11.6912
G1 X19.7508 Y11.6985
G1 X19.7516 Y11.7024
G0 Z0.125
G0 X19.7082 Y11.5185
G0 Z0.03
G1 F5.0 Z-0.01
G1 F10.0 X19.7007 Y11.5197
G1 X19.6931 Y11.52
G1 X19.6856 Y11.5192
G1 X19.6782 Y11.5175
G1 X19.6711 Y11.5148
G1 X19.6663 Y11.5123
G1 X19.6599 Y11.5081
G1 X19.6543 Y11.5031
G1 X19.6493 Y11.4974
G1 X19.6451 Y11.491
G1 X19.6418 Y11.4842
G1 X19.6394 Y11.477
G1 X19.6379 Y11.4696
G1 X19.6375 Y11.462
G1 X19.6381 Y11.4544
G1 X19.6396 Y11.447
G1 X19.6421 Y11.4399
G1 X19.6456 Y11.4331
G1 X19.6499 Y11.4269
G1 X19.655 Y11.4212
G1 X19.6607 Y11.4163
G1 X19.6663 Y11.4127
G1 X19.6731 Y11.4094
G1 X19.6802 Y11.4069
G1 X19.6877 Y11.4055
G1 X19.6952 Y11.405
G1 X19.7028 Y11.4055
G1 X19.7102 Y11.4071
G1 X19.7174 Y11.4095
G1 X19.7242 Y11.413
G1 X19.7304 Y11.4172
G1 X19.7361 Y11.4223
G1 X19.741 Y11.428
G1 X19.7452 Y11.4344
G1 X19.7484 Y11.4412
G1 X19.7508 Y11.4485
G1 X19.7521 Y11.4559
G1 X19.7525 Y11.4625
G1 X19.752 Y11.4701
G1 X19.7505 Y11.4775
G1 X19.7481 Y11.4847
G1 X19.7447 Y11.4915
G1 X19.7404 Y11.4977
G1 X19.7354 Y11.5034
G1 X19.7297 Y11.5084
G1 X19.7233 Y11.5125
G1 X19.7165 Y11.5158
G1 X19.7093 Y11.5182
G1 X19.7082 Y11.5185
G0 Z0.125
G0 X18.0396 Y11.3226
G0 Z0.03
G1 F5.0 Z-0.01
G1 F10.0 X18.0381 Y11.3305
G1 X18.0357 Y11.3382
G1 X18.0324 Y11.3455
G1 X18.0282 Y11.3524
G1 X18.0231 Y11.3587
G1 X18.0173 Y11.3643
G1 X18.0109 Y11.3692
G1 X18.0039 Y11.3732
G1 X17.9965 Y11.3763
G1 X17.9887 Y11.3785
G1 X17.9808 Y11.3797
G1 X17.9727 Y11.38
G1 X17.9647 Y11.3792
G1 X17.9568 Y11.3774
G1 X17.9492 Y11.3747
G1 X17.9425 Y11.3713
G1 X17.9358 Y11.3668
G1 X17.9297 Y11.3616
G1 X17.9242 Y11.3556
G1 X17.9196 Y11.349
G1 X17.9158 Y11.3419
G1 X17.913 Y11.3344
G1 X17.911 Y11.3265
G1 X17.9101 Y11.3185
G1 X17.9102 Y11.3105
G1 X17.9112 Y11.3025
G1 X17.9133 Y11.2947
G1 X17.9163 Y11.2872
G1 X17.9201 Y11.2801
G1 X17.9249 Y11.2736
G1 X17.9304 Y11.2677
G1 X17.9366 Y11.2626
G1 X17.9425 Y11.2587
G1 X17.9497 Y11.2551
G1 X17.9573 Y11.2524
G1 X17.9652 Y11.2507
G1 X17.9732 Y11.25
G1 X17.9813 Y11.2503
G1 X17.9893 Y11.2516
G1 X17.997 Y11.2538
G1 X18.0044 Y11.257
G1 X18.0113 Y11.2611
G1 X18.0177 Y11.266
G1 X18.0235 Y11.2717
G1 X18.0285 Y11.278
G1 X18.0326 Y11.2849
G1 X18.0359 Y11.2923
G1 X18.0382 Y11.3
G1 X18.0396 Y11.308
G1 X18.04 Y11.315
G1 X18.0396 Y11.3226
G0 Z0.125
G0 X17.9766 Y13.945
G0 Z0.03
G1 F5.0 Z-0.01
G1 F10.0 X17.9846 Y13.9457
G1 X17.9925 Y13.9474
G1 X18.0001 Y13.95
G1 X18.0073 Y13.9536
G1 X18.0141 Y13.958
G1 X18.0202 Y13.9633
G1 X18.0256 Y13.9692
G1 X18.0303 Y13.9758
G1 X18.0341 Y13.9829
G1 X18.037 Y13.9904
G1 X18.0389 Y13.9983
G1 X18.0399 Y14.0063
G1 X18.04 Y14.01
G1 X18.0395 Y14.018
G1 X18.038 Y14.026
G1 X18.0355 Y14.0336
G1 X18.0322 Y14.041
G1 X18.0279 Y14.0478
G1 X18.0228 Y14.0541
G1 X18.017 Y14.0596
G1 X18.0105 Y14.0644
G1 X18.0035 Y14.0684
G1 X17.996 Y14.0715
G1 X17.9883 Y14.0736
G1 X17.9803 Y14.0748
G1 X17.9722 Y14.0749
G1 X17.9642 Y14.0741
G1 X17.9564 Y14.0723
G1 X17.9488 Y14.0695
G1 X17.9425 Y14.0663
G1 X17.9358 Y14.0618
G1 X17.9297 Y14.0566
G1 X17.9242 Y14.0506
G1 X17.9196 Y14.044
G1 X17.9158 Y14.0369
G1 X17.913 Y14.0294
G1 X17.911 Y14.0215
G1 X17.9101 Y14.0135
G1 X17.9102 Y14.0055
G1 X17.9112 Y13.9975
G1 X17.9133 Y13.9897
G1 X17.9163 Y13.9822
G1 X17.9201 Y13.9751
G1 X17.9249 Y13.9686
G1 X17.9304 Y13.9627
G1 X17.9366 Y13.9576
G1 X17.9425 Y13.9537
G1 X17.9497 Y13.9501
G1 X17.9573 Y13.9474
G1 X17.9652 Y13.9457
G1 X17.9732 Y13.945
G1 X17.9766
( OutsideProfile3 )
S1000
G0 Z0.125
G0 X18.065 Y11.48
G0 Z0.03
G1 F5.0 Z-0.01
G1 F10.0 Y13.845
G1 X17.85
G1 X17.8478 Y13.8455
G1 X17.8461 Y13.8469
G1 X17.8451 Y13.8489
G1 X17.845 Y13.85
G1 Y14.25
G1 X17.8455 Y14.2522
G1 X17.8469 Y14.2539
G1 X17.8489 Y14.2549
G1 X17.85 Y14.255
G1 X18.225
G1 X18.2272 Y14.2545
G1 X18.2284 Y14.2536
G1 X18.477 Y14.0175
G1 X21.767
G1 X21.7692 Y14.017
G1 X21.7709 Y14.0156
G1 X21.7719 Y14.0136
G1 X21.772 Y14.0125
G1 Y13.7625
G1 X21.7715 Y13.7603
G1 X21.7701 Y13.7586
G1 X21.7681 Y13.7576
G1 X21.767 Y13.7575
G1 X21.6857
G1 X21.6858 Y13.6425
G1 X21.9882
G1 X21.9883 Y13.7575
G1 X21.907
G1 X21.9048 Y13.758
G1 X21.9031 Y13.7594
G1 X21.9021 Y13.7614
G1 X21.902 Y13.7625
G1 Y14.0125
G1 X21.9025 Y14.0147
G1 X21.9039 Y14.0164
G1 X21.9059 Y14.0174
G1 X21.907 Y14.0175
G1 X22.7856
G1 X22.7878 Y14.017
G1 X22.7895 Y14.0156
G1 X22.7905 Y14.0136
G1 X22.7906 Y14.0125
G1 Y13.7625
G1 X22.7901 Y13.7603
G1 X22.7887 Y13.7586
G1 X22.7867 Y13.7576
G1 X22.7856 Y13.7575
G1 X22.7044
G1 X22.7043 Y13.6425
G1 X23.0069
G1 X23.0068 Y13.7575
G1 X22.9256
G1 X22.9234 Y13.758
G1 X22.9217 Y13.7594
G1 X22.9207 Y13.7614
G1 X22.9206 Y13.7625
G1 Y14.0125
G1 X22.9211 Y14.0147
G1 X22.9225 Y14.0164
G1 X22.9245 Y14.0174
G1 X22.9256 Y14.0175
G1 X23.675
G1 X23.6772 Y14.017
G1 X23.6789 Y14.0156
G1 X23.6799 Y14.0136
G1 X23.68 Y14.0125
G1 Y13.0825
G1 X23.6795 Y13.0803
G1 X23.6781 Y13.0786
G1 X23.6761 Y13.0776
G1 X23.675 Y13.0775
G1 X23.425
G1 X23.4228 Y13.078
G1 X23.4211 Y13.0794
G1 X23.4201 Y13.0814
G1 X23.42 Y13.0825
G1 Y13.1637
G1 X23.305 Y13.1638
G1 Y12.8612
G1 X23.42
G1 Y12.9425
G1 X23.4205 Y12.9447
G1 X23.4219 Y12.9464
G1 X23.4239 Y12.9474
G1 X23.425 Y12.9475
G1 X23.675
G1 X23.6772 Y12.947
G1 X23.6789 Y12.9456
G1 X23.6799 Y12.9436
G1 X23.68 Y12.9425
G1 Y11.8825
G1 X23.6795 Y11.8803
G1 X23.6781 Y11.8786
G1 X23.6761 Y11.8776
G1 X23.675 Y11.8775
G1 X23.425
G1 X23.4228 Y11.878
G1 X23.4211 Y11.8794
G1 X23.4201 Y11.8814
G1 X23.42 Y11.8825
G1 Y11.9637
G1 X23.305 Y11.9638
G1 Y11.6613
G1 X23.42
G1 Y11.7425
G1 X23.4205 Y11.7447
G1 X23.4219 Y11.7464
G1 X23.4239 Y11.7474
G1 X23.425 Y11.7475
G1 X23.675
G1 X23.6772 Y11.747
G1 X23.6789 Y11.7456
G1 X23.6799 Y11.7436
G1 X23.68 Y11.7425
G1 Y11.3125
G1 X23.6795 Y11.3103
G1 X23.6781 Y11.3086
G1 X23.6761 Y11.3076
G1 X23.675 Y11.3075
G1 X18.477
G1 X18.2284 Y11.0714
G1 X18.2265 Y11.0702
G1 X18.225 Y11.07
G1 X17.85
G1 X17.8478 Y11.0705
G1 X17.8461 Y11.0719
G1 X17.8451 Y11.0739
G1 X17.845 Y11.075
G1 Y11.475
G1 X17.8455 Y11.4772
G1 X17.8469 Y11.4789
G1 X17.8489 Y11.4799
G1 X17.85 Y11.48
G1 X18.065
( OutsideProfileRB )
S1000
G0 Z0.125
G0 X18.975 Y10.2164
G0 Z0.03
G1 F5.0 Z-0.01
G1 F10.0 X18.5034
G1 X18.5013 Y10.2169
G1 X18.4995 Y10.2183
G1 X18.4986 Y10.2204
G1 X18.4984 Y10.2214
G1 Y10.2534
G1 X18.4989 Y10.2556
G1 X18.4999 Y10.257
G1 X18.8179 Y10.575
G1 X18.4999 Y10.893
G1 X18.4987 Y10.8949
G1 X18.4984 Y10.8966
G1 Y10.9286
G1 X18.4989 Y10.9307
G1 X18.5003 Y10.9325
G1 X18.5024 Y10.9334
G1 X18.5034 Y10.9336
G1 X18.6342
G1 Y11.1386
G1 X18.6347 Y11.1407
G1 X18.6361 Y11.1425
G1 X18.6381 Y11.1434
G1 X18.6392 Y11.1436
G1 X18.7127
G1 X18.7149 Y11.1431
G1 X18.7166 Y11.1417
G1 X18.7176 Y11.1396
G1 X18.7177 Y11.1392
G1 X18.7327 Y11.0325
G1 Y11.0318
G1 Y10.8436
G1 X18.7332 Y10.8397
G1 X18.7347 Y10.8361
G1 X18.737 Y10.833
G1 X18.7401 Y10.8307
G1 X18.7436 Y10.8291
G1 X18.7475 Y10.8286
G1 X18.7477
G1 X18.8307
G1 X18.8346 Y10.8291
G1 X18.8381 Y10.8305
G1 X18.8412 Y10.8329
G1 X18.8436 Y10.8359
G1 X18.8452 Y10.8395
G1 X18.8457 Y10.8433
G1 Y10.8436
G1 Y11.0318
G1 X18.8458 Y11.0325
G1 X18.8608 Y11.1392
G1 X18.8616 Y11.1413
G1 X18.8632 Y11.1429
G1 X18.8653 Y11.1435
G1 X18.8657 Y11.1436
G1 X18.9392
G1 X18.9414 Y11.1431
G1 X18.9431 Y11.1417
G1 X18.9441 Y11.1396
G1 X18.9442 Y11.1386
G1 Y10.9336
G1 X19.075
G1 X19.0772 Y10.9331
G1 X19.0789 Y10.9317
G1 X19.0799 Y10.9296
G1 X19.08 Y10.9286
G1 Y10.3214
G1 X19.0795 Y10.3112
G1 X19.078 Y10.3011
G1 X19.0755 Y10.2911
G1 X19.0721 Y10.2815
G1 X19.0677 Y10.2722
G1 X19.0625 Y10.2634
G1 X19.0564 Y10.2551
G1 X19.0496 Y10.2475
G1 X19.042 Y10.2406
G1 X19.0338 Y10.2345
G1 X19.0251 Y10.2291
G1 X19.0158 Y10.2247
G1 X19.0062 Y10.2212
G1 X18.9963 Y10.2186
G1 X18.9861 Y10.217
G1 X18.9759 Y10.2165
G1 X18.975 Y10.2164
G0 Z0.125
G0 X18.9646 Y10.0935
G0 Z0.03
G1 F5.0 Z-0.01
G1 F10.0 X18.9668 Y10.0929
G1 X18.9684 Y10.0913
G1 X18.9692 Y10.0892
G1 Y10.0886
G1 Y9.8836
G1 X19.1
G1 X19.1022 Y9.8831
G1 X19.1039 Y9.8817
G1 X19.1049 Y9.8796
G1 X19.105 Y9.8786
G1 Y9.2714
G1 X19.1045 Y9.2612
G1 X19.103 Y9.2511
G1 X19.1005 Y9.2411
G1 X19.0971 Y9.2315
G1 X19.0927 Y9.2222
G1 X19.0875 Y9.2134
G1 X19.0814 Y9.2051
G1 X19.0746 Y9.1975
G1 X19.067 Y9.1906
G1 X19.0588 Y9.1845
G1 X19.0501 Y9.1791
G1 X19.0408 Y9.1747
G1 X19.0312 Y9.1712
G1 X19.0213 Y9.1686
G1 X19.0111 Y9.167
G1 X19.0009 Y9.1665
G1 X19.0 Y9.1664
G1 X18.5284
G1 X18.5263 Y9.1669
G1 X18.5245 Y9.1683
G1 X18.5236 Y9.1704
G1 X18.5234 Y9.1714
G1 Y9.2034
G1 X18.5239 Y9.2056
G1 X18.5249 Y9.207
G1 X18.8429 Y9.525
G1 X18.5249 Y9.843
G1 X18.5237 Y9.8449
G1 X18.5234 Y9.8466
G1 Y9.8786
G1 X18.5239 Y9.8807
G1 X18.5253 Y9.8825
G1 X18.5274 Y9.8834
G1 X18.5284 Y9.8836
G1 X18.6592
G1 Y10.0886
G1 X18.6597 Y10.0907
G1 X18.6611 Y10.0925
G1 X18.6631 Y10.0934
G1 X18.6642 Y10.0936
G1 X18.7377
G1 X18.7399 Y10.0931
G1 X18.7416 Y10.0917
G1 X18.7426 Y10.0896
G1 X18.7427 Y10.0892
G1 X18.7577 Y9.9825
G1 Y9.9818
G1 Y9.7936
G1 X18.7582 Y9.7897
G1 X18.7597 Y9.7861
G1 X18.762 Y9.783
G1 X18.7651 Y9.7807
G1 X18.7686 Y9.7791
G1 X18.7725 Y9.7786
G1 X18.7727
G1 X18.8557
G1 X18.8596 Y9.7791
G1 X18.8631 Y9.7805
G1 X18.8662 Y9.7829
G1 X18.8686 Y9.7859
G1 X18.8702 Y9.7895
G1 X18.8707 Y9.7933
G1 Y9.7936
G1 Y9.9818
G1 X18.8708 Y9.9825
G1 X18.8858 Y10.0892
G1 X18.8866 Y10.0913
G1 X18.8882 Y10.0929
G1 X18.8903 Y10.0935
G1 X18.8907 Y10.0936
G1 X18.9642
G1 X18.9646 Y10.0935
G0 Z0.125
G0 X19.1991 Y9.956
G0 Z0.03
G1 F5.0 Z-0.01
G1 F10.0 X19.1999 Y9.957
G1 X19.5179 Y10.275
G1 X19.1999 Y10.593
G1 X19.1987 Y10.5949
G1 X19.1984 Y10.5966
G1 Y10.6286
G1 X19.1989 Y10.6307
G1 X19.2003 Y10.6325
G1 X19.2024 Y10.6334
G1 X19.2034 Y10.6336
G1 X19.3342
G1 Y10.8386
G1 X19.3347 Y10.8407
G1 X19.3361 Y10.8425
G1 X19.3381 Y10.8434
G1 X19.3392 Y10.8436
G1 X19.4127
G1 X19.4149 Y10.8431
G1 X19.4166 Y10.8417
G1 X19.4176 Y10.8396
G1 X19.4177 Y10.8392
G1 X19.4327 Y10.7325
G1 Y10.7318
G1 Y10.5436
G1 X19.4332 Y10.5397
G1 X19.4347 Y10.5361
G1 X19.437 Y10.533
G1 X19.4401 Y10.5307
G1 X19.4436 Y10.5291
G1 X19.4475 Y10.5286
G1 X19.4477
G1 X19.5307
G1 X19.5346 Y10.5291
G1 X19.5381 Y10.5305
G1 X19.5412 Y10.5329
G1 X19.5436 Y10.5359
G1 X19.5452 Y10.5395
G1 X19.5457 Y10.5433
G1 Y10.5436
G1 Y10.7318
G1 X19.5458 Y10.7325
G1 X19.5608 Y10.8392
G1 X19.5616 Y10.8413
G1 X19.5632 Y10.8429
G1 X19.5653 Y10.8435
G1 X19.5657 Y10.8436
G1 X19.6392
G1 X19.6414 Y10.8431
G1 X19.6431 Y10.8417
G1 X19.6441 Y10.8396
G1 X19.6442 Y10.8386
G1 Y10.6336
G1 X19.775
G1 X19.7772 Y10.6331
G1 X19.7789 Y10.6317
G1 X19.7799 Y10.6296
G1 X19.78 Y10.6286
G1 Y10.0214
G1 X19.7795 Y10.0112
G1 X19.778 Y10.0011
G1 X19.7755 Y9.9911
G1 X19.7721 Y9.9815
G1 X19.7677 Y9.9722
G1 X19.7625 Y9.9634
G1 X19.7564 Y9.9551
G1 X19.7496 Y9.9475
G1 X19.742 Y9.9406
G1 X19.7338 Y9.9345
G1 X19.7251 Y9.9291
G1 X19.7158 Y9.9247
G1 X19.7062 Y9.9212
G1 X19.6963 Y9.9186
G1 X19.6861 Y9.917
G1 X19.6759 Y9.9165
G1 X19.675 Y9.9164
G1 X19.2034
G1 X19.2013 Y9.9169
G1 X19.1995 Y9.9183
G1 X19.1986 Y9.9204
G1 X19.1984 Y9.9214
G1 Y9.9534
G1 X19.1989 Y9.9556
G1 X19.1991 Y9.956
G0 Z0.125
G0 X19.3357 Y9.8171
G0 Z0.03
G1 F5.0 Z-0.01
G1 F10.0 X19.3376 Y9.8183
G1 X19.3392 Y9.8186
G1 X19.4127
G1 X19.4149 Y9.8181
G1 X19.4166 Y9.8167
G1 X19.4176 Y9.8146
G1 X19.4177 Y9.8142
G1 X19.4327 Y9.7075
G1 Y9.7068
G1 Y9.5186
G1 X19.4332 Y9.5147
G1 X19.4347 Y9.5111
G1 X19.437 Y9.508
G1 X19.4401 Y9.5057
G1 X19.4436 Y9.5041
G1 X19.4475 Y9.5036
G1 X19.4477
G1 X19.5307
G1 X19.5346 Y9.5041
G1 X19.5381 Y9.5055
G1 X19.5412 Y9.5079
G1 X19.5436 Y9.5109
G1 X19.5452 Y9.5145
G1 X19.5457 Y9.5183
G1 Y9.5186
G1 Y9.7068
G1 X19.5458 Y9.7075
G1 X19.5608 Y9.8142
G1 X19.5616 Y9.8163
G1 X19.5632 Y9.8179
G1 X19.5653 Y9.8185
G1 X19.5657 Y9.8186
G1 X19.6392
G1 X19.6414 Y9.8181
G1 X19.6431 Y9.8167
G1 X19.6441 Y9.8146
G1 X19.6442 Y9.8136
G1 Y9.6086
G1 X19.775
G1 X19.7772 Y9.6081
G1 X19.7789 Y9.6067
G1 X19.7799 Y9.6046
G1 X19.78 Y9.6036
G1 Y8.9964
G1 X19.7795 Y8.9862
G1 X19.778 Y8.9761
G1 X19.7755 Y8.9661
G1 X19.7721 Y8.9565
G1 X19.7677 Y8.9472
G1 X19.7625 Y8.9384
G1 X19.7564 Y8.9301
G1 X19.7496 Y8.9225
G1 X19.742 Y8.9156
G1 X19.7338 Y8.9095
G1 X19.7251 Y8.9041
G1 X19.7158 Y8.8997
G1 X19.7062 Y8.8962
G1 X19.6963 Y8.8936
G1 X19.6861 Y8.892
G1 X19.6759 Y8.8915
G1 X19.675 Y8.8914
G1 X19.2034
G1 X19.2013 Y8.8919
G1 X19.1995 Y8.8933
G1 X19.1986 Y8.8954
G1 X19.1984 Y8.8964
G1 Y8.9284
G1 X19.1989 Y8.9306
G1 X19.1999 Y8.932
G1 X19.5179 Y9.25
G1 X19.1999 Y9.568
G1 X19.1987 Y9.5699
G1 X19.1984 Y9.5716
G1 Y9.6036
G1 X19.1989 Y9.6057
G1 X19.2003 Y9.6075
G1 X19.2024 Y9.6084
G1 X19.2034 Y9.6086
G1 X19.3342
G1 Y9.8136
G1 X19.3347 Y9.8157
G1 X19.3357 Y9.8171
G0 Z0.125
G0 X19.8985 Y9.9205
G0 Z0.03
G1 F5.0 Z-0.01
G1 F10.0 X19.8984 Y9.9214
G1 Y9.9534
G1 X19.8989 Y9.9556
G1 X19.8999 Y9.957
G1 X20.2179 Y10.275
G1 X19.8999 Y10.593
G1 X19.8987 Y10.5949
G1 X19.8984 Y10.5966
G1 Y10.6286
G1 X19.8989 Y10.6307
G1 X19.9003 Y10.6325
G1 X19.9024 Y10.6334
G1 X19.9034 Y10.6336
G1 X20.0342
G1 Y10.8386
G1 X20.0347 Y10.8407
G1 X20.0361 Y10.8425
G1 X20.0381 Y10.8434
G1 X20.0392 Y10.8436
G1 X20.1127
G1 X20.1149 Y10.8431
G1 X20.1166 Y10.8417
G1 X20.1176 Y10.8396
G1 X20.1177 Y10.8392
G1 X20.1327 Y10.7325
G1 Y10.7318
G1 Y10.5436
G1 X20.1332 Y10.5397
G1 X20.1347 Y10.5361
G1 X20.137 Y10.533
G1 X20.1401 Y10.5307
G1 X20.1436 Y10.5291
G1 X20.1475 Y10.5286
G1 X20.1477
G1 X20.2307
G1 X20.2346 Y10.5291
G1 X20.2381 Y10.5305
G1 X20.2412 Y10.5329
G1 X20.2436 Y10.5359
G1 X20.2452 Y10.5395
G1 X20.2457 Y10.5433
G1 Y10.5436
G1 Y10.7318
G1 X20.2458 Y10.7325
G1 X20.2608 Y10.8392
G1 X20.2616 Y10.8413
G1 X20.2632 Y10.8429
G1 X20.2653 Y10.8435
G1 X20.2657 Y10.8436
G1 X20.3392
G1 X20.3414 Y10.8431
G1 X20.3431 Y10.8417
G1 X20.3441 Y10.8396
G1 X20.3442 Y10.8386
G1 Y10.6336
G1 X20.475
G1 X20.4772 Y10.6331
G1 X20.4789 Y10.6317
G1 X20.4799 Y10.6296
G1 X20.48 Y10.6286
G1 Y10.0214
G1 X20.4795 Y10.0112
G1 X20.478 Y10.0011
G1 X20.4755 Y9.9911
G1 X20.4721 Y9.9815
G1 X20.4677 Y9.9722
G1 X20.4625 Y9.9634
G1 X20.4564 Y9.9551
G1 X20.4496 Y9.9475
G1 X20.442 Y9.9406
G1 X20.4338 Y9.9345
G1 X20.4251 Y9.9291
G1 X20.4158 Y9.9247
G1 X20.4062 Y9.9212
G1 X20.3963 Y9.9186
G1 X20.3861 Y9.917
G1 X20.3759 Y9.9165
G1 X20.375 Y9.9164
G1 X19.9034
G1 X19.9013 Y9.9169
G1 X19.8995 Y9.9183
G1 X19.8986 Y9.9204
G1 X19.8985 Y9.9205
G0 Z0.125
G0 X20.0106 Y9.8169
G0 Z0.03
G1 F5.0 Z-0.01
G1 F10.0 X20.0124 Y9.8182
G1 X20.0142 Y9.8186
G1 X20.0877
G1 X20.0899 Y9.8181
G1 X20.0916 Y9.8167
G1 X20.0926 Y9.8146
G1 X20.0927 Y9.8142
G1 X20.1077 Y9.7075
G1 Y9.7068
G1 Y9.5186
G1 X20.1082 Y9.5147
G1 X20.1097 Y9.5111
G1 X20.112 Y9.508
G1 X20.1151 Y9.5057
G1 X20.1186 Y9.5041
G1 X20.1225 Y9.5036
G1 X20.1227
G1 X20.2057
G1 X20.2096 Y9.5041
G1 X20.2131 Y9.5055
G1 X20.2162 Y9.5079
G1 X20.2186 Y9.5109
G1 X20.2202 Y9.5145
G1 X20.2207 Y9.5183
G1 Y9.5186
G1 Y9.7068
G1 X20.2208 Y9.7075
G1 X20.2358 Y9.8142
G1 X20.2366 Y9.8163
G1 X20.2382 Y9.8179
G1 X20.2403 Y9.8185
G1 X20.2407 Y9.8186
G1 X20.3142
G1 X20.3164 Y9.8181
G1 X20.3181 Y9.8167
G1 X20.3191 Y9.8146
G1 X20.3192 Y9.8136
G1 Y9.6086
G1 X20.45
G1 X20.4522 Y9.6081
G1 X20.4539 Y9.6067
G1 X20.4549 Y9.6046
G1 X20.455 Y9.6036
G1 Y8.9964
G1 X20.4545 Y8.9862
G1 X20.453 Y8.9761
G1 X20.4505 Y8.9661
G1 X20.4471 Y8.9565
G1 X20.4427 Y8.9472
G1 X20.4375 Y8.9384
G1 X20.4314 Y8.9301
G1 X20.4246 Y8.9225
G1 X20.417 Y8.9156
G1 X20.4088 Y8.9095
G1 X20.4001 Y8.9041
G1 X20.3908 Y8.8997
G1 X20.3812 Y8.8962
G1 X20.3713 Y8.8936
G1 X20.3611 Y8.892
G1 X20.3509 Y8.8915
G1 X20.35 Y8.8914
G1 X19.8784
G1 X19.8763 Y8.8919
G1 X19.8745 Y8.8933
G1 X19.8736 Y8.8954
G1 X19.8734 Y8.8964
G1 Y8.9284
G1 X19.8739 Y8.9306
G1 X19.8749 Y8.932
G1 X20.1929 Y9.25
G1 X19.8749 Y9.568
G1 X19.8737 Y9.5699
G1 X19.8734 Y9.5716
G1 Y9.6036
G1 X19.8739 Y9.6057
G1 X19.8753 Y9.6075
G1 X19.8774 Y9.6084
G1 X19.8784 Y9.6086
G1 X20.0092
G1 Y9.8136
G1 X20.0097 Y9.8157
G1 X20.0106 Y9.8169
G0 Z0.125
G0 X18.9683 Y9.0665
G0 Z0.03
G1 F5.0 Z-0.01
G1 F10.0 X18.9691 Y9.0644
G1 X18.9692 Y9.0636
G1 Y8.8586
G1 X19.1
G1 X19.1022 Y8.8581
G1 X19.1039 Y8.8567
G1 X19.1049 Y8.8546
G1 X19.105 Y8.8536
G1 Y8.2464
G1 X19.1045 Y8.2362
G1 X19.103 Y8.2261
G1 X19.1005 Y8.2161
G1 X19.0971 Y8.2065
G1 X19.0927 Y8.1972
G1 X19.0875 Y8.1884
G1 X19.0814 Y8.1801
G1 X19.0746 Y8.1725
G1 X19.067 Y8.1656
G1 X19.0588 Y8.1595
G1 X19.0501 Y8.1541
G1 X19.0408 Y8.1497
G1 X19.0312 Y8.1462
G1 X19.0213 Y8.1436
G1 X19.0111 Y8.142
G1 X19.0009 Y8.1415
G1 X19.0 Y8.1414
G1 X18.5284
G1 X18.5263 Y8.1419
G1 X18.5245 Y8.1433
G1 X18.5236 Y8.1454
G1 X18.5234 Y8.1464
G1 Y8.1784
G1 X18.5239 Y8.1806
G1 X18.5249 Y8.182
G1 X18.8429 Y8.5
G1 X18.5249 Y8.818
G1 X18.5237 Y8.8199
G1 X18.5234 Y8.8216
G1 Y8.8536
G1 X18.5239 Y8.8557
G1 X18.5253 Y8.8575
G1 X18.5274 Y8.8584
G1 X18.5284 Y8.8586
G1 X18.6592
G1 Y9.0636
G1 X18.6597 Y9.0657
G1 X18.6611 Y9.0675
G1 X18.6631 Y9.0684
G1 X18.6642 Y9.0686
G1 X18.7377
G1 X18.7399 Y9.0681
G1 X18.7416 Y9.0667
G1 X18.7426 Y9.0646
G1 X18.7427 Y9.0642
G1 X18.7577 Y8.9575
G1 Y8.9568
G1 Y8.7686
G1 X18.7582 Y8.7647
G1 X18.7597 Y8.7611
G1 X18.762 Y8.758
G1 X18.7651 Y8.7557
G1 X18.7686 Y8.7541
G1 X18.7725 Y8.7536
G1 X18.7727
G1 X18.8557
G1 X18.8596 Y8.7541
G1 X18.8631 Y8.7555
G1 X18.8662 Y8.7579
G1 X18.8686 Y8.7609
G1 X18.8702 Y8.7645
G1 X18.8707 Y8.7683
G1 Y8.7686
G1 Y8.9568
G1 X18.8708 Y8.9575
G1 X18.8858 Y9.0642
G1 X18.8866 Y9.0663
G1 X18.8882 Y9.0679
G1 X18.8903 Y9.0685
G1 X18.8907 Y9.0686
G1 X18.9642
G1 X18.9664 Y9.0681
G1 X18.9681 Y9.0667
G1 X18.9683 Y9.0665
G0 Z0.125
G0 X18.405
G0 Z0.03
G1 F5.0 Z-0.01
G1 F10.0 Y8.9964
G1 X18.4045 Y8.9862
G1 X18.403 Y8.9761
G1 X18.4005 Y8.9661
G1 X18.3971 Y8.9565
G1 X18.3927 Y8.9472
G1 X18.3875 Y8.9384
G1 X18.3814 Y8.9301
G1 X18.3746 Y8.9225
G1 X18.367 Y8.9156
G1 X18.3588 Y8.9095
G1 X18.3501 Y8.9041
G1 X18.3408 Y8.8997
G1 X18.3312 Y8.8962
G1 X18.3213 Y8.8936
G1 X18.3111 Y8.892
G1 X18.3009 Y8.8915
G1 X18.3 Y8.8914
G1 X17.8284
G1 X17.8263 Y8.8919
G1 X17.8245 Y8.8933
G1 X17.8236 Y8.8954
G1 X17.8234 Y8.8964
G1 Y8.9284
G1 X17.8239 Y8.9306
G1 X17.8249 Y8.932
G1 X18.1429 Y9.25
G1 X17.8249 Y9.568
G1 X17.8237 Y9.5699
G1 X17.8234 Y9.5716
G1 Y9.6036
G1 X17.8239 Y9.6057
G1 X17.8253 Y9.6075
G1 X17.8274 Y9.6084
G1 X17.8284 Y9.6086
G1 X17.9592
G1 Y9.8136
G1 X17.9597 Y9.8157
G1 X17.9611 Y9.8175
G1 X17.9631 Y9.8184
G1 X17.9642 Y9.8186
G1 X18.0377
G1 X18.0399 Y9.8181
G1 X18.0416 Y9.8167
G1 X18.0426 Y9.8146
G1 X18.0427 Y9.8142
G1 X18.0577 Y9.7075
G1 Y9.7068
G1 Y9.5186
G1 X18.0582 Y9.5147
G1 X18.0597 Y9.5111
G1 X18.062 Y9.508
G1 X18.0651 Y9.5057
G1 X18.0686 Y9.5041
G1 X18.0725 Y9.5036
G1 X18.0727
G1 X18.1557
G1 X18.1596 Y9.5041
G1 X18.1631 Y9.5055
G1 X18.1662 Y9.5079
G1 X18.1686 Y9.5109
G1 X18.1702 Y9.5145
G1 X18.1707 Y9.5183
G1 Y9.5186
G1 Y9.7068
G1 X18.1708 Y9.7075
G1 X18.1858 Y9.8142
G1 X18.1866 Y9.8163
G1 X18.1882 Y9.8179
G1 X18.1903 Y9.8185
G1 X18.1907 Y9.8186
G1 X18.2642
G1 X18.2664 Y9.8181
G1 X18.2681 Y9.8167
G1 X18.2691 Y9.8146
G1 X18.2692 Y9.8136
G1 Y9.6086
G1 X18.4
G1 X18.4022 Y9.6081
G1 X18.4039 Y9.6067
G1 X18.4049 Y9.6046
G1 X18.405 Y9.6036
G1 Y9.0665
G0 Z0.125
G0 X17.6769 Y9.2463
G0 Z0.03
G1 F5.0 Z-0.01
G1 F10.0 X17.674 Y9.2365
G1 X17.6701 Y9.227
G1 X17.6653 Y9.2179
G1 X17.6597 Y9.2094
G1 X17.6532 Y9.2014
G1 X17.646 Y9.1941
G1 X17.6381 Y9.1876
G1 X17.6297 Y9.1818
G1 X17.6207 Y9.1769
G1 X17.6112 Y9.1729
G1 X17.6015 Y9.1698
G1 X17.5914 Y9.1677
G1 X17.5812 Y9.1666
G1 X17.575 Y9.1664
G1 X17.1034
G1 X17.1013 Y9.1669
G1 X17.0995 Y9.1683
G1 X17.0986 Y9.1704
G1 X17.0984 Y9.1714
G1 Y9.2034
G1 X17.0989 Y9.2056
G1 X17.0999 Y9.207
G1 X17.4179 Y9.525
G1 X17.0999 Y9.843
G1 X17.0987 Y9.8449
G1 X17.0984 Y9.8466
G1 Y9.8786
G1 X17.0989 Y9.8807
G1 X17.1003 Y9.8825
G1 X17.1024 Y9.8834
G1 X17.1034 Y9.8836
G1 X17.2342
G1 Y10.0886
G1 X17.2347 Y10.0907
G1 X17.2361 Y10.0925
G1 X17.2381 Y10.0934
G1 X17.2392 Y10.0936
G1 X17.3127
G1 X17.3149 Y10.0931
G1 X17.3166 Y10.0917
G1 X17.3176 Y10.0896
G1 X17.3177 Y10.0892
G1 X17.3327 Y9.9825
G1 Y9.9818
G1 Y9.7936
G1 X17.3332 Y9.7897
G1 X17.3347 Y9.7861
G1 X17.337 Y9.783
G1 X17.3401 Y9.7807
G1 X17.3436 Y9.7791
G1 X17.3475 Y9.7786
G1 X17.3477
G1 X17.4307
G1 X17.4346 Y9.7791
G1 X17.4381 Y9.7805
G1 X17.4412 Y9.7829
G1 X17.4436 Y9.7859
G1 X17.4452 Y9.7895
G1 X17.4457 Y9.7933
G1 Y9.7936
G1 Y9.9818
G1 X17.4458 Y9.9825
G1 X17.4608 Y10.0892
G1 X17.4616 Y10.0913
G1 X17.4632 Y10.0929
G1 X17.4653 Y10.0935
G1 X17.4657 Y10.0936
G1 X17.5392
G1 X17.5414 Y10.0931
G1 X17.5431 Y10.0917
G1 X17.5441 Y10.0896
G1 X17.5442 Y10.0886
G1 Y9.8836
G1 X17.675
G1 X17.6772 Y9.8831
G1 X17.6789 Y9.8817
G1 X17.6799 Y9.8796
G1 X17.68 Y9.8786
G1 Y9.2714
G1 X17.6795 Y9.2612
G1 X17.678 Y9.2511
G1 X17.6769 Y9.2463
G0 Z0.125
G0 X17.5422 Y9.0675
G0 Z0.03
G1 F5.0 Z-0.01
G1 F10.0 X17.5437 Y9.0658
G1 X17.5442 Y9.0637
G1 Y9.0636
G1 Y8.8586
G1 X17.675
G1 X17.6772 Y8.8581
G1 X17.6789 Y8.8567
G1 X17.6799 Y8.8546
G1 X17.68 Y8.8536
G1 Y8.2464
G1 X17.6795 Y8.2362
G1 X17.678 Y8.2261
G1 X17.6755 Y8.2161
G1 X17.6721 Y8.2065
G1 X17.6677 Y8.1972
G1 X17.6625 Y8.1884
G1 X17.6564 Y8.1801
G1 X17.6496 Y8.1725
G1 X17.642 Y8.1656
G1 X17.6338 Y8.1595
G1 X17.6251 Y8.1541
G1 X17.6158 Y8.1497
G1 X17.6062 Y8.1462
G1 X17.5963 Y8.1436
G1 X17.5861 Y8.142
G1 X17.5759 Y8.1415
G1 X17.575 Y8.1414
G1 X17.1034
G1 X17.1013 Y8.1419
G1 X17.0995 Y8.1433
G1 X17.0986 Y8.1454
G1 X17.0984 Y8.1464
G1 Y8.1784
G1 X17.0989 Y8.1806
G1 X17.0999 Y8.182
G1 X17.4179 Y8.5
G1 X17.0999 Y8.818
G1 X17.0987 Y8.8199
G1 X17.0984 Y8.8216
G1 Y8.8536
G1 X17.0989 Y8.8557
G1 X17.1003 Y8.8575
G1 X17.1024 Y8.8584
G1 X17.1034 Y8.8586
G1 X17.2342
G1 Y9.0636
G1 X17.2347 Y9.0657
G1 X17.2361 Y9.0675
G1 X17.2381 Y9.0684
G1 X17.2392 Y9.0686
G1 X17.3127
G1 X17.3149 Y9.0681
G1 X17.3166 Y9.0667
G1 X17.3176 Y9.0646
G1 X17.3177 Y9.0642
G1 X17.3327 Y8.9575
G1 Y8.9568
G1 Y8.7686
G1 X17.3332 Y8.7647
G1 X17.3347 Y8.7611
G1 X17.337 Y8.758
G1 X17.3401 Y8.7557
G1 X17.3436 Y8.7541
G1 X17.3475 Y8.7536
G1 X17.3477
G1 X17.4307
G1 X17.4346 Y8.7541
G1 X17.4381 Y8.7555
G1 X17.4412 Y8.7579
G1 X17.4436 Y8.7609
G1 X17.4452 Y8.7645
G1 X17.4457 Y8.7683
G1 Y8.7686
G1 Y8.9568
G1 X17.4458 Y8.9575
G1 X17.4608 Y9.0642
G1 X17.4616 Y9.0663
G1 X17.4632 Y9.0679
G1 X17.4653 Y9.0685
G1 X17.4657 Y9.0686
G1 X17.5392
G1 X17.5414 Y9.0681
G1 X17.5422 Y9.0675
G0 Z0.125
G0 X17.802 Y9.9167
G0 Z0.03
G1 F5.0 Z-0.01
G1 F10.0 X17.8 Y9.9178
G1 X17.7988 Y9.9196
G1 X17.7984 Y9.9214
G1 Y9.9534
G1 X17.7989 Y9.9556
G1 X17.7999 Y9.957
G1 X18.1179 Y10.275
G1 X17.7999 Y10.593
G1 X17.7987 Y10.5949
G1 X17.7984 Y10.5966
G1 Y10.6286
G1 X17.7989 Y10.6307
G1 X17.8003 Y10.6325
G1 X17.8024 Y10.6334
G1 X17.8034 Y10.6336
G1 X17.9342
G1 Y10.8386
G1 X17.9347 Y10.8407
G1 X17.9361 Y10.8425
G1 X17.9381 Y10.8434
G1 X17.9392 Y10.8436
G1 X18.0127
G1 X18.0149 Y10.8431
G1 X18.0166 Y10.8417
G1 X18.0176 Y10.8396
G1 X18.0177 Y10.8392
G1 X18.0327 Y10.7325
G1 Y10.7318
G1 Y10.5436
G1 X18.0332 Y10.5397
G1 X18.0347 Y10.5361
G1 X18.037 Y10.533
G1 X18.0401 Y10.5307
G1 X18.0436 Y10.5291
G1 X18.0475 Y10.5286
G1 X18.0477
G1 X18.1307
G1 X18.1346 Y10.5291
G1 X18.1381 Y10.5305
G1 X18.1412 Y10.5329
G1 X18.1436 Y10.5359
G1 X18.1452 Y10.5395
G1 X18.1457 Y10.5433
G1 Y10.5436
G1 Y10.7318
G1 X18.1458 Y10.7325
G1 X18.1608 Y10.8392
G1 X18.1616 Y10.8413
G1 X18.1632 Y10.8429
G1 X18.1653 Y10.8435
G1 X18.1657 Y10.8436
G1 X18.2392
G1 X18.2414 Y10.8431
G1 X18.2431 Y10.8417
G1 X18.2441 Y10.8396
G1 X18.2442 Y10.8386
G1 Y10.6336
G1 X18.375
G1 X18.3772 Y10.6331
G1 X18.3789 Y10.6317
G1 X18.3799 Y10.6296
G1 X18.38 Y10.6286
G1 Y10.0214
G1 X18.3795 Y10.0112
G1 X18.378 Y10.0011
G1 X18.3755 Y9.9911
G1 X18.3721 Y9.9815
G1 X18.3677 Y9.9722
G1 X18.3625 Y9.9634
G1 X18.3564 Y9.9551
G1 X18.3496 Y9.9475
G1 X18.342 Y9.9406
G1 X18.3338 Y9.9345
G1 X18.3251 Y9.9291
G1 X18.3158 Y9.9247
G1 X18.3062 Y9.9212
G1 X18.2963 Y9.9186
G1 X18.2861 Y9.917
G1 X18.2759 Y9.9165
G1 X18.275 Y9.9164
G1 X17.8034
G1 X17.802 Y9.9167
G0 Z0.125
G0 X17.6264 Y10.2299
G0 Z0.03
G1 F5.0 Z-0.01
G1 F10.0 X17.6172 Y10.2253
G1 X17.6076 Y10.2216
G1 X17.5977 Y10.2189
G1 X17.5876 Y10.2172
G1 X17.5774 Y10.2165
G1 X17.575 Y10.2164
G1 X17.1034
G1 X17.1013 Y10.2169
G1 X17.0995 Y10.2183
G1 X17.0986 Y10.2204
G1 X17.0984 Y10.2214
G1 Y10.2534
G1 X17.0989 Y10.2556
G1 X17.0999 Y10.257
G1 X17.4179 Y10.575
G1 X17.0999 Y10.893
G1 X17.0987 Y10.8949
G1 X17.0984 Y10.8966
G1 Y10.9286
G1 X17.0989 Y10.9307
G1 X17.1003 Y10.9325
G1 X17.1024 Y10.9334
G1 X17.1034 Y10.9336
G1 X17.2342
G1 Y11.1386
G1 X17.2347 Y11.1407
G1 X17.2361 Y11.1425
G1 X17.2381 Y11.1434
G1 X17.2392 Y11.1436
G1 X17.3127
G1 X17.3149 Y11.1431
G1 X17.3166 Y11.1417
G1 X17.3176 Y11.1396
G1 X17.3177 Y11.1392
G1 X17.3327 Y11.0325
G1 Y11.0318
G1 Y10.8436
G1 X17.3332 Y10.8397
G1 X17.3347 Y10.8361
G1 X17.337 Y10.833
G1 X17.3401 Y10.8307
G1 X17.3436 Y10.8291
G1 X17.3475 Y10.8286
G1 X17.3477
G1 X17.4307
G1 X17.4346 Y10.8291
G1 X17.4381 Y10.8305
G1 X17.4412 Y10.8329
G1 X17.4436 Y10.8359
G1 X17.4452 Y10.8395
G1 X17.4457 Y10.8433
G1 Y10.8436
G1 Y11.0318
G1 X17.4458 Y11.0325
G1 X17.4608 Y11.1392
G1 X17.4616 Y11.1413
G1 X17.4632 Y11.1429
G1 X17.4653 Y11.1435
G1 X17.4657 Y11.1436
G1 X17.5392
G1 X17.5414 Y11.1431
G1 X17.5431 Y11.1417
G1 X17.5441 Y11.1396
G1 X17.5442 Y11.1386
G1 Y10.9336
G1 X17.675
G1 X17.6772 Y10.9331
G1 X17.6789 Y10.9317
G1 X17.6799 Y10.9296
G1 X17.68 Y10.9286
G1 Y10.3214
G1 X17.6795 Y10.3112
G1 X17.678 Y10.3011
G1 X17.6755 Y10.2911
G1 X17.6721 Y10.2815
G1 X17.6677 Y10.2722
G1 X17.6625 Y10.2634
G1 X17.6564 Y10.2551
G1 X17.6496 Y10.2475
G1 X17.642 Y10.2406
G1 X17.6338 Y10.2345
G1 X17.6264 Y10.2299
G0 Z0.125
G0 X22.7234 Y10.0786
G0 Z0.03
G1 F5.0 Z-0.01
G1 F10.0 X22.724 Y10.0808
G1 X22.7249 Y10.082
G1 X23.0429 Y10.4
G1 X22.7249 Y10.718
G1 X22.7237 Y10.7199
G1 X22.7234 Y10.7216
G1 Y10.7536
G1 X22.7239 Y10.7557
G1 X22.7253 Y10.7575
G1 X22.7274 Y10.7584
G1 X22.7284 Y10.7586
G1 X22.8592
G1 Y10.9636
G1 X22.8597 Y10.9657
G1 X22.8611 Y10.9675
G1 X22.8631 Y10.9684
G1 X22.8642 Y10.9686
G1 X22.9377
G1 X22.9399 Y10.9681
G1 X22.9416 Y10.9667
G1 X22.9426 Y10.9646
G1 X22.9427 Y10.9642
G1 X22.9577 Y10.8575
G1 Y10.8568
G1 Y10.6686
G1 X22.9582 Y10.6647
G1 X22.9597 Y10.6611
G1 X22.962 Y10.658
G1 X22.9651 Y10.6557
G1 X22.9686 Y10.6541
G1 X22.9725 Y10.6536
G1 X22.9727
G1 X23.0557
G1 X23.0596 Y10.6541
G1 X23.0631 Y10.6555
G1 X23.0662 Y10.6579
G1 X23.0686 Y10.6609
G1 X23.0702 Y10.6645
G1 X23.0707 Y10.6683
G1 Y10.6686
G1 Y10.8568
G1 X23.0708 Y10.8575
G1 X23.0858 Y10.9642
G1 X23.0866 Y10.9663
G1 X23.0882 Y10.9679
G1 X23.0903 Y10.9685
G1 X23.0907 Y10.9686
G1 X23.1642
G1 X23.1664 Y10.9681
G1 X23.1681 Y10.9667
G1 X23.1691 Y10.9646
G1 X23.1692 Y10.9636
G1 Y10.7586
G1 X23.3
G1 X23.3022 Y10.7581
G1 X23.3039 Y10.7567
G1 X23.3049 Y10.7546
G1 X23.305 Y10.7536
G1 Y10.1464
G1 X23.3045 Y10.1362
G1 X23.303 Y10.1261
G1 X23.3005 Y10.1161
G1 X23.2971 Y10.1065
G1 X23.2927 Y10.0972
G1 X23.2875 Y10.0884
G1 X23.2814 Y10.0801
G1 X23.2746 Y10.0725
G1 X23.267 Y10.0656
G1 X23.2588 Y10.0595
G1 X23.2501 Y10.0541
G1 X23.2408 Y10.0497
G1 X23.2312 Y10.0462
G1 X23.2213 Y10.0436
G1 X23.2111 Y10.042
G1 X23.2009 Y10.0415
G1 X23.2 Y10.0414
G1 X22.7284
G1 X22.7263 Y10.0419
G1 X22.7245 Y10.0433
G1 X22.7236 Y10.0454
G1 X22.7234 Y10.0464
G1 Y10.0784
G1 Y10.0786
G0 Z0.125
G0 X22.8859 Y9.8923
G0 Z0.03
G1 F5.0 Z-0.01
G1 F10.0 X22.8879 Y9.8934
G1 X22.8892 Y9.8936
G1 X22.9627
G1 X22.9649 Y9.8931
G1 X22.9666 Y9.8917
G1 X22.9676 Y9.8896
G1 X22.9677 Y9.8892
G1 X22.9827 Y9.7825
G1 Y9.7818
G1 Y9.5936
G1 X22.9832 Y9.5897
G1 X22.9847 Y9.5861
G1 X22.987 Y9.583
G1 X22.9901 Y9.5807
G1 X22.9936 Y9.5791
G1 X22.9975 Y9.5786
G1 X22.9977
G1 X23.0807
G1 X23.0846 Y9.5791
G1 X23.0881 Y9.5805
G1 X23.0912 Y9.5829
G1 X23.0936 Y9.5859
G1 X23.0952 Y9.5895
G1 X23.0957 Y9.5933
G1 Y9.5936
G1 Y9.7818
G1 X23.0958 Y9.7825
G1 X23.1108 Y9.8892
G1 X23.1116 Y9.8913
G1 X23.1132 Y9.8929
G1 X23.1153 Y9.8935
G1 X23.1157 Y9.8936
G1 X23.1892
G1 X23.1914 Y9.8931
G1 X23.1931 Y9.8917
G1 X23.1941 Y9.8896
G1 X23.1942 Y9.8886
G1 Y9.6836
G1 X23.325
G1 X23.3272 Y9.6831
G1 X23.3289 Y9.6817
G1 X23.3299 Y9.6796
G1 X23.33 Y9.6786
G1 Y9.0714
G1 X23.3295 Y9.0612
G1 X23.328 Y9.0511
G1 X23.3255 Y9.0411
G1 X23.3221 Y9.0315
G1 X23.3177 Y9.0222
G1 X23.3125 Y9.0134
G1 X23.3064 Y9.0051
G1 X23.2996 Y8.9975
G1 X23.292 Y8.9906
G1 X23.2838 Y8.9845
G1 X23.2751 Y8.9791
G1 X23.2658 Y8.9747
G1 X23.2562 Y8.9712
G1 X23.2463 Y8.9686
G1 X23.2361 Y8.967
G1 X23.2259 Y8.9665
G1 X23.225 Y8.9664
G1 X22.7534
G1 X22.7513 Y8.9669
G1 X22.7495 Y8.9683
G1 X22.7486 Y8.9704
G1 X22.7484 Y8.9714
G1 Y9.0034
G1 X22.7489 Y9.0056
G1 X22.7499 Y9.007
G1 X23.0679 Y9.325
G1 X22.7499 Y9.643
G1 X22.7487 Y9.6449
G1 X22.7484 Y9.6466
G1 Y9.6786
G1 X22.7489 Y9.6807
G1 X22.7503 Y9.6825
G1 X22.7524 Y9.6834
G1 X22.7534 Y9.6836
G1 X22.8842
G1 Y9.8886
G1 X22.8847 Y9.8907
G1 X22.8859 Y9.8923
( InsideProfile4 )
S1000
G0 Z0.125
G0 X20.1006 Y7.8894
G0 Z0.03
G1 F5.0 Z-0.01
G1 F10.0 Y8.1294
G1 X19.8106
G1 Y7.8894
G1 X20.1006
G0 Z0.125
G0 X20.8667 Y8.8805
G0 Z0.03
G1 F5.0 Z-0.01
G1 F10.0 X20.873 Y8.8762
G1 X20.8798 Y8.8729
G1 X20.8869 Y8.8704
G1 X20.8944 Y8.8689
G1 X20.9019 Y8.8684
G1 X20.9095 Y8.869
G1 X20.9169 Y8.8705
G1 X20.9241 Y8.8729
G1 X20.9309 Y8.8763
G1 X20.9372 Y8.8806
G1 X20.9428 Y8.8856
G1 X20.9478 Y8.8914
G1 X20.9519 Y8.8977
G1 X20.9552 Y8.9045
G1 X20.9576 Y8.9118
G1 X20.9589 Y8.9192
G1 X20.9593 Y8.9259
G1 Y9.0259
G1 X20.9588 Y9.0335
G1 X20.9573 Y9.0409
G1 X20.9549 Y9.0481
G1 X20.9515 Y9.0549
G1 X20.9473 Y9.0612
G1 X20.9422 Y9.0669
G1 X20.9365 Y9.0718
G1 X20.9302 Y9.076
G1 X20.9233 Y9.0793
G1 X20.9161 Y9.0816
G1 X20.9087 Y9.083
G1 X20.9011 Y9.0834
G1 X20.8935 Y9.0828
G1 X20.8861 Y9.0813
G1 X20.879 Y9.0787
G1 X20.8722 Y9.0752
G1 X20.866 Y9.0709
G1 X20.8604 Y9.0658
G1 X20.8555 Y9.06
G1 X20.8514 Y9.0536
G1 X20.8482 Y9.0467
G1 X20.846 Y9.0395
G1 X20.8447 Y9.032
G1 X20.8443 Y9.0259
G1 Y8.9259
G1 X20.8448 Y8.9184
G1 X20.8463 Y8.9109
G1 X20.8488 Y8.9038
G1 X20.8522 Y8.897
G1 X20.8564 Y8.8907
G1 X20.8614 Y8.885
G1 X20.8667 Y8.8805
G0 Z0.125
G0 X21.2083 Y9.2276
G0 Z0.03
G1 F5.0 Z-0.01
G1 F10.0 X21.2235 Y9.2134
G1 X21.2394 Y9.1999
G1 X21.2558 Y9.1871
G1 X21.2729 Y9.1752
G1 X21.2905 Y9.1642
G1 X21.3086 Y9.154
G1 X21.3272 Y9.1446
G1 X21.3463 Y9.1362
G1 X21.3657 Y9.1287
G1 X21.3854 Y9.1221
G1 X21.4055 Y9.1165
G1 X21.4257 Y9.1119
G1 X21.4462 Y9.1082
G1 X21.4669 Y9.1056
G1 X21.4876 Y9.1039
G1 X21.5084 Y9.1032
G1 X21.5292 Y9.1035
G1 X21.55 Y9.1048
G1 X21.5707 Y9.1072
G1 X21.5912 Y9.1105
G1 X21.6116 Y9.1148
G1 X21.6317 Y9.12
G1 X21.6515 Y9.1263
G1 X21.6711 Y9.1334
G1 X21.6902 Y9.1415
G1 X21.709 Y9.1506
G1 X21.7273 Y9.1605
G1 X21.7451 Y9.1712
G1 X21.7624 Y9.1829
G1 X21.779 Y9.1953
G1 X21.7951 Y9.2085
G1 X21.8105 Y9.2225
G1 X21.8253 Y9.2372
G1 X21.8393 Y9.2526
G1 X21.8525 Y9.2686
G1 X21.865 Y9.2853
G1 X21.8766 Y9.3025
G1 X21.8874 Y9.3203
G1 X21.8974 Y9.3386
G1 X21.9064 Y9.3573
G1 X21.9145 Y9.3765
G1 X21.9217 Y9.396
G1 X21.928 Y9.4159
G1 X21.9333 Y9.436
G1 X21.9376 Y9.4563
G1 X21.941 Y9.4769
G1 X21.9433 Y9.4975
G1 X21.9447 Y9.5183
G1 X21.9451 Y9.5362
G1 Y9.6362
G1 X21.9446 Y9.657
G1 X21.9431 Y9.6777
G1 X21.9406 Y9.6984
G1 X21.9371 Y9.7189
G1 X21.9326 Y9.7392
G1 X21.9272 Y9.7593
G1 X21.9208 Y9.7791
G1 X21.9134 Y9.7986
G1 X21.9052 Y9.8177
G1 X21.896 Y9.8364
G1 X21.8859 Y9.8546
G1 X21.875 Y9.8723
G1 X21.8633 Y9.8895
G1 X21.8507 Y9.906
G1 X21.8373 Y9.922
G1 X21.8232 Y9.9373
G1 X21.8084 Y9.9519
G1 X21.7929 Y9.9658
G1 X21.7767 Y9.9789
G1 X21.76 Y9.9912
G1 X21.7426 Y10.0027
G1 X21.7247 Y10.0133
G1 X21.7064 Y10.0231
G1 X21.6876 Y10.032
G1 X21.6683 Y10.04
G1 X21.6488 Y10.047
G1 X21.6289 Y10.0531
G1 X21.6087 Y10.0583
G1 X21.5883 Y10.0624
G1 X21.5677 Y10.0656
G1 X21.547 Y10.0678
G1 X21.5263 Y10.0689
G1 X21.5055 Y10.0691
G1 X21.4847 Y10.0683
G1 X21.4639 Y10.0665
G1 X21.4433 Y10.0637
G1 X21.4229 Y10.0599
G1 X21.4026 Y10.0551
G1 X21.3826 Y10.0494
G1 X21.3629 Y10.0427
G1 X21.3436 Y10.035
G1 X21.3246 Y10.0265
G1 X21.3061 Y10.017
G1 X21.288 Y10.0067
G1 X21.2705 Y9.9955
G1 X21.2535 Y9.9835
G1 X21.2371 Y9.9706
G1 X21.2213 Y9.957
G1 X21.2063 Y9.9427
G1 X21.1919 Y9.9277
G1 X21.1782 Y9.9119
G1 X21.1654 Y9.8956
G1 X21.1533 Y9.8786
G1 X21.1421 Y9.8611
G1 X21.1317 Y9.8431
G1 X21.1222 Y9.8246
G1 X21.1136 Y9.8056
G1 X21.1059 Y9.7863
G1 X21.0992 Y9.7666
G1 X21.0934 Y9.7466
G1 X21.0886 Y9.7264
G1 X21.0847 Y9.7059
G1 X21.0819 Y9.6853
G1 X21.08 Y9.6646
G1 X21.0791 Y9.6438
G1 Y9.6362
G1 Y9.5362
G1 X21.0796 Y9.5154
G1 X21.0811 Y9.4946
G1 X21.0836 Y9.474
G1 X21.0871 Y9.4534
G1 X21.0915 Y9.4331
G1 X21.097 Y9.413
G1 X21.1033 Y9.3932
G1 X21.1107 Y9.3738
G1 X21.119 Y9.3547
G1 X21.1281 Y9.336
G1 X21.1382 Y9.3178
G1 X21.1491 Y9.3001
G1 X21.1609 Y9.2829
G1 X21.1735 Y9.2663
G1 X21.1868 Y9.2504
G1 X21.2009 Y9.2351
G1 X21.2083 Y9.2276
G0 Z0.125
G0 X22.0662 Y9.0383
G0 Z0.03
G1 F5.0 Z-0.01
G1 F10.0 X22.065 Y9.0308
G1 X22.0648 Y9.0259
G1 Y8.9259
G1 X22.0653 Y8.9184
G1 X22.0668 Y8.9109
G1 X22.0693 Y8.9038
G1 X22.0726 Y8.897
G1 X22.0769 Y8.8907
G1 X22.0819 Y8.885
G1 X22.0876 Y8.8801
G1 X22.094 Y8.8759
G1 X22.1008 Y8.8726
G1 X22.108 Y8.8702
G1 X22.1155 Y8.8689
G1 X22.123 Y8.8684
G1 X22.1306 Y8.869
G1 X22.138 Y8.8706
G1 X22.1452 Y8.8732
G1 X22.1519 Y8.8766
G1 X22.1581 Y8.881
G1 X22.1637 Y8.8861
G1 X22.1686 Y8.8919
G1 X22.1727 Y8.8983
G1 X22.1759 Y8.9051
G1 X22.1782 Y8.9124
G1 X22.1795 Y8.9198
G1 X22.1798 Y8.9259
G1 Y9.0259
G1 X22.1793 Y9.0335
G1 X22.1778 Y9.0409
G1 X22.1754 Y9.0481
G1 X22.172 Y9.0549
G1 X22.1677 Y9.0612
G1 X22.1627 Y9.0669
G1 X22.157 Y9.0718
G1 X22.1506 Y9.076
G1 X22.1438 Y9.0793
G1 X22.1366 Y9.0816
G1 X22.1291 Y9.083
G1 X22.1216 Y9.0834
G1 X22.114 Y9.0828
G1 X22.1066 Y9.0813
G1 X22.0994 Y9.0787
G1 X22.0927 Y9.0752
G1 X22.0865 Y9.0709
G1 X22.0809 Y9.0658
G1 X22.076 Y9.06
G1 X22.0719 Y9.0536
G1 X22.0687 Y9.0467
G1 X22.0664 Y9.0395
G1 X22.0662 Y9.0383
G0 Z0.125
G0 X22.1194 Y10.089
G0 Z0.03
G1 F5.0 Z-0.01
G1 F10.0 X22.127 Y10.0891
G1 X22.1345 Y10.0902
G1 X22.1418 Y10.0923
G1 X22.1487 Y10.0953
G1 X22.1552 Y10.0993
G1 X22.1611 Y10.104
G1 X22.1664 Y10.1095
G1 X22.1708 Y10.1156
G1 X22.1745 Y10.1223
G1 X22.1772 Y10.1293
G1 X22.179 Y10.1367
G1 X22.1798 Y10.1442
G1 Y10.1464
G1 Y10.2464
G1 X22.1793 Y10.254
G1 X22.1778 Y10.2614
G1 X22.1754 Y10.2686
G1 X22.172 Y10.2754
G1 X22.1677 Y10.2817
G1 X22.1627 Y10.2873
G1 X22.157 Y10.2923
G1 X22.1506 Y10.2965
G1 X22.1438 Y10.2997
G1 X22.1366 Y10.3021
G1 X22.1291 Y10.3035
G1 X22.1216 Y10.3039
G1 X22.114 Y10.3033
G1 X22.1066 Y10.3017
G1 X22.0994 Y10.2992
G1 X22.0927 Y10.2957
G1 X22.0865 Y10.2914
G1 X22.0809 Y10.2863
G1 X22.076 Y10.2805
G1 X22.0719 Y10.2741
G1 X22.0687 Y10.2672
G1 X22.0664 Y10.26
G1 X22.0651 Y10.2525
G1 X22.0648 Y10.2464
G1 Y10.1464
G1 X22.0653 Y10.1388
G1 X22.0668 Y10.1314
G1 X22.0693 Y10.1242
G1 X22.0726 Y10.1175
G1 X22.0769 Y10.1112
G1 X22.0819 Y10.1055
G1 X22.0876 Y10.1005
G1 X22.094 Y10.0964
G1 X22.1008 Y10.0931
G1 X22.108 Y10.0907
G1 X22.1155 Y10.0893
G1 X22.1194 Y10.089
G0 Z0.125
G0 X20.9593 Y10.1437
G0 Z0.03
G1 F5.0 Z-0.01
G1 F10.0 Y10.1464
G1 Y10.2464
G1 X20.9588 Y10.254
G1 X20.9573 Y10.2614
G1 X20.9549 Y10.2686
G1 X20.9515 Y10.2754
G1 X20.9473 Y10.2817
G1 X20.9422 Y10.2873
G1 X20.9365 Y10.2923
G1 X20.9302 Y10.2965
G1 X20.9233 Y10.2997
G1 X20.9161 Y10.3021
G1 X20.9087 Y10.3035
G1 X20.9011 Y10.3039
G1 X20.8935 Y10.3033
G1 X20.8861 Y10.3017
G1 X20.879 Y10.2992
G1 X20.8722 Y10.2957
G1 X20.866 Y10.2914
G1 X20.8604 Y10.2863
G1 X20.8555 Y10.2805
G1 X20.8514 Y10.2741
G1 X20.8482 Y10.2672
G1 X20.846 Y10.26
G1 X20.8447 Y10.2525
G1 X20.8443 Y10.2464
G1 Y10.1464
G1 X20.8448 Y10.1388
G1 X20.8463 Y10.1314
G1 X20.8488 Y10.1242
G1 X20.8522 Y10.1175
G1 X20.8564 Y10.1112
G1 X20.8614 Y10.1055
G1 X20.8672 Y10.1005
G1 X20.8735 Y10.0964
G1 X20.8803 Y10.0931
G1 X20.8875 Y10.0907
G1 X20.895 Y10.0893
G1 X20.9026 Y10.0889
G1 X20.9101 Y10.0895
G1 X20.9175 Y10.0911
G1 X20.9247 Y10.0937
G1 X20.9314 Y10.0971
G1 X20.9377 Y10.1014
G1 X20.9433 Y10.1065
G1 X20.9482 Y10.1123
G1 X20.9522 Y10.1187
G1 X20.9554 Y10.1256
G1 X20.9577 Y10.1328
G1 X20.959 Y10.1403
G1 X20.9593 Y10.1437
G0 Z0.125
G0 X23.2156 Y8.1294
G0 Z0.03
G1 F5.0 Z-0.01
G1 F10.0 Y7.8894
G1 X23.5056
G1 Y8.1294
G1 X23.2156
G0 Z0.125
G0 Y1.5044
G0 Z0.03
G1 F5.0 Z-0.01
G1 F10.0 Y1.2644
G1 X23.5056
G1 Y1.5044
G1 X23.2156
G0 Z0.125
G0 X21.7852 Y0.7885
G0 Z0.03
G1 F5.0 Z-0.01
G1 F10.0 X21.7811 Y0.7955
G1 X21.7763 Y0.8019
G1 X21.7706 Y0.8077
G1 X21.7643 Y0.8127
G1 X21.7574 Y0.8169
G1 X21.7501 Y0.8202
G1 X21.7424 Y0.8226
G1 X21.7345 Y0.824
G1 X21.7264 Y0.8244
G1 X21.7184 Y0.8238
G1 X21.7105 Y0.8222
G1 X21.7028 Y0.8197
G1 X21.6955 Y0.8162
G1 X21.6946 Y0.8157
G1 X21.6878 Y0.8112
G1 X21.6817 Y0.806
G1 X21.6763 Y0.8
G1 X21.6717 Y0.7934
G1 X21.6679 Y0.7863
G1 X21.665 Y0.7788
G1 X21.6631 Y0.7709
G1 X21.6622 Y0.7629
G1 Y0.7549
G1 X21.6633 Y0.7469
G1 X21.6653 Y0.7391
G1 X21.6683 Y0.7316
G1 X21.6722 Y0.7245
G1 X21.677 Y0.718
G1 X21.6825 Y0.7121
G1 X21.6887 Y0.707
G1 X21.6946 Y0.7031
G1 X21.7018 Y0.6995
G1 X21.7094 Y0.6969
G1 X21.7173 Y0.6952
G1 X21.7253 Y0.6944
G1 X21.7334 Y0.6947
G1 X21.7413 Y0.696
G1 X21.7491 Y0.6982
G1 X21.7565 Y0.7014
G1 X21.7634 Y0.7055
G1 X21.7698 Y0.7104
G1 X21.7755 Y0.7161
G1 X21.7805 Y0.7224
G1 X21.7847 Y0.7293
G1 X21.788 Y0.7367
G1 X21.7903 Y0.7444
G1 X21.7917 Y0.7524
G1 X21.7921 Y0.7594
G1 X21.7916 Y0.7675
G1 X21.7901 Y0.7754
G1 X21.7876 Y0.7831
G1 X21.7852 Y0.7885
G0 Z0.125
G0 X20.1006 Y1.2644
G0 Z0.03
G1 F5.0 Z-0.01
G1 F10.0 Y1.5044
G1 X19.8106
G1 Y1.2644
G1 X20.1006
( OutsideProfile4 )
S1000
G0 Z0.125
G0 X19.6646 Y8.5594
G0 Z0.03
G1 F5.0 Z-0.01
G1 F10.0 X19.6651 Y8.5737
G1 X19.6666 Y8.588
G1 X19.6691 Y8.6021
G1 X19.6725 Y8.6159
G1 X19.6769 Y8.6296
G1 X19.6823 Y8.6428
G1 X19.6886 Y8.6557
G1 X19.6958 Y8.6681
G1 X19.7038 Y8.68
G1 X19.7126 Y8.6912
G1 X19.7222 Y8.7019
G1 X19.7325 Y8.7118
G1 X19.7434 Y8.721
G1 X19.755 Y8.7294
G1 X19.7672 Y8.737
G1 X19.7798 Y8.7437
G1 X19.7929 Y8.7495
G1 X19.8064 Y8.7544
G1 X19.8201 Y8.7584
G1 X19.8341 Y8.7613
G1 X19.8483 Y8.7633
G1 X19.8626 Y8.7643
G1 X19.8696 Y8.7644
G1 X20.4371
G1 X20.451 Y8.7649
G1 X20.4649 Y8.7664
G1 X20.4786 Y8.7689
G1 X20.4922 Y8.7724
G1 X20.5054 Y8.7768
G1 X20.5183 Y8.7821
G1 X20.5308 Y8.7884
G1 X20.5428 Y8.7956
G1 X20.5542 Y8.8035
G1 X20.5651 Y8.8123
G1 X20.5753 Y8.8219
G1 X20.5848 Y8.8321
G1 X20.5935 Y8.843
G1 X20.6014 Y8.8545
G1 X20.6085 Y8.8665
G1 X20.6147 Y8.879
G1 X20.62 Y8.892
G1 X20.6244 Y8.9052
G1 X20.6278 Y8.9188
G1 X20.6302 Y8.9325
G1 X20.6316 Y8.9464
G1 X20.6321 Y8.9594
G1 Y10.313
G1 X20.6326 Y10.3232
G1 X20.6341 Y10.3333
G1 X20.6365 Y10.3433
G1 X20.64 Y10.3529
G1 X20.6443 Y10.3622
G1 X20.6496 Y10.371
G1 X20.6556 Y10.3793
G1 X20.6625 Y10.3869
G1 X20.6701 Y10.3938
G1 X20.6783 Y10.3999
G1 X20.687 Y10.4053
G1 X20.6963 Y10.4097
G1 X20.7059 Y10.4132
G1 X20.7158 Y10.4158
G1 X20.7259 Y10.4174
G1 X20.7362 Y10.4179
G1 X20.7371 Y10.418
G1 X22.2871
G1 X22.2973 Y10.4175
G1 X22.3074 Y10.416
G1 X22.3174 Y10.4135
G1 X22.327 Y10.41
G1 X22.3363 Y10.4057
G1 X22.3451 Y10.4004
G1 X22.3534 Y10.3944
G1 X22.361 Y10.3875
G1 X22.3679 Y10.38
G1 X22.3741 Y10.3718
G1 X22.3794 Y10.363
G1 X22.3838 Y10.3538
G1 X22.3873 Y10.3441
G1 X22.3899 Y10.3342
G1 X22.3915 Y10.3241
G1 X22.3921 Y10.3139
G1 Y10.313
G1 Y8.9594
G1 X22.3926 Y8.9455
G1 X22.3941 Y8.9316
G1 X22.3966 Y8.9178
G1 X22.4 Y8.9043
G1 X22.4044 Y8.8911
G1 X22.4098 Y8.8782
G1 X22.4161 Y8.8657
G1 X22.4232 Y8.8537
G1 X22.4312 Y8.8422
G1 X22.44 Y8.8314
G1 X22.4495 Y8.8212
G1 X22.4598 Y8.8117
G1 X22.4707 Y8.803
G1 X22.4822 Y8.795
G1 X22.4942 Y8.7879
G1 X22.5067 Y8.7817
G1 X22.5196 Y8.7764
G1 X22.5329 Y8.7721
G1 X22.5464 Y8.7687
G1 X22.5602 Y8.7663
G1 X22.5741 Y8.7648
G1 X22.5871 Y8.7644
G1 X23.4466
G1 X23.4609 Y8.7639
G1 X23.4751 Y8.7624
G1 X23.4892 Y8.7599
G1 X23.5031 Y8.7565
G1 X23.5167 Y8.752
G1 X23.53 Y8.7467
G1 X23.5429 Y8.7404
G1 X23.5553 Y8.7332
G1 X23.5671 Y8.7252
G1 X23.5784 Y8.7164
G1 X23.589 Y8.7068
G1 X23.599 Y8.6965
G1 X23.6082 Y8.6855
G1 X23.6166 Y8.6739
G1 X23.6242 Y8.6618
G1 X23.6309 Y8.6491
G1 X23.6367 Y8.6361
G1 X23.6416 Y8.6226
G1 X23.6455 Y8.6088
G1 X23.6485 Y8.5948
G1 X23.6505 Y8.5806
G1 X23.6514 Y8.5664
G1 X23.6516 Y8.5594
G1 Y0.4594
G1 X23.6511 Y0.4451
G1 X23.6496 Y0.4309
G1 X23.6471 Y0.4168
G1 X23.6436 Y0.4029
G1 X23.6392 Y0.3893
G1 X23.6338 Y0.376
G1 X23.6275 Y0.3631
G1 X23.6204 Y0.3507
G1 X23.6124 Y0.3388
G1 X23.6035 Y0.3276
G1 X23.594 Y0.3169
G1 X23.5837 Y0.307
G1 X23.5727 Y0.2978
G1 X23.5611 Y0.2894
G1 X23.549 Y0.2818
G1 X23.5363 Y0.2751
G1 X23.5232 Y0.2693
G1 X23.5098 Y0.2644
G1 X23.496 Y0.2605
G1 X23.482 Y0.2575
G1 X23.4678 Y0.2555
G1 X23.4535 Y0.2545
G1 X23.4466 Y0.2544
G1 X19.8696
G1 X19.8553 Y0.2549
G1 X19.841 Y0.2564
G1 X19.8269 Y0.2589
G1 X19.813 Y0.2624
G1 X19.7994 Y0.2668
G1 X19.7861 Y0.2722
G1 X19.7733 Y0.2784
G1 X19.7609 Y0.2856
G1 X19.749 Y0.2936
G1 X19.7377 Y0.3024
G1 X19.7271 Y0.312
G1 X19.7172 Y0.3223
G1 X19.708 Y0.3333
G1 X19.6995 Y0.3449
G1 X19.692 Y0.357
G1 X19.6853 Y0.3697
G1 X19.6794 Y0.3828
G1 X19.6746 Y0.3962
G1 X19.6706 Y0.41
G1 X19.6677 Y0.424
G1 X19.6657 Y0.4382
G1 X19.6647 Y0.4525
G1 X19.6646 Y0.4594
G1 Y1.308
G1 X19.6641 Y1.3219
G1 X19.6626 Y1.3358
G1 X19.6601 Y1.3495
G1 X19.6566 Y1.3631
G1 X19.6522 Y1.3763
G1 X19.6468 Y1.3892
G1 X19.6406 Y1.4017
G1 X19.6334 Y1.4137
G1 X19.6254 Y1.4251
G1 X19.6166 Y1.436
G1 X19.6071 Y1.4462
G1 X19.5969 Y1.4557
G1 X19.586 Y1.4644
G1 X19.5745 Y1.4723
G1 X19.5624 Y1.4794
G1 X19.5499 Y1.4856
G1 X19.537 Y1.4909
G1 X19.5237 Y1.4953
G1 X19.5102 Y1.4987
G1 X19.4964 Y1.5011
G1 X19.4826 Y1.5025
G1 X19.4696 Y1.503
G1 X17.3466
G1 X17.3323 Y1.5035
G1 X17.318 Y1.5049
G1 X17.3039 Y1.5074
G1 X17.29 Y1.5109
G1 X17.2764 Y1.5153
G1 X17.2631 Y1.5207
G1 X17.2503 Y1.527
G1 X17.2379 Y1.5341
G1 X17.226 Y1.5422
G1 X17.2147 Y1.551
G1 X17.2041 Y1.5606
G1 X17.1942 Y1.5709
G1 X17.185 Y1.5818
G1 X17.1765 Y1.5934
G1 X17.169 Y1.6056
G1 X17.1623 Y1.6182
G1 X17.1564 Y1.6313
G1 X17.1516 Y1.6448
G1 X17.1476 Y1.6585
G1 X17.1447 Y1.6725
G1 X17.1427 Y1.6867
G1 X17.1417 Y1.701
G1 X17.1416 Y1.708
G1 Y7.808
G1 X17.1421 Y7.8223
G1 X17.1436 Y7.8365
G1 X17.1461 Y7.8506
G1 X17.1495 Y7.8645
G1 X17.1539 Y7.8781
G1 X17.1593 Y7.8914
G1 X17.1656 Y7.9042
G1 X17.1728 Y7.9166
G1 X17.1808 Y7.9285
G1 X17.1896 Y7.9398
G1 X17.1992 Y7.9504
G1 X17.2095 Y7.9604
G1 X17.2204 Y7.9696
G1 X17.232 Y7.978
G1 X17.2442 Y7.9856
G1 X17.2568 Y7.9923
G1 X17.2699 Y7.9981
G1 X17.2834 Y8.003
G1 X17.2971 Y8.0069
G1 X17.3111 Y8.0099
G1 X17.3253 Y8.0118
G1 X17.3396 Y8.0128
G1 X17.3466 Y8.013
G1 X19.4696
G1 X19.4835 Y8.0135
G1 X19.4974 Y8.0149
G1 X19.5111 Y8.0174
G1 X19.5247 Y8.0209
G1 X19.5379 Y8.0253
G1 X19.5508 Y8.0307
G1 X19.5633 Y8.037
G1 X19.5753 Y8.0441
G1 X19.5867 Y8.0521
G1 X19.5976 Y8.0609
G1 X19.6078 Y8.0704
G1 X19.6173 Y8.0807
G1 X19.626 Y8.0916
G1 X19.6339 Y8.103
G1 X19.641 Y8.1151
G1 X19.6472 Y8.1276
G1 X19.6525 Y8.1405
G1 X19.6569 Y8.1538
G1 X19.6603 Y8.1673
G1 X19.6627 Y8.1811
G1 X19.6641 Y8.195
G1 X19.6646 Y8.208
G1 Y8.5594
( InsideProfile5 )
S1000
G0 Z0.125
G0 X18.909 Y0.7928
G0 Z0.03
G1 F5.0 Z-0.01
G1 F10.0 X18.9085 Y0.8002
G1 X18.907 Y0.8075
G1 X18.9045 Y0.8145
G1 X18.9011 Y0.8211
G1 X18.8969 Y0.8272
G1 X18.8919 Y0.8326
G1 X18.8862 Y0.8374
G1 X18.8799 Y0.8413
G1 X18.8731 Y0.8444
G1 X18.866 Y0.8465
G1 X18.8587 Y0.8476
G1 X18.8513 Y0.8477
G1 X18.8439 Y0.8469
G1 X18.8367 Y0.845
G1 X18.8299 Y0.8423
G1 X18.8265 Y0.8404
G1 X18.8203 Y0.8363
G1 X18.8148 Y0.8314
G1 X18.8099 Y0.8258
G1 X18.8059 Y0.8195
G1 X18.8027 Y0.8128
G1 X18.8005 Y0.8058
G1 X18.7993 Y0.7984
G1 X18.799 Y0.791
G1 X18.7997 Y0.7837
G1 X18.8015 Y0.7764
G1 X18.8041 Y0.7695
G1 X18.8077 Y0.763
G1 X18.8121 Y0.7571
G1 X18.8173 Y0.7518
G1 X18.8232 Y0.7472
G1 X18.8265 Y0.7452
G1 X18.8331 Y0.7419
G1 X18.8402 Y0.7396
G1 X18.8474 Y0.7382
G1 X18.8549 Y0.7378
G1 X18.8622 Y0.7384
G1 X18.8695 Y0.74
G1 X18.8764 Y0.7426
G1 X18.883 Y0.7461
G1 X18.889 Y0.7504
G1 X18.8944 Y0.7555
G1 X18.899 Y0.7613
G1 X18.9029 Y0.7677
G1 X18.9058 Y0.7745
G1 X18.9078 Y0.7816
G1 X18.9088 Y0.7889
G1 X18.909 Y0.7928
( OutsideProfile5 )
S1000
G0 Z0.125
G0 X19.0465 Y1.1678
G0 Z0.03
G1 F5.0 Z-0.01
G1 F10.0 Y0.4178
G1 X19.046 Y0.4156
G1 X19.0446 Y0.4139
G1 X19.0425 Y0.4129
G1 X19.0415 Y0.4128
G1 X17.5415
G1 X17.5393 Y0.4133
G1 X17.5375 Y0.4147
G1 X17.5366 Y0.4167
G1 X17.5365 Y0.4178
G1 Y1.1678
G1 X17.537 Y1.17
G1 X17.5384 Y1.1717
G1 X17.5404 Y1.1727
G1 X17.5415 Y1.1728
G1 X19.0415
G1 X19.0436 Y1.1723
G1 X19.0454 Y1.1709
G1 X19.0463 Y1.1689
G1 X19.0465 Y1.1678
( InsideProfile6 )
S1000
G0 Z0.125
G0 X14.9375 Y9.7533
G0 Z0.03
G1 F5.0 Z-0.01
G1 F10.0 X14.937 Y9.7614
G1 X14.9355 Y9.7693
G1 X14.9331 Y9.777
G1 X14.9297 Y9.7843
G1 X14.9254 Y9.7911
G1 X14.9203 Y9.7974
G1 X14.9145 Y9.8029
G1 X14.908 Y9.8078
G1 X14.901 Y9.8117
G1 X14.8936 Y9.8148
G1 X14.8858 Y9.8169
G1 X14.8778 Y9.8181
G1 X14.8697 Y9.8183
G1 X14.8617 Y9.8174
G1 X14.8539 Y9.8156
G1 X14.8463 Y9.8128
G1 X14.84 Y9.8096
G1 X14.8333 Y9.8052
G1 X14.8272 Y9.7999
G1 X14.8218 Y9.7939
G1 X14.8171 Y9.7873
G1 X14.8133 Y9.7802
G1 X14.8105 Y9.7727
G1 X14.8086 Y9.7649
G1 X14.8076 Y9.7568
G1 X14.8077 Y9.7488
G1 X14.8087 Y9.7408
G1 X14.8108 Y9.733
G1 X14.8138 Y9.7255
G1 X14.8177 Y9.7184
G1 X14.8224 Y9.7119
G1 X14.8279 Y9.706
G1 X14.8341 Y9.7009
G1 X14.84 Y9.697
G1 X14.8472 Y9.6934
G1 X14.8548 Y9.6908
G1 X14.8627 Y9.6891
G1 X14.8708 Y9.6883
G1 X14.8788 Y9.6886
G1 X14.8868 Y9.6899
G1 X14.8945 Y9.6922
G1 X14.9019 Y9.6953
G1 X14.9089 Y9.6994
G1 X14.9153 Y9.7043
G1 X14.921 Y9.71
G1 X14.926 Y9.7163
G1 X14.9301 Y9.7232
G1 X14.9334 Y9.7306
G1 X14.9358 Y9.7383
G1 X14.9371 Y9.7463
G1 X14.9375 Y9.7533
G0 Z0.125
G0 X13.384 Y9.2483
G0 Z0.03
G1 F5.0 Z-0.01
G1 F10.0 X13.094
G1 Y9.0083
G1 X13.384
G1 Y9.2483
G0 Z0.125
G0 X13.334 Y6.2483
G0 Z0.03
G1 F5.0 Z-0.01
G1 F10.0 X13.094
G1 Y5.9583
G1 X13.334
G1 Y6.2483
G0 Z0.125
G0 X13.2206 Y5.7064
G0 Z0.03
G1 F5.0 Z-0.01
G1 F10.0 X13.2126 Y5.7076
G1 X13.2045 Y5.7078
G1 X13.1964 Y5.7069
G1 X13.1885 Y5.7051
G1 X13.1808 Y5.7024
G1 X13.1741 Y5.699
G1 X13.1674 Y5.6945
G1 X13.1612 Y5.6892
G1 X13.1557 Y5.6832
G1 X13.151 Y5.6766
G1 X13.1472 Y5.6694
G1 X13.1442 Y5.6618
G1 X13.1423 Y5.654
G1 X13.1413 Y5.6459
G1 Y5.6378
G1 X13.1422 Y5.6297
G1 X13.1442 Y5.6218
G1 X13.1472 Y5.6143
G1 X13.151 Y5.6071
G1 X13.1557 Y5.6005
G1 X13.1612 Y5.5945
G1 X13.1673 Y5.5892
G1 X13.1741 Y5.5847
G1 X13.1814 Y5.581
G1 X13.1891 Y5.5783
G1 X13.197 Y5.5766
G1 X13.2051 Y5.5758
G1 X13.2132 Y5.5761
G1 X13.2212 Y5.5773
G1 X13.2291 Y5.5796
G1 X13.2365 Y5.5827
G1 X13.2436 Y5.5868
G1 X13.2501 Y5.5917
G1 X13.2559 Y5.5973
G1 X13.261 Y5.6037
G1 X13.2653 Y5.6106
G1 X13.2687 Y5.6179
G1 X13.2711 Y5.6257
G1 X13.2726 Y5.6337
G1 X13.2731 Y5.6418
G1 X13.2726 Y5.6499
G1 X13.2711 Y5.6579
G1 X13.2687 Y5.6657
G1 X13.2653 Y5.673
G1 X13.261 Y5.6799
G1 X13.2559 Y5.6863
G1 X13.2501 Y5.6919
G1 X13.2436 Y5.6968
G1 X13.2366 Y5.7009
G1 X13.2291 Y5.7041
G1 X13.2213 Y5.7063
G1 X13.2206 Y5.7064
G0 Z0.125
G0 Y2.9983
G0 Z0.03
G1 F5.0 Z-0.01
G1 F10.0 X13.094
G1 Y2.7583
G1 X13.384
G1 Y2.9983
G1 X13.2206
G0 Z0.125
G0 X13.2081 Y2.1308
G0 Z0.03
G1 F5.0 Z-0.01
G1 F10.0 X13.2 Y2.1304
G1 X13.192 Y2.129
G1 X13.1842 Y2.1267
G1 X13.1768 Y2.1234
G1 X13.1741 Y2.122
G1 X13.1674 Y2.1175
G1 X13.1612 Y2.1122
G1 X13.1557 Y2.1062
G1 X13.151 Y2.0996
G1 X13.1472 Y2.0924
G1 X13.1442 Y2.0848
G1 X13.1423 Y2.077
G1 X13.1413 Y2.0689
G1 Y2.0608
G1 X13.1422 Y2.0527
G1 X13.1442 Y2.0448
G1 X13.1472 Y2.0373
G1 X13.151 Y2.0301
G1 X13.1557 Y2.0235
G1 X13.1612 Y2.0175
G1 X13.1673 Y2.0122
G1 X13.1741 Y2.0077
G1 X13.1814 Y2.004
G1 X13.1891 Y2.0013
G1 X13.197 Y1.9996
G1 X13.2051 Y1.9988
G1 X13.2132 Y1.9991
G1 X13.2212 Y2.0003
G1 X13.2291 Y2.0026
G1 X13.2365 Y2.0057
G1 X13.2436 Y2.0098
G1 X13.2501 Y2.0147
G1 X13.2559 Y2.0203
G1 X13.261 Y2.0267
G1 X13.2653 Y2.0336
G1 X13.2687 Y2.0409
G1 X13.2711 Y2.0487
G1 X13.2726 Y2.0567
G1 X13.2731 Y2.0648
G1 X13.2726 Y2.0729
G1 X13.2711 Y2.0809
G1 X13.2687 Y2.0887
G1 X13.2653 Y2.096
G1 X13.261 Y2.1029
G1 X13.2559 Y2.1093
G1 X13.2501 Y2.1149
G1 X13.2436 Y2.1198
G1 X13.2366 Y2.1239
G1 X13.2291 Y2.1271
G1 X13.2213 Y2.1293
G1 X13.2132 Y2.1305
G1 X13.2081 Y2.1308
G0 Z0.125
G0 Y1.7483
G0 Z0.03
G1 F5.0 Z-0.01
G1 F10.0 X13.094
G1 Y1.4583
G1 X13.334
G1 Y1.7483
G1 X13.2081
G0 Z0.125
G0 X14.1781 Y1.0373
G0 Z0.03
G1 F5.0 Z-0.01
G1 F10.0 X14.1741 Y1.0309
G1 X14.1709 Y1.024
G1 X14.1686 Y1.0168
G1 X14.1673 Y1.0093
G1 X14.167 Y1.0033
G1 Y0.9033
G1 X14.1675 Y0.8957
G1 X14.169 Y0.8883
G1 X14.1715 Y0.8811
G1 X14.1748 Y0.8744
G1 X14.1791 Y0.8681
G1 X14.1841 Y0.8624
G1 X14.1899 Y0.8574
G1 X14.1962 Y0.8533
G1 X14.203 Y0.85
G1 X14.2102 Y0.8476
G1 X14.2177 Y0.8462
G1 X14.2253 Y0.8458
G1 X14.2328 Y0.8464
G1 X14.2402 Y0.848
G1 X14.2474 Y0.8506
G1 X14.2541 Y0.854
G1 X14.2603 Y0.8583
G1 X14.266 Y0.8634
G1 X14.2708 Y0.8692
G1 X14.2749 Y0.8756
G1 X14.2781 Y0.8825
G1 X14.2804 Y0.8897
G1 X14.2817 Y0.8972
G1 X14.282 Y0.9033
G1 Y1.0033
G1 X14.2815 Y1.0109
G1 X14.28 Y1.0183
G1 X14.2776 Y1.0255
G1 X14.2742 Y1.0323
G1 X14.2699 Y1.0386
G1 X14.2649 Y1.0442
G1 X14.2592 Y1.0492
G1 X14.2528 Y1.0534
G1 X14.246 Y1.0566
G1 X14.2388 Y1.059
G1 X14.2313 Y1.0604
G1 X14.2238 Y1.0608
G1 X14.2162 Y1.0602
G1 X14.2088 Y1.0586
G1 X14.2017 Y1.0561
G1 X14.1949 Y1.0526
G1 X14.1887 Y1.0483
G1 X14.1831 Y1.0432
G1 X14.1782 Y1.0374
G1 X14.1781 Y1.0373
G0 Z0.125
G0 X14.6499 Y1.0197
G0 Z0.03
G1 F5.0 Z-0.01
G1 F10.0 X14.6496 Y1.0033
G1 Y0.9033
G1 X14.6501 Y0.8824
G1 X14.6516 Y0.8615
G1 X14.6541 Y0.8407
G1 X14.6576 Y0.8201
G1 X14.662 Y0.7997
G1 X14.6675 Y0.7795
G1 X14.6739 Y0.7595
G1 X14.6812 Y0.7399
G1 X14.6895 Y0.7207
G1 X14.6987 Y0.7019
G1 X14.7087 Y0.6836
G1 X14.7197 Y0.6657
G1 X14.7314 Y0.6484
G1 X14.744 Y0.6317
G1 X14.7574 Y0.6156
G1 X14.7715 Y0.6002
G1 X14.7864 Y0.5854
G1 X14.8019 Y0.5714
G1 X14.8181 Y0.5581
G1 X14.8349 Y0.5456
G1 X14.8522 Y0.534
G1 X14.8702 Y0.5232
G1 X14.8886 Y0.5132
G1 X14.9074 Y0.5041
G1 X14.9267 Y0.496
G1 X14.9464 Y0.4888
G1 X14.9663 Y0.4825
G1 X14.9866 Y0.4772
G1 X15.007 Y0.4729
G1 X15.0277 Y0.4695
G1 X15.0485 Y0.4671
G1 X15.0694 Y0.4658
G1 X15.0903 Y0.4654
G1 X15.1112 Y0.466
G1 X15.1321 Y0.4677
G1 X15.1528 Y0.4703
G1 X15.1734 Y0.4739
G1 X15.1939 Y0.4785
G1 X15.214 Y0.4841
G1 X15.2339 Y0.4906
G1 X15.2535 Y0.4981
G1 X15.2726 Y0.5064
G1 X15.2914 Y0.5157
G1 X15.3097 Y0.5259
G1 X15.3274 Y0.537
G1 X15.3447 Y0.5489
G1 X15.3613 Y0.5615
G1 X15.3773 Y0.575
G1 X15.3927 Y0.5892
G1 X15.4073 Y0.6042
G1 X15.4213 Y0.6198
G1 X15.4344 Y0.6361
G1 X15.4468 Y0.6529
G1 X15.4583 Y0.6704
G1 X15.469 Y0.6884
G1 X15.4789 Y0.7068
G1 X15.4878 Y0.7258
G1 X15.4958 Y0.7451
G1 X15.5029 Y0.7648
G1 X15.5091 Y0.7848
G1 X15.5143 Y0.805
G1 X15.5185 Y0.8255
G1 X15.5217 Y0.8462
G1 X15.5239 Y0.867
G1 X15.5252 Y0.8879
G1 X15.5254 Y0.9033
G1 Y1.0033
G1 X15.5249 Y1.0242
G1 X15.5234 Y1.0451
G1 X15.5209 Y1.0659
G1 X15.5175 Y1.0865
G1 X15.513 Y1.107
G1 X15.5076 Y1.1272
G1 X15.5012 Y1.1471
G1 X15.4938 Y1.1667
G1 X15.4855 Y1.1859
G1 X15.4764 Y1.2047
G1 X15.4663 Y1.2231
G1 X15.4554 Y1.2409
G1 X15.4436 Y1.2582
G1 X15.431 Y1.2749
G1 X15.4176 Y1.291
G1 X15.4035 Y1.3065
G1 X15.3887 Y1.3212
G1 X15.3732 Y1.3353
G1 X15.357 Y1.3485
G1 X15.3402 Y1.361
G1 X15.3228 Y1.3727
G1 X15.3049 Y1.3835
G1 X15.2865 Y1.3934
G1 X15.2676 Y1.4025
G1 X15.2483 Y1.4106
G1 X15.2287 Y1.4179
G1 X15.2087 Y1.4241
G1 X15.1885 Y1.4294
G1 X15.168 Y1.4338
G1 X15.1474 Y1.4371
G1 X15.1266 Y1.4395
G1 X15.1057 Y1.4409
G1 X15.0848 Y1.4412
G1 X15.0638 Y1.4406
G1 X15.043 Y1.439
G1 X15.0222 Y1.4363
G1 X15.0016 Y1.4327
G1 X14.9812 Y1.4281
G1 X14.961 Y1.4226
G1 X14.9411 Y1.416
G1 X14.9216 Y1.4086
G1 X14.9024 Y1.4002
G1 X14.8837 Y1.3909
G1 X14.8654 Y1.3807
G1 X14.8476 Y1.3697
G1 X14.8304 Y1.3578
G1 X14.8137 Y1.3451
G1 X14.7977 Y1.3316
G1 X14.7824 Y1.3174
G1 X14.7677 Y1.3025
G1 X14.7538 Y1.2868
G1 X14.7406 Y1.2706
G1 X14.7282 Y1.2537
G1 X14.7167 Y1.2363
G1 X14.706 Y1.2183
G1 X14.6962 Y1.1998
G1 X14.6872 Y1.1809
G1 X14.6792 Y1.1616
G1 X14.6721 Y1.1419
G1 X14.666 Y1.1219
G1 X14.6608 Y1.1016
G1 X14.6566 Y1.0811
G1 X14.6533 Y1.0604
G1 X14.6511 Y1.0396
G1 X14.6499 Y1.0197
G0 Z0.125
G0 X15.893 Y1.004
G0 Z0.03
G1 F5.0 Z-0.01
G1 F10.0 Y1.0033
G1 Y0.9033
G1 X15.8935 Y0.8957
G1 X15.895 Y0.8883
G1 X15.8975 Y0.8811
G1 X15.9009 Y0.8744
G1 X15.9051 Y0.8681
G1 X15.9101 Y0.8624
G1 X15.9159 Y0.8574
G1 X15.9222 Y0.8533
G1 X15.929 Y0.85
G1 X15.9362 Y0.8476
G1 X15.9437 Y0.8462
G1 X15.9513 Y0.8458
G1 X15.9588 Y0.8464
G1 X15.9662 Y0.848
G1 X15.9734 Y0.8506
G1 X15.9801 Y0.854
G1 X15.9864 Y0.8583
G1 X15.992 Y0.8634
G1 X15.9968 Y0.8692
G1 X16.0009 Y0.8756
G1 X16.0041 Y0.8825
G1 X16.0064 Y0.8897
G1 X16.0077 Y0.8972
G1 X16.008 Y0.9033
G1 Y1.0033
G1 X16.0075 Y1.0109
G1 X16.006 Y1.0183
G1 X16.0036 Y1.0255
G1 X16.0002 Y1.0323
G1 X15.996 Y1.0386
G1 X15.9909 Y1.0442
G1 X15.9852 Y1.0492
G1 X15.9788 Y1.0534
G1 X15.972 Y1.0566
G1 X15.9648 Y1.059
G1 X15.9574 Y1.0604
G1 X15.9498 Y1.0608
G1 X15.9422 Y1.0602
G1 X15.9348 Y1.0586
G1 X15.9277 Y1.0561
G1 X15.9209 Y1.0526
G1 X15.9147 Y1.0483
G1 X15.9091 Y1.0432
G1 X15.9042 Y1.0374
G1 X15.9001 Y1.031
G1 X15.8969 Y1.0241
G1 X15.8946 Y1.0169
G1 X15.8933 Y1.0094
G1 X15.893 Y1.004
G0 Z0.125
G0 X16.549 Y1.4583
G0 Z0.03
G1 F5.0 Z-0.01
G1 F10.0 X16.789
G1 Y1.7483
G1 X16.549
G1 Y1.4583
G0 Z0.125
G0 X16.6624 Y2.0002
G0 Z0.03
G1 F5.0 Z-0.01
G1 F10.0 X16.6704 Y1.999
G1 X16.6786 Y1.9989
G1 X16.6866 Y1.9997
G1 X16.6946 Y2.0015
G1 X16.7022 Y2.0043
G1 X16.7094 Y2.008
G1 X16.7162 Y2.0125
G1 X16.7223 Y2.0179
G1 X16.7277 Y2.0239
G1 X16.7323 Y2.0306
G1 X16.7361 Y2.0378
G1 X16.739 Y2.0454
G1 X16.7409 Y2.0533
G1 X16.7418 Y2.0613
G1 X16.7419 Y2.0648
G1 X16.7414 Y2.0729
G1 X16.7399 Y2.0809
G1 X16.7375 Y2.0887
G1 X16.7341 Y2.096
G1 X16.7298 Y2.1029
G1 X16.7247 Y2.1093
G1 X16.7189 Y2.1149
G1 X16.7124 Y2.1198
G1 X16.7053 Y2.1239
G1 X16.6979 Y2.1271
G1 X16.6901 Y2.1293
G1 X16.682 Y2.1305
G1 X16.6739 Y2.1308
G1 X16.6658 Y2.13
G1 X16.6579 Y2.1283
G1 X16.6502 Y2.1256
G1 X16.6429 Y2.122
G1 X16.6361 Y2.1175
G1 X16.63 Y2.1122
G1 X16.6245 Y2.1062
G1 X16.6198 Y2.0996
G1 X16.616 Y2.0924
G1 X16.613 Y2.0848
G1 X16.611 Y2.077
G1 X16.61 Y2.0689
G1 Y2.0608
G1 X16.611 Y2.0527
G1 X16.613 Y2.0448
G1 X16.6159 Y2.0373
G1 X16.6198 Y2.0301
G1 X16.6245 Y2.0235
G1 X16.6299 Y2.0175
G1 X16.6361 Y2.0122
G1 X16.6429 Y2.0077
G1 X16.6502 Y2.004
G1 X16.6578 Y2.0013
G1 X16.6624 Y2.0002
G0 Z0.125
G0 Y2.7583
G0 Z0.03
G1 F5.0 Z-0.01
G1 F10.0 X16.789
G1 Y2.9983
G1 X16.499
G1 Y2.7583
G1 X16.6624
G0 Z0.125
G0 X16.6756 Y5.5758
G0 Z0.03
G1 F5.0 Z-0.01
G1 F10.0 X16.6837 Y5.5763
G1 X16.6917 Y5.5777
G1 X16.6995 Y5.5802
G1 X16.7069 Y5.5835
G1 X16.7138 Y5.5878
G1 X16.7201 Y5.5928
G1 X16.7258 Y5.5986
G1 X16.7307 Y5.6051
G1 X16.7348 Y5.6121
G1 X16.738 Y5.6196
G1 X16.7403 Y5.6274
G1 X16.7416 Y5.6354
G1 X16.7419 Y5.6418
G1 X16.7414 Y5.6499
G1 X16.7399 Y5.6579
G1 X16.7375 Y5.6657
G1 X16.7341 Y5.673
G1 X16.7298 Y5.6799
G1 X16.7247 Y5.6863
G1 X16.7189 Y5.6919
G1 X16.7124 Y5.6968
G1 X16.7053 Y5.7009
G1 X16.6979 Y5.7041
G1 X16.6901 Y5.7063
G1 X16.682 Y5.7075
G1 X16.6739 Y5.7078
G1 X16.6658 Y5.707
G1 X16.6579 Y5.7053
G1 X16.6502 Y5.7026
G1 X16.6429 Y5.699
G1 X16.6361 Y5.6945
G1 X16.63 Y5.6892
G1 X16.6245 Y5.6832
G1 X16.6198 Y5.6766
G1 X16.616 Y5.6694
G1 X16.613 Y5.6618
G1 X16.611 Y5.654
G1 X16.61 Y5.6459
G1 Y5.6378
G1 X16.611 Y5.6297
G1 X16.613 Y5.6218
G1 X16.6159 Y5.6143
G1 X16.6198 Y5.6071
G1 X16.6245 Y5.6005
G1 X16.6299 Y5.5945
G1 X16.6361 Y5.5892
G1 X16.6429 Y5.5847
G1 X16.6502 Y5.581
G1 X16.6578 Y5.5783
G1 X16.6658 Y5.5766
G1 X16.6739 Y5.5758
G1 X16.6756
G0 Z0.125
G0 Y5.9583
G0 Z0.03
G1 F5.0 Z-0.01
G1 F10.0 X16.789
G1 Y6.2483
G1 X16.549
G1 Y5.9583
G1 X16.6756
G0 Z0.125
G0 Y9.0083
G0 Z0.03
G1 F5.0 Z-0.01
G1 F10.0 X16.789
G1 Y9.2483
G1 X16.499
G1 Y9.0083
G1 X16.6756
( OutsideProfile6 )
S1000
G0 Z0.125
G0 X16.935 Y10.1533
G0 Z0.03
G1 F5.0 Z-0.01
G1 F10.0 Y9.8158
G1 X16.9345 Y9.8136
G1 X16.9331 Y9.8119
G1 X16.9311 Y9.8109
G1 X16.93 Y9.8108
G1 X16.9225 Y9.8103
G1 X16.915 Y9.8088
G1 X16.9078 Y9.8064
G1 X16.9011 Y9.803
G1 X16.8948 Y9.7987
G1 X16.8891 Y9.7937
G1 X16.8841 Y9.788
G1 X16.88 Y9.7816
G1 X16.8767 Y9.7748
G1 X16.8743 Y9.7676
G1 X16.8729 Y9.7601
G1 X16.8725 Y9.7526
G1 X16.8731 Y9.745
G1 X16.8747 Y9.7376
G1 X16.8773 Y9.7305
G1 X16.8807 Y9.7237
G1 X16.885 Y9.7175
G1 X16.8902 Y9.7119
G1 X16.896 Y9.707
G1 X16.9023 Y9.7029
G1 X16.9092 Y9.6997
G1 X16.9165 Y9.6974
G1 X16.9239 Y9.6961
G1 X16.93 Y9.6958
G1 X16.9322 Y9.6953
G1 X16.9339 Y9.6939
G1 X16.9349 Y9.6919
G1 X16.935 Y9.6908
G1 Y0.4033
G1 X16.9345 Y0.3931
G1 X16.933 Y0.3829
G1 X16.9305 Y0.373
G1 X16.9271 Y0.3633
G1 X16.9228 Y0.3541
G1 X16.9175 Y0.3453
G1 X16.9114 Y0.337
G1 X16.9046 Y0.3294
G1 X16.897 Y0.3225
G1 X16.8888 Y0.3163
G1 X16.8801 Y0.311
G1 X16.8708 Y0.3066
G1 X16.8612 Y0.3031
G1 X16.8513 Y0.3005
G1 X16.8412 Y0.2989
G1 X16.8309 Y0.2983
G1 X16.83
G1 X16.4329
G1 X16.4271 Y0.2899
G1 X16.4205 Y0.282
G1 X16.4132 Y0.2748
G1 X16.4052 Y0.2684
G1 X16.3966 Y0.2628
G1 X16.3875 Y0.258
G1 X16.378 Y0.2542
G1 X16.3682 Y0.2513
G1 X16.3582 Y0.2494
G1 X16.348 Y0.2484
G1 X16.3434 Y0.2483
G1 X13.5396
G1 X13.5294 Y0.2488
G1 X13.5193 Y0.2503
G1 X13.5093 Y0.2528
G1 X13.4997 Y0.2562
G1 X13.4904 Y0.2606
G1 X13.4816 Y0.2658
G1 X13.4733 Y0.2719
G1 X13.4657 Y0.2787
G1 X13.4588 Y0.2863
G1 X13.4526 Y0.2945
G1 X13.4502 Y0.2983
G1 X13.053
G1 X13.0428 Y0.2988
G1 X13.0326 Y0.3003
G1 X13.0227 Y0.3028
G1 X13.013 Y0.3062
G1 X13.0038 Y0.3106
G1 X12.995 Y0.3158
G1 X12.9867 Y0.3219
G1 X12.9791 Y0.3287
G1 X12.9722 Y0.3363
G1 X12.966 Y0.3445
G1 X12.9607 Y0.3533
G1 X12.9563 Y0.3625
G1 X12.9528 Y0.3721
G1 X12.9502 Y0.382
G1 X12.9486 Y0.3922
G1 X12.948 Y0.4024
G1 Y0.4033
G1 Y10.1533
G1 X12.9485 Y10.1635
G1 X12.95 Y10.1737
G1 X12.9525 Y10.1836
G1 X12.9559 Y10.1933
G1 X12.9603 Y10.2026
G1 X12.9655 Y10.2114
G1 X12.9716 Y10.2196
G1 X12.9784 Y10.2272
G1 X12.986 Y10.2342
G1 X12.9942 Y10.2403
G1 X13.003 Y10.2456
G1 X13.0122 Y10.2501
G1 X13.0218 Y10.2536
G1 X13.0317 Y10.2561
G1 X13.0419 Y10.2577
G1 X13.0521 Y10.2583
G1 X13.053
G1 X16.83
G1 X16.8403 Y10.2578
G1 X16.8504 Y10.2563
G1 X16.8603 Y10.2538
G1 X16.87 Y10.2504
G1 X16.8793 Y10.2461
G1 X16.8881 Y10.2408
G1 X16.8963 Y10.2347
G1 X16.9039 Y10.2279
G1 X16.9109 Y10.2203
G1 X16.917 Y10.2121
G1 X16.9223 Y10.2034
G1 X16.9268 Y10.1941
G1 X16.9303 Y10.1845
G1 X16.9328 Y10.1746
G1 X16.9344 Y10.1645
G1 X16.935 Y10.1542
G1 Y10.1533
( InsideProfile7 )
S1000
G0 Z0.125
G0 X10.64 Y9.425
G0 Z0.03
G1 F5.0 Z-0.01
G1 F10.0 X10.6395 Y9.433
G1 X10.638 Y9.441
G1 X10.6355 Y9.4486
G1 X10.6322 Y9.456
G1 X10.6279 Y9.4628
G1 X10.6228 Y9.4691
G1 X10.617 Y9.4746
G1 X10.6105 Y9.4794
G1 X10.6035 Y9.4834
G1 X10.596 Y9.4865
G1 X10.5883 Y9.4886
G1 X10.5803 Y9.4898
G1 X10.5722 Y9.4899
G1 X10.5642 Y9.4891
G1 X10.5564 Y9.4873
G1 X10.5488 Y9.4845
G1 X10.5425 Y9.4813
G1 X10.5358 Y9.4768
G1 X10.5297 Y9.4716
G1 X10.5242 Y9.4656
G1 X10.5196 Y9.459
G1 X10.5158 Y9.4519
G1 X10.513 Y9.4444
G1 X10.511 Y9.4365
G1 X10.5101 Y9.4285
G1 X10.5102 Y9.4205
G1 X10.5112 Y9.4125
G1 X10.5133 Y9.4047
G1 X10.5163 Y9.3972
G1 X10.5201 Y9.3901
G1 X10.5249 Y9.3836
G1 X10.5304 Y9.3777
G1 X10.5366 Y9.3726
G1 X10.5425 Y9.3687
G1 X10.5497 Y9.3651
G1 X10.5573 Y9.3624
G1 X10.5652 Y9.3607
G1 X10.5732 Y9.36
G1 X10.5813 Y9.3603
G1 X10.5893 Y9.3616
G1 X10.597 Y9.3638
G1 X10.6044 Y9.367
G1 X10.6113 Y9.3711
G1 X10.6177 Y9.376
G1 X10.6235 Y9.3817
G1 X10.6285 Y9.388
G1 X10.6326 Y9.3949
G1 X10.6359 Y9.4023
G1 X10.6382 Y9.41
G1 X10.6396 Y9.418
G1 X10.64 Y9.425
G0 Z0.125
G0 X11.52
G0 Z0.03
G1 F5.0 Z-0.01
G1 F10.0 X11.5205 Y9.4176
G1 X11.522 Y9.4103
G1 X11.5244 Y9.4033
G1 X11.5278 Y9.3967
G1 X11.5321 Y9.3906
G1 X11.5371 Y9.3852
G1 X11.5428 Y9.3804
G1 X11.5475 Y9.3774
G1 X11.5542 Y9.3741
G1 X11.5612 Y9.3718
G1 X11.5685 Y9.3704
G1 X11.5759 Y9.37
G1 X11.5833 Y9.3706
G1 X11.5905 Y9.3722
G1 X11.5975 Y9.3748
G1 X11.604 Y9.3783
G1 X11.61 Y9.3826
G1 X11.6154 Y9.3877
G1 X11.6201 Y9.3935
G1 X11.6239 Y9.3998
G1 X11.6268 Y9.4067
G1 X11.6288 Y9.4138
G1 X11.6299 Y9.4211
G1 X11.63 Y9.425
G1 X11.6295 Y9.4324
G1 X11.628 Y9.4397
G1 X11.6256 Y9.4467
G1 X11.6222 Y9.4533
G1 X11.6179 Y9.4594
G1 X11.6129 Y9.4648
G1 X11.6072 Y9.4696
G1 X11.6009 Y9.4735
G1 X11.5942 Y9.4765
G1 X11.5871 Y9.4787
G1 X11.5797 Y9.4798
G1 X11.5723 Y9.4799
G1 X11.565 Y9.4791
G1 X11.5578 Y9.4772
G1 X11.5509 Y9.4744
G1 X11.5475 Y9.4726
G1 X11.5413 Y9.4685
G1 X11.5358 Y9.4636
G1 X11.531 Y9.458
G1 X11.5269 Y9.4517
G1 X11.5238 Y9.445
G1 X11.5215 Y9.4379
G1 X11.5203 Y9.4306
G1 X11.52 Y9.425
G0 Z0.125
G0 X11.572 Y8.4799
G0 Z0.03
G1 F5.0 Z-0.01
G1 F10.0 X11.5646 Y8.479
G1 X11.5574 Y8.4771
G1 X11.5506 Y8.4743
G1 X11.5475 Y8.4726
G1 X11.5413 Y8.4685
G1 X11.5358 Y8.4636
G1 X11.531 Y8.458
G1 X11.5269 Y8.4517
G1 X11.5238 Y8.445
G1 X11.5215 Y8.4379
G1 X11.5203 Y8.4306
G1 X11.52 Y8.4232
G1 X11.5208 Y8.4158
G1 X11.5225 Y8.4086
G1 X11.5252 Y8.4017
G1 X11.5288 Y8.3952
G1 X11.5332 Y8.3893
G1 X11.5384 Y8.384
G1 X11.5442 Y8.3794
G1 X11.5475 Y8.3774
G1 X11.5542 Y8.3741
G1 X11.5612 Y8.3718
G1 X11.5685 Y8.3704
G1 X11.5759 Y8.37
G1 X11.5833 Y8.3706
G1 X11.5905 Y8.3722
G1 X11.5975 Y8.3748
G1 X11.604 Y8.3783
G1 X11.61 Y8.3826
G1 X11.6154 Y8.3877
G1 X11.6201 Y8.3935
G1 X11.6239 Y8.3998
G1 X11.6268 Y8.4067
G1 X11.6288 Y8.4138
G1 X11.6299 Y8.4211
G1 X11.63 Y8.425
G1 X11.6295 Y8.4324
G1 X11.628 Y8.4397
G1 X11.6256 Y8.4467
G1 X11.6222 Y8.4533
G1 X11.6179 Y8.4594
G1 X11.6129 Y8.4648
G1 X11.6072 Y8.4696
G1 X11.6009 Y8.4735
G1 X11.5942 Y8.4765
G1 X11.5871 Y8.4787
G1 X11.5797 Y8.4798
G1 X11.5723 Y8.4799
G1 X11.572
G0 Z0.125
G0 X11.9126 Y8.4326
G0 Z0.03
G1 F5.0 Z-0.01
G1 F10.0 X11.9121 Y8.4252
G1 X11.9126 Y8.4178
G1 X11.914 Y8.4105
G1 X11.9165 Y8.4035
G1 X11.9198 Y8.3969
G1 X11.924 Y8.3908
G1 X11.929 Y8.3853
G1 X11.9347 Y8.3805
G1 X11.9396 Y8.3774
G1 X11.9463 Y8.3741
G1 X11.9533 Y8.3718
G1 X11.9606 Y8.3704
G1 X11.968 Y8.37
G1 X11.9754 Y8.3706
G1 X11.9826 Y8.3722
G1 X11.9896 Y8.3748
G1 X11.9961 Y8.3783
G1 X12.0021 Y8.3826
G1 X12.0075 Y8.3877
G1 X12.0122 Y8.3935
G1 X12.016 Y8.3998
G1 X12.0189 Y8.4067
G1 X12.0209 Y8.4138
G1 X12.022 Y8.4211
G1 X12.0221 Y8.425
G1 X12.0216 Y8.4324
G1 X12.0201 Y8.4397
G1 X12.0177 Y8.4467
G1 X12.0143 Y8.4533
G1 X12.01 Y8.4594
G1 X12.005 Y8.4648
G1 X11.9993 Y8.4696
G1 X11.993 Y8.4735
G1 X11.9863 Y8.4765
G1 X11.9792 Y8.4787
G1 X11.9718 Y8.4798
G1 X11.9644 Y8.4799
G1 X11.9571 Y8.4791
G1 X11.9499 Y8.4772
G1 X11.943 Y8.4744
G1 X11.9396 Y8.4726
G1 X11.9334 Y8.4685
G1 X11.9279 Y8.4636
G1 X11.9231 Y8.458
G1 X11.919 Y8.4517
G1 X11.9159 Y8.445
G1 X11.9136 Y8.4379
G1 X11.9126 Y8.4326
G0 Z0.125
G0 X12.51 Y8.4257
G0 Z0.03
G1 F5.0 Z-0.01
G1 F10.0 X12.5104 Y8.4177
G1 X12.5118 Y8.4098
G1 X12.5142 Y8.402
G1 X12.5175 Y8.3947
G1 X12.5217 Y8.3878
G1 X12.5267 Y8.3815
G1 X12.5325 Y8.3759
G1 X12.5389 Y8.371
G1 X12.5425 Y8.3687
G1 X12.5497 Y8.3651
