( Made using CamBam - http://www.cambam.co.uk )
( extruderplate5x 7/9/2015 7:58:31 AM )
( T0 : 0.125 )
G20 G90 G64 G40
G0 Z0.125
( T0 : 0.125 )
T0 M6
( MotorBossProfile )
G17
M3 S2500
G0 X1.4863 Y1.5148
G0 Z0.0625
G1 F3.0 Z-0.05
G3 F10.0 X0.9192 Y1.8422 I-0.3781 J0.0
G3 Y1.1873 I0.189 J-0.3274
G3 X1.4863 Y1.5148 I0.189 J0.3274
G1 F3.0 Z-0.1
G3 F10.0 X0.9192 Y1.8422 I-0.3781 J0.0
G3 Y1.1873 I0.189 J-0.3274
G3 X1.4863 Y1.5148 I0.189 J0.3274
G1 F3.0 Z-0.15
G3 F10.0 X0.9192 Y1.8422 I-0.3781 J0.0
G3 Y1.1873 I0.189 J-0.3274
G3 X1.4863 Y1.5148 I0.189 J0.3274
G0 Z0.125
G0 X3.1052
G0 Z0.0625
G1 F3.0 Z-0.05
G3 F10.0 X3.2942 Y1.1873 I0.3781 J0.0
G3 X3.8613 Y1.5148 I0.189 J0.3274
G3 X3.2942 Y1.8422 I-0.3781 J0.0
G3 X3.1052 Y1.5148 I0.189 J-0.3274
G1 F3.0 Z-0.1
G3 F10.0 X3.2942 Y1.1873 I0.3781 J0.0
G3 X3.8613 Y1.5148 I0.189 J0.3274
G3 X3.2942 Y1.8422 I-0.3781 J0.0
G3 X3.1052 Y1.5148 I0.189 J-0.3274
G1 F3.0 Z-0.15
G3 F10.0 X3.2942 Y1.1873 I0.3781 J0.0
G3 X3.8613 Y1.5148 I0.189 J0.3274
G3 X3.2942 Y1.8422 I-0.3781 J0.0
G3 X3.1052 Y1.5148 I0.189 J-0.3274
G0 Z0.125
G0 X5.4802
G0 Z0.0625
G1 F3.0 Z-0.05
G3 F10.0 X5.6692 Y1.1873 I0.3781 J0.0
G3 X6.2363 Y1.5148 I0.189 J0.3274
G3 X5.6692 Y1.8422 I-0.3781 J0.0
G3 X5.4802 Y1.5148 I0.189 J-0.3274
G1 F3.0 Z-0.1
G3 F10.0 X5.6692 Y1.1873 I0.3781 J0.0
G3 X6.2363 Y1.5148 I0.189 J0.3274
G3 X5.6692 Y1.8422 I-0.3781 J0.0
G3 X5.4802 Y1.5148 I0.189 J-0.3274
G1 F3.0 Z-0.15
G3 F10.0 X5.6692 Y1.1873 I0.3781 J0.0
G3 X6.2363 Y1.5148 I0.189 J0.3274
G3 X5.6692 Y1.8422 I-0.3781 J0.0
G3 X5.4802 Y1.5148 I0.189 J-0.3274
G0 Z0.125
G0 X7.8552
G0 Z0.0625
G1 F3.0 Z-0.05
G3 F10.0 X8.0442 Y1.1873 I0.3781 J0.0
G3 X8.6113 Y1.5148 I0.189 J0.3274
G3 X8.0442 Y1.8422 I-0.3781 J0.0
G3 X7.8552 Y1.5148 I0.189 J-0.3274
G1 F3.0 Z-0.1
G3 F10.0 X8.0442 Y1.1873 I0.3781 J0.0
G3 X8.6113 Y1.5148 I0.189 J0.3274
G3 X8.0442 Y1.8422 I-0.3781 J0.0
G3 X7.8552 Y1.5148 I0.189 J-0.3274
G1 F3.0 Z-0.15
G3 F10.0 X8.0442 Y1.1873 I0.3781 J0.0
G3 X8.6113 Y1.5148 I0.189 J0.3274
G3 X8.0442 Y1.8422 I-0.3781 J0.0
G3 X7.8552 Y1.5148 I0.189 J-0.3274
G0 Z0.125
G0 X10.2302
G0 Z0.0625
G1 F3.0 Z-0.05
G3 F10.0 X10.4192 Y1.1873 I0.3781 J0.0
G3 X10.9863 Y1.5148 I0.189 J0.3274
G3 X10.4192 Y1.8422 I-0.3781 J0.0
G3 X10.2302 Y1.5148 I0.189 J-0.3274
G1 F3.0 Z-0.1
G3 F10.0 X10.4192 Y1.1873 I0.3781 J0.0
G3 X10.9863 Y1.5148 I0.189 J0.3274
G3 X10.4192 Y1.8422 I-0.3781 J0.0
G3 X10.2302 Y1.5148 I0.189 J-0.3274
G1 F3.0 Z-0.15
G3 F10.0 X10.4192 Y1.1873 I0.3781 J0.0
G3 X10.9863 Y1.5148 I0.189 J0.3274
G3 X10.4192 Y1.8422 I-0.3781 J0.0
G3 X10.2302 Y1.5148 I0.189 J-0.3274
G0 Z0.125
M5
M30
