( Made using CamBam - http://www.cambam.co.uk )
( extruderplate5x 7/9/2015 8:57:54 AM )
( T0 : 0.0 )
G20 G90 G64 G40
G0 Z0.125
( T0 : 0.0 )
T0 M6
( CenterDrill )
G17
M3 S1700
G0 X0.498 Y2.125
G98
G00 Z0.125
G00 X0.498 Y2.125
G00 Z0.010
G01 Z-0.050 F5
G00 Z0.125
G00 Z0.125
G00 X0.11811 Y2.2
G00 Z0.010
G01 Z-0.050 F5
G00 Z0.125
G00 Z0.125
G00 X0.11811 Y1
G00 Z0.010
G01 Z-0.050 F5
G00 Z0.125
G00 Z0.125
G00 X0.498 Y0.904528
G00 Z0.010
G01 Z-0.050 F5
G00 Z0.125
G00 Z0.125
G00 X0.685992 Y0.6695
G00 Z0.010
G01 Z-0.050 F5
G00 Z0.125
G00 Z0.125
G00 X1.185992 Y0.6695
G00 Z0.010
G01 Z-0.050 F5
G00 Z0.125
G00 Z0.125
G00 X1.718472 Y0.904528
G00 Z0.010
G01 Z-0.050 F5
G00 Z0.125
G00 Z0.125
G00 X2.07483 Y1
G00 Z0.010
G01 Z-0.050 F5
G00 Z0.125
G00 Z0.125
G00 X2.49311 Y1
G00 Z0.010
G01 Z-0.050 F5
G00 Z0.125
G00 Z0.125
G00 X2.873 Y0.904528
G00 Z0.010
G01 Z-0.050 F5
G00 Z0.125
G00 Z0.125
G00 X3.060992 Y0.6695
G00 Z0.010
G01 Z-0.050 F5
G00 Z0.125
G00 Z0.125
G00 X3.560992 Y0.6695
G00 Z0.010
G01 Z-0.050 F5
G00 Z0.125
G00 Z0.125
G00 X4.093472 Y0.904528
G00 Z0.010
G01 Z-0.050 F5
G00 Z0.125
G00 Z0.125
G00 X4.44983 Y1
G00 Z0.010
G01 Z-0.050 F5
G00 Z0.125
G00 Z0.125
G00 X4.86811 Y1
G00 Z0.010
G01 Z-0.050 F5
G00 Z0.125
G00 Z0.125
G00 X5.248 Y0.904528
G00 Z0.010
G01 Z-0.050 F5
G00 Z0.125
G00 Z0.125
G00 X5.435992 Y0.6695
G00 Z0.010
G01 Z-0.050 F5
G00 Z0.125
G00 Z0.125
G00 X5.935992 Y0.6695
G00 Z0.010
G01 Z-0.050 F5
G00 Z0.125
G00 Z0.125
G00 X6.468472 Y0.904528
G00 Z0.010
G01 Z-0.050 F5
G00 Z0.125
G00 Z0.125
G00 X6.82483 Y1
G00 Z0.010
G01 Z-0.050 F5
G00 Z0.125
G00 Z0.125
G00 X7.24311 Y1
G00 Z0.010
G01 Z-0.050 F5
G00 Z0.125
G00 Z0.125
G00 X7.623 Y0.904528
G00 Z0.010
G01 Z-0.050 F5
G00 Z0.125
G00 Z0.125
G00 X7.810992 Y0.6695
G00 Z0.010
G01 Z-0.050 F5
G00 Z0.125
G00 Z0.125
G00 X8.310992 Y0.6695
G00 Z0.010
G01 Z-0.050 F5
G00 Z0.125
G00 Z0.125
G00 X8.843472 Y0.904528
G00 Z0.010
G01 Z-0.050 F5
G00 Z0.125
G00 Z0.125
G00 X9.19983 Y1
G00 Z0.010
G01 Z-0.050 F5
G00 Z0.125
G00 Z0.125
G00 X9.61811 Y1
G00 Z0.010
G01 Z-0.050 F5
G00 Z0.125
G00 Z0.125
G00 X9.998 Y0.904528
G00 Z0.010
G01 Z-0.050 F5
G00 Z0.125
G00 Z0.125
G00 X10.185992 Y0.6695
G00 Z0.010
G01 Z-0.050 F5
G00 Z0.125
G00 Z0.125
G00 X10.685992 Y0.6695
G00 Z0.010
G01 Z-0.050 F5
G00 Z0.125
G00 Z0.125
G00 X11.218472 Y0.904528
G00 Z0.010
G01 Z-0.050 F5
G00 Z0.125
G00 Z0.125
G00 X11.57483 Y1
G00 Z0.010
G01 Z-0.050 F5
G00 Z0.125
G00 Z0.125
G00 X11.218472 Y2.125
G00 Z0.010
G01 Z-0.050 F5
G00 Z0.125
G00 Z0.125
G00 X11.57483 Y2.2
G00 Z0.010
G01 Z-0.050 F5
G00 Z0.125
G00 Z0.125
G00 X9.998 Y2.125
G00 Z0.010
G01 Z-0.050 F5
G00 Z0.125
G00 Z0.125
G00 X9.61811 Y2.2
G00 Z0.010
G01 Z-0.050 F5
G00 Z0.125
G00 Z0.125
G00 X9.19983 Y2.2
G00 Z0.010
G01 Z-0.050 F5
G00 Z0.125
G00 Z0.125
G00 X8.843472 Y2.125
G00 Z0.010
G01 Z-0.050 F5
G00 Z0.125
G00 Z0.125
G00 X7.623 Y2.125
G00 Z0.010
G01 Z-0.050 F5
G00 Z0.125
G00 Z0.125
G00 X7.24311 Y2.2
G00 Z0.010
G01 Z-0.050 F5
G00 Z0.125
G00 Z0.125
G00 X6.82483 Y2.2
G00 Z0.010
G01 Z-0.050 F5
G00 Z0.125
G00 Z0.125
G00 X6.468472 Y2.125
G00 Z0.010
G01 Z-0.050 F5
G00 Z0.125
G00 Z0.125
G00 X5.248 Y2.125
G00 Z0.010
G01 Z-0.050 F5
G00 Z0.125
G00 Z0.125
G00 X4.86811 Y2.2
G00 Z0.010
G01 Z-0.050 F5
G00 Z0.125
G00 Z0.125
G00 X4.44983 Y2.2
G00 Z0.010
G01 Z-0.050 F5
G00 Z0.125
G00 Z0.125
G00 X4.093472 Y2.125
G00 Z0.010
G01 Z-0.050 F5
G00 Z0.125
G00 Z0.125
G00 X2.873 Y2.125
G00 Z0.010
G01 Z-0.050 F5
G00 Z0.125
G00 Z0.125
G00 X2.49311 Y2.2
G00 Z0.010
G01 Z-0.050 F5
G00 Z0.125
G00 Z0.125
G00 X2.07483 Y2.2
G00 Z0.010
G01 Z-0.050 F5
G00 Z0.125
G00 Z0.125
G00 X1.718472 Y2.125
G00 Z0.010
G01 Z-0.050 F5
G00 Z0.125
G80
G0 Z0.125
M5
M30
