( Made using CamBam - http://www.cambam.co.uk )
( extruderplate5x 7/9/2015 7:58:38 AM )
( T0 : 0.125 )
G20 G90 G64 G40
G0 Z0.125
( T0 : 0.125 )
T0 M6
( OutlineProfile )
G17
M3 S2500
G0 X1.4425 Y0.0
G0 Z0.0625
G1 F3.0 Z-0.05
G1 F10.0 Y0.0125
G1 X1.186
G2 X1.1235 Y0.075 I0.0 J0.0625
G1 Y0.25
G1 X0.7485
G1 Y0.075
G2 X0.686 Y0.0125 I-0.0625 J0.0
G1 X0.3175
G1 Y0.0
G2 X0.255 Y-0.0625 I-0.0625 J0.0
G1 X0.0
G2 X-0.0625 Y0.0 I0.0 J0.0625
G1 Y2.7
G2 X0.0 Y2.7625 I0.0625 J0.0
G1 X2.1929
G2 X2.2554 Y2.7 I0.0 J-0.0625
G1 Y0.0
G2 X2.1929 Y-0.0625 I-0.0625 J0.0
G1 X1.505
G2 X1.4425 Y0.0 I0.0 J0.0625
G0 Z0.125
G0 X2.3125
G0 Z0.0625
G1 F3.0 Z-0.05
G1 F10.0 Y2.7
G2 X2.375 Y2.7625 I0.0625 J0.0
G1 X4.5679
G2 X4.6304 Y2.7 I0.0 J-0.0625
G1 Y0.0
G2 X4.5679 Y-0.0625 I-0.0625 J0.0
G1 X3.88
G2 X3.8175 Y0.0 I0.0 J0.0625
G1 Y0.0125
G1 X3.561
G2 X3.4985 Y0.075 I0.0 J0.0625
G1 Y0.25
G1 X3.1235
G1 Y0.075
G2 X3.061 Y0.0125 I-0.0625 J0.0
G1 X2.6925
G1 Y0.0
G2 X2.63 Y-0.0625 I-0.0625 J0.0
G1 X2.375
G2 X2.3125 Y0.0 I0.0 J0.0625
G1 F3.0 X2.2554
G1 Z-0.1
G2 F10.0 X2.1929 Y-0.0625 I-0.0625 J0.0
G1 X1.505
G2 X1.4425 Y0.0 I0.0 J0.0625
G1 Y0.0125
G1 X1.186
G2 X1.1235 Y0.075 I0.0 J0.0625
G1 Y0.25
G1 X0.7485
G1 Y0.075
G2 X0.686 Y0.0125 I-0.0625 J0.0
G1 X0.3175
G1 Y0.0
G2 X0.255 Y-0.0625 I-0.0625 J0.0
G1 X0.0
G2 X-0.0625 Y0.0 I0.0 J0.0625
G1 Y2.7
G2 X0.0 Y2.7625 I0.0625 J0.0
G1 X2.1929
G2 X2.2554 Y2.7 I0.0 J-0.0625
G1 Y0.0
G0 Z0.125
G0 X4.6875
G0 Z0.0625
G1 F3.0 Z-0.05
G1 F10.0 Y2.7
G2 X4.75 Y2.7625 I0.0625 J0.0
G1 X6.9429
G2 X7.0054 Y2.7 I0.0 J-0.0625
G1 Y0.0
G2 X6.9429 Y-0.0625 I-0.0625 J0.0
G1 X6.255
G2 X6.1925 Y0.0 I0.0 J0.0625
G1 Y0.0125
G1 X5.936
G2 X5.8735 Y0.075 I0.0 J0.0625
G1 Y0.25
G1 X5.4985
G1 Y0.075
G2 X5.436 Y0.0125 I-0.0625 J0.0
G1 X5.0675
G1 Y0.0
G2 X5.005 Y-0.0625 I-0.0625 J0.0
G1 X4.75
G2 X4.6875 Y0.0 I0.0 J0.0625
G1 F3.0 X4.6304
G1 Z-0.1
G2 F10.0 X4.5679 Y-0.0625 I-0.0625 J0.0
G1 X3.88
G2 X3.8175 Y0.0 I0.0 J0.0625
G1 Y0.0125
G1 X3.561
G2 X3.4985 Y0.075 I0.0 J0.0625
G1 Y0.25
G1 X3.1235
G1 Y0.075
G2 X3.061 Y0.0125 I-0.0625 J0.0
G1 X2.6925
G1 Y0.0
G2 X2.63 Y-0.0625 I-0.0625 J0.0
G1 X2.375
G2 X2.3125 Y0.0 I0.0 J0.0625
G1 Y2.7
G2 X2.375 Y2.7625 I0.0625 J0.0
G1 X4.5679
G2 X4.6304 Y2.7 I0.0 J-0.0625
G1 Y0.0
G0 Z0.125
G0 X2.2554
G0 Z-0.0375
G1 F3.0 Z-0.15
G2 F10.0 X2.1929 Y-0.0625 I-0.0625 J0.0
G1 X1.505
G2 X1.4425 Y0.0 I0.0 J0.0625
G1 Y0.0125
G1 X1.186
G2 X1.1235 Y0.075 I0.0 J0.0625
G1 Y0.25
G1 X0.7485
G1 Y0.075
G2 X0.686 Y0.0125 I-0.0625 J0.0
G1 X0.3175
G1 Y0.0
G2 X0.255 Y-0.0625 I-0.0625 J0.0
G1 X0.0
G2 X-0.0625 Y0.0 I0.0 J0.0625
G1 Y2.7
G2 X0.0 Y2.7625 I0.0625 J0.0
G1 X2.1929
G2 X2.2554 Y2.7 I0.0 J-0.0625
G1 Y0.0
G0 Z0.125
G0 X7.0625
G0 Z0.0625
G1 F3.0 Z-0.05
G1 F10.0 Y2.7
G2 X7.125 Y2.7625 I0.0625 J0.0
G1 X9.3179
G2 X9.3804 Y2.7 I0.0 J-0.0625
G1 Y0.0
G2 X9.3179 Y-0.0625 I-0.0625 J0.0
G1 X8.63
G2 X8.5675 Y0.0 I0.0 J0.0625
G1 Y0.0125
G1 X8.311
G2 X8.2485 Y0.075 I0.0 J0.0625
G1 Y0.25
G1 X7.8735
G1 Y0.075
G2 X7.811 Y0.0125 I-0.0625 J0.0
G1 X7.4425
G1 Y0.0
G2 X7.38 Y-0.0625 I-0.0625 J0.0
G1 X7.125
G2 X7.0625 Y0.0 I0.0 J0.0625
G1 F3.0 X7.0054
G1 Z-0.1
G2 F10.0 X6.9429 Y-0.0625 I-0.0625 J0.0
G1 X6.255
G2 X6.1925 Y0.0 I0.0 J0.0625
G1 Y0.0125
G1 X5.936
G2 X5.8735 Y0.075 I0.0 J0.0625
G1 Y0.25
G1 X5.4985
G1 Y0.075
G2 X5.436 Y0.0125 I-0.0625 J0.0
G1 X5.0675
G1 Y0.0
G2 X5.005 Y-0.0625 I-0.0625 J0.0
G1 X4.75
G2 X4.6875 Y0.0 I0.0 J0.0625
G1 Y2.7
G2 X4.75 Y2.7625 I0.0625 J0.0
G1 X6.9429
G2 X7.0054 Y2.7 I0.0 J-0.0625
G1 Y0.0
G0 Z0.125
G0 X4.6304
G0 Z-0.0375
G1 F3.0 Z-0.15
G2 F10.0 X4.5679 Y-0.0625 I-0.0625 J0.0
G1 X3.88
G2 X3.8175 Y0.0 I0.0 J0.0625
G1 Y0.0125
G1 X3.561
G2 X3.4985 Y0.075 I0.0 J0.0625
G1 Y0.25
G1 X3.1235
G1 Y0.075
G2 X3.061 Y0.0125 I-0.0625 J0.0
G1 X2.6925
G1 Y0.0
G2 X2.63 Y-0.0625 I-0.0625 J0.0
G1 X2.375
G2 X2.3125 Y0.0 I0.0 J0.0625
G1 Y2.7
G2 X2.375 Y2.7625 I0.0625 J0.0
G1 X4.5679
G2 X4.6304 Y2.7 I0.0 J-0.0625
G1 Y0.0
G0 Z0.125
G0 X9.4375
G0 Z0.0625
G1 F3.0 Z-0.05
G1 F10.0 Y2.7
G2 X9.5 Y2.7625 I0.0625 J0.0
G1 X11.6929
G2 X11.7554 Y2.7 I0.0 J-0.0625
G1 Y0.0
G2 X11.6929 Y-0.0625 I-0.0625 J0.0
G1 X11.005
G2 X10.9425 Y0.0 I0.0 J0.0625
G1 Y0.0125
G1 X10.686
G2 X10.6235 Y0.075 I0.0 J0.0625
G1 Y0.25
G1 X10.2485
G1 Y0.075
G2 X10.186 Y0.0125 I-0.0625 J0.0
G1 X9.8175
G1 Y0.0
G2 X9.755 Y-0.0625 I-0.0625 J0.0
G1 X9.5
G2 X9.4375 Y0.0 I0.0 J0.0625
G1 F3.0 Z-0.1
G1 F10.0 Y2.7
G2 X9.5 Y2.7625 I0.0625 J0.0
G1 X11.6929
G2 X11.7554 Y2.7 I0.0 J-0.0625
G1 Y0.0
G2 X11.6929 Y-0.0625 I-0.0625 J0.0
G1 X11.005
G2 X10.9425 Y0.0 I0.0 J0.0625
G1 Y0.0125
G1 X10.686
G2 X10.6235 Y0.075 I0.0 J0.0625
G1 Y0.25
G1 X10.2485
G1 Y0.075
G2 X10.186 Y0.0125 I-0.0625 J0.0
G1 X9.8175
G1 Y0.0
G2 X9.755 Y-0.0625 I-0.0625 J0.0
G1 X9.5
G2 X9.4375 Y0.0 I0.0 J0.0625
G1 F3.0 X9.3804
G2 F10.0 X9.3179 Y-0.0625 I-0.0625 J0.0
G1 X8.63
G2 X8.5675 Y0.0 I0.0 J0.0625
G1 Y0.0125
G1 X8.311
G2 X8.2485 Y0.075 I0.0 J0.0625
G1 Y0.25
G1 X7.8735
G1 Y0.075
G2 X7.811 Y0.0125 I-0.0625 J0.0
G1 X7.4425
G1 Y0.0
G2 X7.38 Y-0.0625 I-0.0625 J0.0
G1 X7.125
G2 X7.0625 Y0.0 I0.0 J0.0625
G1 Y2.7
G2 X7.125 Y2.7625 I0.0625 J0.0
G1 X9.3179
G2 X9.3804 Y2.7 I0.0 J-0.0625
G1 Y0.0
G1 F3.0 Z-0.15
G2 F10.0 X9.3179 Y-0.0625 I-0.0625 J0.0
G1 X8.63
G2 X8.5675 Y0.0 I0.0 J0.0625
G1 Y0.0125
G1 X8.311
G2 X8.2485 Y0.075 I0.0 J0.0625
G1 Y0.25
G1 X7.8735
G1 Y0.075
G2 X7.811 Y0.0125 I-0.0625 J0.0
G1 X7.4425
G1 Y0.0
G2 X7.38 Y-0.0625 I-0.0625 J0.0
G1 X7.125
G2 X7.0625 Y0.0 I0.0 J0.0625
G1 Y2.7
G2 X7.125 Y2.7625 I0.0625 J0.0
G1 X9.3179
G2 X9.3804 Y2.7 I0.0 J-0.0625
G1 Y0.0
G1 F3.0 X9.4375
G1 F10.0 Y2.7
G2 X9.5 Y2.7625 I0.0625 J0.0
G1 X11.6929
G2 X11.7554 Y2.7 I0.0 J-0.0625
G1 Y0.0
G2 X11.6929 Y-0.0625 I-0.0625 J0.0
G1 X11.005
G2 X10.9425 Y0.0 I0.0 J0.0625
G1 Y0.0125
G1 X10.686
G2 X10.6235 Y0.075 I0.0 J0.0625
G1 Y0.25
G1 X10.2485
G1 Y0.075
G2 X10.186 Y0.0125 I-0.0625 J0.0
G1 X9.8175
G1 Y0.0
G2 X9.755 Y-0.0625 I-0.0625 J0.0
G1 X9.5
G2 X9.4375 Y0.0 I0.0 J0.0625
G0 Z0.125
G0 X7.0054
G0 Z-0.0375
G1 F3.0 Z-0.15
G2 F10.0 X6.9429 Y-0.0625 I-0.0625 J0.0
G1 X6.255
G2 X6.1925 Y0.0 I0.0 J0.0625
G1 Y0.0125
G1 X5.936
G2 X5.8735 Y0.075 I0.0 J0.0625
G1 Y0.25
G1 X5.4985
G1 Y0.075
G2 X5.436 Y0.0125 I-0.0625 J0.0
G1 X5.0675
G1 Y0.0
G2 X5.005 Y-0.0625 I-0.0625 J0.0
G1 X4.75
G2 X4.6875 Y0.0 I0.0 J0.0625
G1 Y2.7
G2 X4.75 Y2.7625 I0.0625 J0.0
G1 X6.9429
G2 X7.0054 Y2.7 I0.0 J-0.0625
G1 Y0.0
G0 Z0.125
M5
M30
