( Made using CamBam - http://www.cambam.co.uk )
( full_layout3_008 6/15/2015 9:19:23 AM )
( T0 : 0.008 )
G20 G90 G64 G40
G0 Z0.125
( T0 : 0.008 )
T0 M6
( InsideProfile1 )
G17
M3 S1000
G0 X11.3705 Y12.4547
G0 Z0.03
G1 F5.0 Z-0.01
G1 F10.0 X11.37 Y12.4756
G1 X11.3685 Y12.4963
G1 X11.366 Y12.517
G1 X11.3625 Y12.5376
G1 X11.358 Y12.5579
G1 X11.3526 Y12.578
G1 X11.3462 Y12.5979
G1 X11.3388 Y12.6174
G1 X11.3306 Y12.6365
G1 X11.3214 Y12.6552
G1 X11.3113 Y12.6734
G1 X11.3004 Y12.6912
G1 X11.2886 Y12.7083
G1 X11.2761 Y12.725
G1 X11.2627 Y12.7409
G1 X11.2486 Y12.7563
G1 X11.2338 Y12.7709
G1 X11.2183 Y12.7848
G1 X11.2021 Y12.7979
G1 X11.1853 Y12.8103
G1 X11.168 Y12.8218
G1 X11.1501 Y12.8325
G1 X11.1317 Y12.8423
G1 X11.1129 Y12.8513
G1 X11.0937 Y12.8593
G1 X11.0741 Y12.8663
G1 X11.0542 Y12.8725
G1 X11.034 Y12.8776
G1 X11.0136 Y12.8818
G1 X10.993 Y12.885
G1 X10.9723 Y12.8873
G1 X10.9515 Y12.8885
G1 X10.9306 Y12.8887
G1 X10.9098 Y12.8879
G1 X10.8891 Y12.8861
G1 X10.8684 Y12.8834
G1 X10.8479 Y12.8796
G1 X10.8276 Y12.8749
G1 X10.8076 Y12.8692
G1 X10.7879 Y12.8625
G1 X10.7685 Y12.8549
G1 X10.7495 Y12.8464
G1 X10.7309 Y12.837
G1 X10.7195 Y12.8306
G1 X10.7017 Y12.8197
G1 X10.6844 Y12.8081
G1 X10.6678 Y12.7956
G1 X10.6517 Y12.7823
G1 X10.6363 Y12.7682
G1 X10.6216 Y12.7535
G1 X10.6077 Y12.738
G1 X10.5944 Y12.7219
G1 X10.582 Y12.7052
G1 X10.5704 Y12.6879
G1 X10.5596 Y12.6701
G1 X10.5497 Y12.6517
G1 X10.5407 Y12.6329
G1 X10.5326 Y12.6137
G1 X10.5255 Y12.5942
G1 X10.5193 Y12.5743
G1 X10.514 Y12.5541
G1 X10.5097 Y12.5338
G1 X10.5064 Y12.5132
G1 X10.5041 Y12.4925
G1 X10.5028 Y12.4717
G1 X10.5025 Y12.4509
G1 X10.5032 Y12.43
G1 X10.5049 Y12.4093
G1 X10.5075 Y12.3886
G1 X10.5112 Y12.3681
G1 X10.5159 Y12.3478
G1 X10.5215 Y12.3277
G1 X10.528 Y12.308
G1 X10.5356 Y12.2885
G1 X10.544 Y12.2695
G1 X10.5533 Y12.2509
G1 X10.5636 Y12.2327
G1 X10.5746 Y12.2151
G1 X10.5866 Y12.198
G1 X10.5993 Y12.1815
G1 X10.6128 Y12.1656
G1 X10.627 Y12.1504
G1 X10.642 Y12.1359
G1 X10.6576 Y12.1222
G1 X10.6739 Y12.1092
G1 X10.6908 Y12.097
G1 X10.7082 Y12.0856
G1 X10.7195 Y12.0789
G1 X10.7378 Y12.0689
G1 X10.7565 Y12.0598
G1 X10.7757 Y12.0516
G1 X10.7952 Y12.0444
G1 X10.815 Y12.0381
G1 X10.8352 Y12.0327
G1 X10.8555 Y12.0284
G1 X10.8761 Y12.025
G1 X10.8968 Y12.0226
G1 X10.9176 Y12.0212
G1 X10.9384 Y12.0208
G1 X10.9592 Y12.0213
G1 X10.98 Y12.0229
G1 X11.0007 Y12.0255
G1 X11.0212 Y12.0291
G1 X11.0415 Y12.0337
G1 X11.0616 Y12.0392
G1 X11.0814 Y12.0457
G1 X11.1009 Y12.0531
G1 X11.12 Y12.0614
G1 X11.1386 Y12.0707
G1 X11.1568 Y12.0809
G1 X11.1745 Y12.0919
G1 X11.1916 Y12.1037
G1 X11.2082 Y12.1163
G1 X11.2241 Y12.1298
G1 X11.2394 Y12.144
G1 X11.2539 Y12.1589
G1 X11.2678 Y12.1744
G1 X11.2809 Y12.1906
G1 X11.2931 Y12.2075
G1 X11.3046 Y12.2249
G1 X11.3152 Y12.2428
G1 X11.3249 Y12.2612
G1 X11.3338 Y12.2801
G1 X11.3417 Y12.2994
G1 X11.3487 Y12.319
G1 X11.3547 Y12.3389
G1 X11.3598 Y12.3591
G1 X11.3639 Y12.3796
G1 X11.367 Y12.4002
G1 X11.3691 Y12.4209
G1 X11.3703 Y12.4417
G1 X11.3705 Y12.4547
G0 Z0.125
G0 X11.5305 Y13.0088
G0 Z0.03
G1 F5.0 Z-0.01
G1 F10.0 X11.5379 Y13.0071
G1 X11.5456 Y13.0065
G1 X11.5532 Y13.0068
G1 X11.5607 Y13.0082
G1 X11.568 Y13.0105
G1 X11.5749 Y13.0137
G1 X11.5814 Y13.0179
G1 X11.5872 Y13.0228
G1 X11.5924 Y13.0284
G1 X11.5968 Y13.0347
G1 X11.6003 Y13.0415
G1 X11.6029 Y13.0487
G1 X11.6045 Y13.0562
G1 X11.6052 Y13.0638
G1 Y13.065
G1 X11.6047 Y13.0726
G1 X11.6032 Y13.0801
G1 X11.6007 Y13.0874
G1 X11.5974 Y13.0942
G1 X11.5931 Y13.1006
G1 X11.5881 Y13.1063
G1 X11.5823 Y13.1114
G1 X11.576 Y13.1156
G1 X11.5691 Y13.119
G1 X11.5619 Y13.1215
G1 X11.5544 Y13.123
G1 X11.5467 Y13.1235
G1 X11.5391 Y13.123
G1 X11.5316 Y13.1215
G1 X11.5244 Y13.119
G1 X11.5175 Y13.1157
G1 X11.5174 Y13.1156
G1 X11.5111 Y13.1114
G1 X11.5053 Y13.1063
G1 X11.5003 Y13.1006
G1 X11.496 Y13.0942
G1 X11.4927 Y13.0874
G1 X11.4902 Y13.0801
G1 X11.4887 Y13.0726
G1 X11.4882 Y13.065
G1 X11.4887 Y13.0574
G1 X11.4902 Y13.0499
G1 X11.4926 Y13.0426
G1 X11.496 Y13.0358
G1 X11.5003 Y13.0294
G1 X11.5053 Y13.0236
G1 X11.511 Y13.0186
G1 X11.5174 Y13.0143
G1 X11.5243 Y13.0109
G1 X11.5305 Y13.0088
G0 Z0.125
G0 X11.5459 Y11.903
G0 Z0.03
G1 F5.0 Z-0.01
G1 F10.0 X11.5383 Y11.9024
G1 X11.5308 Y11.9008
G1 X11.5236 Y11.8982
G1 X11.5174 Y11.8952
G1 X11.5111 Y11.8909
G1 X11.5053 Y11.8859
G1 X11.5003 Y11.8801
G1 X11.496 Y11.8738
G1 X11.4927 Y11.8669
G1 X11.4902 Y11.8597
G1 X11.4887 Y11.8522
G1 X11.4882 Y11.8445
G1 X11.4887 Y11.8369
G1 X11.4902 Y11.8294
G1 X11.4926 Y11.8222
G1 X11.496 Y11.8153
G1 X11.5003 Y11.8089
G1 X11.5053 Y11.8032
G1 X11.511 Y11.7981
G1 X11.5174 Y11.7939
G1 Y11.7938
G1 X11.5243 Y11.7905
G1 X11.5315 Y11.788
G1 X11.5391 Y11.7865
G1 X11.5467 Y11.786
G1 X11.5543 Y11.7865
G1 X11.5618 Y11.788
G1 X11.5691 Y11.7904
G1 X11.5759 Y11.7938
G1 X11.5823 Y11.7981
G1 X11.588 Y11.8031
G1 X11.5931 Y11.8089
G1 X11.5973 Y11.8152
G1 X11.6007 Y11.8221
G1 X11.6032 Y11.8293
G1 X11.6047 Y11.8368
G1 X11.6052 Y11.8444
G1 Y11.8445
G1 X11.6047 Y11.8521
G1 X11.6032 Y11.8596
G1 X11.6007 Y11.8669
G1 X11.5974 Y11.8737
G1 X11.5931 Y11.8801
G1 X11.5881 Y11.8859
G1 X11.5823 Y11.8909
G1 X11.576 Y11.8952
G1 X11.5691 Y11.8985
G1 X11.5619 Y11.901
G1 X11.5544 Y11.9025
G1 X11.5467 Y11.903
G1 X11.5459
G0 Z0.125
G0 X10.9897 Y11.8496
G0 Z0.03
G1 F5.0 Z-0.01
G1 F10.0 X10.9885 Y11.8568
G1 X10.9864 Y11.8638
G1 X10.9833 Y11.8704
G1 X10.9793 Y11.8766
G1 X10.9745 Y11.8821
G1 X10.969 Y11.887
G1 X10.9629 Y11.891
G1 X10.9563 Y11.8942
G1 X10.9494 Y11.8964
G1 X10.9422 Y11.8977
G1 X10.9349 Y11.898
G1 X10.9276 Y11.8973
G1 X10.9205 Y11.8956
G1 X10.9137 Y11.8929
G1 X10.9097 Y11.8908
G1 X10.9036 Y11.8868
G1 X10.8982 Y11.8819
G1 X10.8934 Y11.8763
G1 X10.8895 Y11.8702
G1 X10.8864 Y11.8635
G1 X10.8843 Y11.8565
G1 X10.8832 Y11.8493
G1 X10.883 Y11.842
G1 X10.8839 Y11.8347
G1 X10.8857 Y11.8276
G1 X10.8885 Y11.8209
G1 X10.8921 Y11.8145
G1 X10.8966 Y11.8088
G1 X10.9019 Y11.8037
G1 X10.9078 Y11.7993
G1 X10.9097 Y11.7982
G1 X10.9163 Y11.795
G1 X10.9232 Y11.7927
G1 X10.9304 Y11.7913
G1 X10.9377 Y11.791
G1 X10.945 Y11.7917
G1 X10.9521 Y11.7934
G1 X10.959 Y11.796
G1 X10.9654 Y11.7995
G1 X10.9712 Y11.8039
G1 X10.9765 Y11.809
G1 X10.9809 Y11.8148
G1 X10.9846 Y11.8211
G1 X10.9873 Y11.8279
G1 X10.9891 Y11.835
G1 X10.9899 Y11.8423
G1 X10.99 Y11.8445
G1 X10.9897 Y11.8496
G0 Z0.125
G0 X10.3847 Y11.845
G0 Z0.03
G1 F5.0 Z-0.01
G1 F10.0 X10.3842 Y11.8526
G1 X10.3826 Y11.8601
G1 X10.3801 Y11.8673
G1 X10.3767 Y11.8741
G1 X10.3724 Y11.8805
G1 X10.3673 Y11.8862
G1 X10.3615 Y11.8912
G1 X10.3551 Y11.8954
G1 X10.3482 Y11.8987
G1 X10.341 Y11.9011
G1 X10.3335 Y11.9026
G1 X10.3258 Y11.903
G1 X10.3182 Y11.9025
G1 X10.3107 Y11.9009
G1 X10.3035 Y11.8984
G1 X10.297 Y11.8952
G1 X10.2906 Y11.8909
G1 X10.2849 Y11.8859
G1 X10.2798 Y11.8801
G1 X10.2756 Y11.8738
G1 X10.2722 Y11.8669
G1 X10.2697 Y11.8597
G1 X10.2682 Y11.8522
G1 X10.2677 Y11.8445
G1 X10.2682 Y11.8369
G1 X10.2697 Y11.8294
G1 X10.2722 Y11.8222
G1 X10.2755 Y11.8153
G1 X10.2798 Y11.8089
G1 X10.2848 Y11.8032
G1 X10.2906 Y11.7981
G1 X10.2969 Y11.7939
G1 X10.297 Y11.7938
G1 X10.3038 Y11.7905
G1 X10.3111 Y11.788
G1 X10.3186 Y11.7865
G1 X10.3262 Y11.786
G1 X10.3338 Y11.7865
G1 X10.3413 Y11.788
G1 X10.3486 Y11.7904
G1 X10.3555 Y11.7938
G1 X10.3618 Y11.7981
G1 X10.3676 Y11.8031
G1 X10.3726 Y11.8089
G1 X10.3769 Y11.8152
G1 X10.3803 Y11.8221
G1 X10.3827 Y11.8293
G1 X10.3842 Y11.8368
G1 X10.3847 Y11.8444
G1 Y11.8445
G1 Y11.845
G0 Z0.125
G0 X10.329 Y13.0065
G0 Z0.03
G1 F5.0 Z-0.01
G1 F10.0 X10.3366 Y13.0074
G1 X10.344 Y13.0093
G1 X10.3512 Y13.0121
G1 X10.3579 Y13.0158
G1 X10.364 Y13.0203
G1 X10.3695 Y13.0256
G1 X10.3743 Y13.0316
G1 X10.3782 Y13.0382
G1 X10.3813 Y13.0452
G1 X10.3834 Y13.0525
G1 X10.3845 Y13.0601
G1 X10.3847 Y13.065
G1 X10.3842 Y13.0726
G1 X10.3827 Y13.0801
G1 X10.3803 Y13.0874
G1 X10.3769 Y13.0942
G1 X10.3726 Y13.1006
G1 X10.3676 Y13.1063
G1 X10.3619 Y13.1114
G1 X10.3555 Y13.1156
G1 X10.3486 Y13.119
G1 X10.3414 Y13.1215
G1 X10.3339 Y13.123
G1 X10.3263 Y13.1235
G1 X10.3186 Y13.123
G1 X10.3111 Y13.1215
G1 X10.3039 Y13.119
G1 X10.297 Y13.1157
G1 Y13.1156
G1 X10.2906 Y13.1114
G1 X10.2849 Y13.1063
G1 X10.2798 Y13.1006
G1 X10.2756 Y13.0942
G1 X10.2722 Y13.0874
G1 X10.2697 Y13.0801
G1 X10.2682 Y13.0726
G1 X10.2677 Y13.065
G1 X10.2682 Y13.0574
G1 X10.2697 Y13.0499
G1 X10.2722 Y13.0426
G1 X10.2755 Y13.0358
G1 X10.2798 Y13.0294
G1 X10.2848 Y13.0236
G1 X10.2906 Y13.0186
G1 X10.2969 Y13.0143
G1 X10.297
G1 X10.3038 Y13.0109
G1 X10.3111 Y13.0085
G1 X10.3186 Y13.007
G1 X10.3262 Y13.0065
G1 X10.329
G0 Z0.125
G0 X9.5092 Y13.7782
G0 Z0.03
G1 F5.0 Z-0.01
G1 F10.0 Y14.0702
G1 X9.2672
G1 Y13.7782
G1 X9.5092
G0 Z0.125
G0 X8.8307 Y14.0006
G0 Z0.03
G1 F5.0 Z-0.01
G1 F10.0 X8.8328 Y14.0088
G1 X8.834 Y14.0171
G1 X8.8342 Y14.0227
G1 X8.8337 Y14.0312
G1 X8.8322 Y14.0394
G1 X8.8298 Y14.0475
G1 X8.8264 Y14.0552
G1 X8.8221 Y14.0625
G1 X8.817 Y14.0692
G1 X8.8111 Y14.0752
G1 X8.8045 Y14.0805
G1 X8.7974 Y14.085
G1 X8.7898 Y14.0886
G1 X8.7818 Y14.0913
G1 X8.7735 Y14.093
G1 X8.7652 Y14.0937
G1 X8.7567 Y14.0934
G1 X8.7484 Y14.0922
G1 X8.7403 Y14.0899
G1 X8.7325 Y14.0867
G1 X8.7277 Y14.0842
G1 X8.7207 Y14.0796
G1 X8.7143 Y14.0742
G1 X8.7085 Y14.068
G1 X8.7035 Y14.0612
G1 X8.6994 Y14.0538
G1 X8.6962 Y14.0461
G1 X8.6939 Y14.038
G1 X8.6926 Y14.0296
G1 X8.6922 Y14.0212
G1 X8.6929 Y14.0128
G1 X8.6946 Y14.0046
G1 X8.6972 Y13.9966
G1 X8.7008 Y13.9889
G1 X8.7053 Y13.9818
G1 X8.7105 Y13.9752
G1 X8.7165 Y13.9693
G1 X8.7232 Y13.9641
G1 X8.7277 Y13.9613
G1 X8.7353 Y13.9575
G1 X8.7432 Y13.9546
G1 X8.7514 Y13.9527
G1 X8.7598 Y13.9518
G1 X8.7682 Y13.9519
G1 X8.7766 Y13.953
G1 X8.7847 Y13.9551
G1 X8.7926 Y13.9581
G1 X8.8 Y13.962
G1 X8.807 Y13.9668
G1 X8.8133 Y13.9724
G1 X8.8189 Y13.9787
G1 X8.8237 Y13.9856
G1 X8.8277 Y13.993
G1 X8.8307 Y14.0006
G0 Z0.125
G0 X6.098 Y14.0222
G0 Z0.03
G1 F5.0 Z-0.01
G1 F10.0 Y14.0227
G1 X6.0975 Y14.0312
G1 X6.096 Y14.0394
G1 X6.0936 Y14.0475
G1 X6.0902 Y14.0552
G1 X6.0859 Y14.0625
G1 X6.0807 Y14.0692
G1 X6.0749 Y14.0752
G1 X6.0683 Y14.0805
G1 X6.0612 Y14.085
G1 X6.0536 Y14.0886
G1 X6.0456 Y14.0913
G1 X6.0373 Y14.093
G1 X6.0289 Y14.0937
G1 X6.0205 Y14.0934
G1 X6.0122 Y14.0922
G1 X6.0041 Y14.0899
G1 X5.9963 Y14.0867
G1 X5.9915 Y14.0842
G1 X5.9845 Y14.0796
G1 X5.978 Y14.0742
G1 X5.9723 Y14.068
G1 X5.9673 Y14.0612
G1 X5.9632 Y14.0538
G1 X5.96 Y14.0461
G1 X5.9577 Y14.038
G1 X5.9563 Y14.0296
G1 X5.956 Y14.0212
G1 X5.9567 Y14.0128
G1 X5.9584 Y14.0046
G1 X5.961 Y13.9966
G1 X5.9646 Y13.9889
G1 X5.969 Y13.9818
G1 X5.9743 Y13.9752
G1 X5.9803 Y13.9693
G1 X5.987 Y13.9641
G1 X5.9915 Y13.9613
G1 X5.999 Y13.9575
G1 X6.007 Y13.9546
G1 X6.0152 Y13.9527
G1 X6.0236 Y13.9518
G1 X6.032 Y13.9519
G1 X6.0403 Y13.953
G1 X6.0485 Y13.9551
G1 X6.0564 Y13.9581
G1 X6.0638 Y13.962
G1 X6.0708 Y13.9668
G1 X6.0771 Y13.9724
G1 X6.0827 Y13.9787
G1 X6.0875 Y13.9856
G1 X6.0915 Y13.993
G1 X6.0946 Y14.0009
G1 X6.0967 Y14.009
G1 X6.0978 Y14.0174
G1 X6.098 Y14.0222
G0 Z0.125
G0 X5.648
G0 Z0.03
G1 F5.0 Z-0.01
G1 F10.0 Y14.0702
G1 X5.406
G1 Y13.7782
G1 X5.648
G1 Y14.0222
G0 Z0.125
G0 X5.023
G0 Z0.03
G1 F5.0 Z-0.01
G1 F10.0 Y14.0702
G1 X4.731
G1 Y13.8282
G1 X5.023
G1 Y14.0222
G0 Z0.125
G0 X4.4819 Y13.9511
G0 Z0.03
G1 F5.0 Z-0.01
G1 F10.0 X4.4804 Y13.9591
G1 X4.4779 Y13.9669
G1 X4.4744 Y13.9743
G1 X4.4701 Y13.9813
G1 X4.4649 Y13.9876
G1 X4.459 Y13.9933
G1 X4.4525 Y13.9982
G1 X4.4454 Y14.0023
G1 X4.4379 Y14.0055
G1 X4.43 Y14.0078
G1 X4.4219 Y14.009
G1 X4.4137 Y14.0093
G1 X4.4056 Y14.0086
G1 X4.3976 Y14.0069
G1 X4.3898 Y14.0042
G1 X4.3825 Y14.0006
G1 X4.382 Y14.0004
G1 X4.3752 Y13.9959
G1 X4.369 Y13.9905
G1 X4.3634 Y13.9845
G1 X4.3587 Y13.9778
G1 X4.3548 Y13.9706
G1 X4.3518 Y13.963
G1 X4.3497 Y13.9551
G1 X4.3487 Y13.947
G1 X4.3486 Y13.9388
G1 X4.3495 Y13.9307
G1 X4.3515 Y13.9227
G1 X4.3543 Y13.915
G1 X4.3581 Y13.9078
G1 X4.3628 Y13.9011
G1 X4.3682 Y13.8949
G1 X4.3743 Y13.8895
G1 X4.3811 Y13.8849
G1 X4.382 Y13.8843
G1 X4.3893 Y13.8807
G1 X4.3971 Y13.8779
G1 X4.405 Y13.8762
G1 X4.4132 Y13.8754
G1 X4.4214 Y13.8756
G1 X4.4295 Y13.8768
G1 X4.4374 Y13.879
G1 X4.4449 Y13.8822
G1 X4.452 Y13.8862
G1 X4.4586 Y13.8911
G1 X4.4645 Y13.8967
G1 X4.4698 Y13.903
G1 X4.4741 Y13.9099
G1 X4.4777 Y13.9173
G1 X4.4802 Y13.9251
G1 X4.4819 Y13.9331
G1 X4.4825 Y13.9413
G1 Y13.9424
G1 X4.482 Y13.9505
G1 X4.4819 Y13.9511
G0 Z0.125
G0 X3.2592
G0 Z0.03
G1 F5.0 Z-0.01
G1 F10.0 Y14.0702
G1 X3.0172
G1 Y13.7782
G1 X3.2592
G1 Y13.9511
G0 Z0.125
G0 X1.523
G0 Z0.03
G1 F5.0 Z-0.01
G1 F10.0 Y14.0702
G1 X1.231
G1 Y13.8282
G1 X1.523
G1 Y13.9511
G0 Z0.125
G0 X0.9825 Y13.9433
G0 Z0.03
G1 F5.0 Z-0.01
G1 F10.0 X0.9819 Y13.9515
G1 X0.9803 Y13.9595
G1 X0.9777 Y13.9673
G1 X0.9742 Y13.9747
G1 X0.9698 Y13.9816
G1 X0.9646 Y13.9879
G1 X0.9587 Y13.9936
G1 X0.9521 Y13.9985
G1 X0.945 Y14.0025
G1 X0.9375 Y14.0057
G1 X0.9296 Y14.0079
G1 X0.9215 Y14.0091
G1 X0.9133 Y14.0093
G1 X0.9052 Y14.0085
G1 X0.8972 Y14.0068
G1 X0.8895 Y14.0041
G1 X0.8821 Y14.0004
G1 X0.882
G1 X0.8752 Y13.9959
G1 X0.869 Y13.9905
G1 X0.8634 Y13.9845
G1 X0.8587 Y13.9778
G1 X0.8548 Y13.9706
G1 X0.8518 Y13.963
G1 X0.8497 Y13.9551
G1 X0.8487 Y13.947
G1 X0.8486 Y13.9388
G1 X0.8495 Y13.9307
G1 X0.8515 Y13.9227
G1 X0.8543 Y13.915
G1 X0.8581 Y13.9078
G1 X0.8628 Y13.9011
G1 X0.8682 Y13.8949
G1 X0.8743 Y13.8895
G1 X0.8811 Y13.8849
G1 X0.882 Y13.8843
G1 X0.8893 Y13.8807
G1 X0.8971 Y13.8779
G1 X0.905 Y13.8762
G1 X0.9132 Y13.8754
G1 X0.9214 Y13.8756
G1 X0.9295 Y13.8768
G1 X0.9374 Y13.879
G1 X0.9449 Y13.8822
G1 X0.952 Y13.8862
G1 X0.9586 Y13.8911
G1 X0.9645 Y13.8967
G1 X0.9698 Y13.903
G1 X0.9741 Y13.9099
G1 X0.9777 Y13.9173
G1 X0.9802 Y13.9251
G1 X0.9819 Y13.9331
G1 X0.9825 Y13.9413
G1 Y13.9424
G1 Y13.9433
G0 Z0.125
G0 X1.8648 Y12.676
G0 Z0.03
G1 F5.0 Z-0.01
G1 F10.0 X1.8599 Y12.6719
G1 X1.8556 Y12.6671
G1 X1.8521 Y12.6618
G1 X1.8495 Y12.6559
G1 X1.8479 Y12.6497
G1 X1.8472 Y12.6433
G1 X1.8476 Y12.637
G1 X1.8489 Y12.6307
G1 X1.8512 Y12.6247
G1 X1.8544 Y12.6192
G1 X1.8584 Y12.6142
G1 X1.8632 Y12.6099
G1 X1.8677 Y12.6068
G1 X1.8735 Y12.6041
G1 X1.8796 Y12.6022
G1 X1.886 Y12.6014
G1 X1.8924 Y12.6015
G1 X1.8987 Y12.6027
G1 X1.9047 Y12.6048
G1 X1.9104 Y12.6078
G1 X1.9155 Y12.6117
G1 X1.9199 Y12.6163
G1 X1.9236 Y12.6216
G1 X1.9264 Y12.6273
G1 X1.9283 Y12.6335
G1 X1.9292 Y12.6398
G1 Y12.6423
G1 X1.9287 Y12.6487
G1 X1.9272 Y12.6549
G1 X1.9248 Y12.6609
G1 X1.9215 Y12.6663
G1 X1.9173 Y12.6712
G1 X1.9125 Y12.6754
G1 X1.907 Y12.6788
G1 X1.9011 Y12.6813
G1 X1.8949 Y12.6828
G1 X1.8885 Y12.6833
G1 X1.8822 Y12.6829
G1 X1.8759 Y12.6814
G1 X1.87 Y12.679
G1 X1.8677 Y12.6778
G1 X1.8648 Y12.676
G0 Z0.125
G0 X1.6629 Y11.841
G0 Z0.03
G1 F5.0 Z-0.01
G1 F10.0 X1.6565 Y11.842
G1 X1.6501
G1 X1.6438 Y11.8411
G1 X1.6377 Y11.8391
G1 X1.6327 Y11.8367
G1 X1.6275 Y11.833
G1 X1.6228 Y11.8286
G1 X1.6189 Y11.8236
G1 X1.6158 Y11.8179
G1 X1.6137 Y11.8119
G1 X1.6125 Y11.8056
G1 X1.6123 Y11.7992
G1 X1.6131 Y11.7929
G1 X1.6149 Y11.7867
G1 X1.6176 Y11.7809
G1 X1.6212 Y11.7756
G1 X1.6255 Y11.7709
G1 X1.6306 Y11.767
G1 X1.6327 Y11.7656
G1 X1.6385 Y11.7629
G1 X1.6446 Y11.7611
G1 X1.651 Y11.7602
G1 X1.6574 Y11.7604
G1 X1.6637 Y11.7615
G1 X1.6697 Y11.7636
G1 X1.6754 Y11.7666
G1 X1.6805 Y11.7705
G1 X1.6849 Y11.7751
G1 X1.6886 Y11.7804
G1 X1.6914 Y11.7861
G1 X1.6933 Y11.7923
G1 X1.6942 Y11.7986
G1 Y11.8012
G1 X1.6937 Y11.8075
G1 X1.6922 Y11.8138
G1 X1.6898 Y11.8197
G1 X1.6865 Y11.8252
G1 X1.6823 Y11.83
G1 X1.6775 Y11.8342
G1 X1.672 Y11.8376
G1 X1.6661 Y11.8401
G1 X1.6629 Y11.841
G0 Z0.125
G0 X1.523 Y10.6152
G0 Z0.03
G1 F5.0 Z-0.01
G1 F10.0 X1.231
G1 Y10.3732
G1 X1.523
G1 Y10.6152
G0 Z0.125
G0 X0.9808 Y10.4888
G0 Z0.03
G1 F5.0 Z-0.01
G1 F10.0 X0.9784 Y10.4966
G1 X0.9751 Y10.5041
G1 X0.971 Y10.5112
G1 X0.966 Y10.5177
G1 X0.9602 Y10.5235
G1 X0.9538 Y10.5286
G1 X0.9468 Y10.5328
G1 X0.9393 Y10.5362
G1 X0.9315 Y10.5386
G1 X0.9235 Y10.5401
G1 X0.9153 Y10.5406
G1 X0.9071 Y10.54
G1 X0.8991 Y10.5385
G1 X0.8913 Y10.536
G1 X0.8839 Y10.5326
G1 X0.882 Y10.5316
G1 X0.8752 Y10.5271
G1 X0.869 Y10.5218
G1 X0.8634 Y10.5157
G1 X0.8587 Y10.5091
G1 X0.8548 Y10.5019
G1 X0.8518 Y10.4942
G1 X0.8497 Y10.4863
G1 X0.8487 Y10.4782
G1 X0.8486 Y10.47
G1 X0.8495 Y10.4619
G1 X0.8515 Y10.4539
G1 X0.8543 Y10.4463
G1 X0.8581 Y10.439
G1 X0.8628 Y10.4323
G1 X0.8682 Y10.4261
G1 X0.8743 Y10.4207
G1 X0.8811 Y10.4161
G1 X0.882 Y10.4155
G1 X0.8893 Y10.4119
G1 X0.8971 Y10.4092
G1 X0.905 Y10.4074
G1 X0.9132 Y10.4066
G1 X0.9214 Y10.4068
G1 X0.9295 Y10.408
G1 X0.9374 Y10.4102
G1 X0.9449 Y10.4134
G1 X0.952 Y10.4174
G1 X0.9586 Y10.4223
G1 X0.9645 Y10.4279
G1 X0.9698 Y10.4342
G1 X0.9741 Y10.4411
G1 X0.9777 Y10.4485
G1 X0.9802 Y10.4563
G1 X0.9819 Y10.4643
G1 X0.9825 Y10.4725
G1 Y10.4736
G1 X0.982 Y10.4817
G1 X0.9808 Y10.4888
G0 Z0.125
G0 X3.0172
G0 Z0.03
G1 F5.0 Z-0.01
G1 F10.0 Y10.3732
G1 X3.2592
G1 Y10.6652
G1 X3.0172
G1 Y10.4888
G0 Z0.125
G0 X4.3485 Y10.4743
G0 Z0.03
G1 F5.0 Z-0.01
G1 F10.0 X4.3489 Y10.4661
G1 X4.3503 Y10.4581
G1 X4.3527 Y10.4502
G1 X4.356 Y10.4427
G1 X4.3602 Y10.4357
G1 X4.3653 Y10.4293
G1 X4.371 Y10.4235
G1 X4.3775 Y10.4184
G1 X4.382 Y10.4155
G1 X4.3893 Y10.4119
G1 X4.3971 Y10.4092
G1 X4.405 Y10.4074
G1 X4.4132 Y10.4066
G1 X4.4214 Y10.4068
G1 X4.4295 Y10.408
G1 X4.4374 Y10.4102
G1 X4.4449 Y10.4134
G1 X4.452 Y10.4174
G1 X4.4586 Y10.4223
G1 X4.4645 Y10.4279
G1 X4.4698 Y10.4342
G1 X4.4741 Y10.4411
G1 X4.4777 Y10.4485
G1 X4.4802 Y10.4563
G1 X4.4819 Y10.4643
G1 X4.4825 Y10.4725
G1 Y10.4736
G1 X4.482 Y10.4817
G1 X4.4805 Y10.4898
G1 X4.4781 Y10.4976
G1 X4.4747 Y10.505
G1 X4.4704 Y10.512
G1 X4.4653 Y10.5184
G1 X4.4594 Y10.5242
G1 X4.4529 Y10.5291
G1 X4.4459 Y10.5333
G1 X4.4384 Y10.5365
G1 X4.4305 Y10.5389
G1 X4.4225 Y10.5402
G1 X4.4143 Y10.5406
G1 X4.4061 Y10.5399
G1 X4.3981 Y10.5383
G1 X4.3903 Y10.5357
G1 X4.383 Y10.5321
G1 X4.382 Y10.5316
G1 X4.3752 Y10.5271
G1 X4.369 Y10.5218
G1 X4.3634 Y10.5157
G1 X4.3587 Y10.5091
G1 X4.3548 Y10.5019
G1 X4.3518 Y10.4942
G1 X4.3497 Y10.4863
G1 X4.3487 Y10.4782
G1 X4.3485 Y10.4743
G0 Z0.125
G0 X4.731
G0 Z0.03
G1 F5.0 Z-0.01
G1 F10.0 Y10.3732
G1 X5.023
G1 Y10.6152
G1 X4.731
G1 Y10.4743
G0 Z0.125
G0 X5.406
G0 Z0.03
G1 F5.0 Z-0.01
G1 F10.0 Y10.3732
G1 X5.648
G1 Y10.6652
G1 X5.406
G1 Y10.4743
G0 Z0.125
G0 X5.9563 Y10.4268
G0 Z0.03
G1 F5.0 Z-0.01
G1 F10.0 X5.9561 Y10.4184
G1 X5.9568 Y10.41
G1 X5.9586 Y10.4018
G1 X5.9613 Y10.3938
G1 X5.965 Y10.3862
G1 X5.9695 Y10.3791
G1 X5.9748 Y10.3726
G1 X5.9809 Y10.3668
G1 X5.9876 Y10.3617
G1 X5.9915 Y10.3593
G1 X5.999 Y10.3555
G1 X6.007 Y10.3526
G1 X6.0152 Y10.3507
G1 X6.0236 Y10.3498
G1 X6.032 Y10.3499
G1 X6.0403 Y10.351
G1 X6.0485 Y10.3531
G1 X6.0564 Y10.3561
G1 X6.0638 Y10.36
G1 X6.0708 Y10.3648
G1 X6.0771 Y10.3704
G1 X6.0827 Y10.3767
G1 X6.0875 Y10.3836
G1 X6.0915 Y10.391
G1 X6.0946 Y10.3989
G1 X6.0967 Y10.407
G1 X6.0978 Y10.4154
G1 X6.098 Y10.4207
G1 X6.0975 Y10.4292
G1 X6.096 Y10.4374
G1 X6.0936 Y10.4455
G1 X6.0902 Y10.4532
G1 X6.0859 Y10.4605
G1 X6.0807 Y10.4672
G1 X6.0749 Y10.4732
G1 X6.0683 Y10.4785
G1 X6.0612 Y10.483
G1 X6.0536 Y10.4866
G1 X6.0456 Y10.4893
G1 X6.0373 Y10.491
G1 X6.0289 Y10.4917
G1 X6.0205 Y10.4914
G1 X6.0122 Y10.4902
G1 X6.0041 Y10.4879
G1 X5.9963 Y10.4847
G1 X5.9915 Y10.4822
G1 X5.9845 Y10.4776
G1 X5.978 Y10.4722
G1 X5.9723 Y10.466
G1 X5.9673 Y10.4592
G1 X5.9632 Y10.4518
G1 X5.96 Y10.4441
G1 X5.9577 Y10.436
G1 X5.9563 Y10.4276
G1 Y10.4268
G0 Z0.125
G0 X8.6922 Y10.4209
G0 Z0.03
G1 F5.0 Z-0.01
G1 F10.0 X8.6927 Y10.4125
G1 X8.6942 Y10.4042
G1 X8.6966 Y10.3961
G1 X8.7 Y10.3884
G1 X8.7043 Y10.3811
G1 X8.7094 Y10.3744
G1 X8.7153 Y10.3684
G1 X8.7218 Y10.3631
G1 X8.7277 Y10.3593
G1 X8.7353 Y10.3555
G1 X8.7432 Y10.3526
G1 X8.7514 Y10.3507
G1 X8.7598 Y10.3498
G1 X8.7682 Y10.3499
G1 X8.7766 Y10.351
G1 X8.7847 Y10.3531
G1 X8.7926 Y10.3561
G1 X8.8 Y10.36
G1 X8.807 Y10.3648
G1 X8.8133 Y10.3704
G1 X8.8189 Y10.3767
G1 X8.8237 Y10.3836
G1 X8.8277 Y10.391
G1 X8.8308 Y10.3989
G1 X8.8329 Y10.407
G1 X8.834 Y10.4154
G1 X8.8342 Y10.4207
G1 X8.8337 Y10.4292
G1 X8.8322 Y10.4374
G1 X8.8298 Y10.4455
G1 X8.8264 Y10.4532
G1 X8.8221 Y10.4605
G1 X8.817 Y10.4672
G1 X8.8111 Y10.4732
G1 X8.8045 Y10.4785
G1 X8.7974 Y10.483
G1 X8.7898 Y10.4866
G1 X8.7818 Y10.4893
G1 X8.7735 Y10.491
G1 X8.7652 Y10.4917
G1 X8.7567 Y10.4914
G1 X8.7484 Y10.4902
G1 X8.7403 Y10.4879
G1 X8.7325 Y10.4847
G1 X8.7277 Y10.4822
G1 X8.7207 Y10.4776
G1 X8.7143 Y10.4722
G1 X8.7085 Y10.466
G1 X8.7035 Y10.4592
G1 X8.6994 Y10.4518
G1 X8.6962 Y10.4441
G1 X8.6939 Y10.436
G1 X8.6926 Y10.4276
G1 X8.6922 Y10.4209
G0 Z0.125
G0 X9.2672
G0 Z0.03
G1 F5.0 Z-0.01
G1 F10.0 Y10.3732
G1 X9.5092
G1 Y10.6652
G1 X9.2672
G1 Y10.4209
( OutsideProfile1 )
S1000
G0 Z0.125
G0 X11.6632 Y14.2142
G0 Z0.03
G1 F5.0 Z-0.01
G1 F10.0 X11.6734 Y14.2137
G1 X11.6835 Y14.2122
G1 X11.6934 Y14.2098
G1 X11.703 Y14.2063
G1 X11.7122 Y14.202
G1 X11.721 Y14.1967
G1 X11.7292 Y14.1907
G1 X11.7367 Y14.1838
G1 X11.7436 Y14.1763
G1 X11.7497 Y14.1681
G1 X11.7549 Y14.1593
G1 X11.7593 Y14.1501
G1 X11.7627 Y14.1405
G1 X11.7652 Y14.1306
G1 X11.7667 Y14.1206
G1 X11.7672 Y14.1104
G1 Y14.1102
G1 Y10.3332
G1 X11.7667 Y10.3231
G1 X11.7652 Y10.313
G1 X11.7628 Y10.3031
G1 X11.7593 Y10.2935
G1 X11.755 Y10.2843
G1 X11.7497 Y10.2755
G1 X11.7437 Y10.2673
G1 X11.7368 Y10.2597
G1 X11.7293 Y10.2529
G1 X11.7211 Y10.2468
G1 X11.7123 Y10.2416
G1 X11.7031 Y10.2372
G1 X11.6935 Y10.2338
G1 X11.6836 Y10.2313
G1 X11.6735 Y10.2298
G1 X11.6634 Y10.2292
G1 X11.6632
G1 X0.3632
G1 X0.353 Y10.2297
G1 X0.343 Y10.2312
G1 X0.3331 Y10.2337
G1 X0.3235 Y10.2371
G1 X0.3142 Y10.2415
G1 X0.3055 Y10.2467
G1 X0.2973 Y10.2528
G1 X0.2897 Y10.2597
G1 X0.2829 Y10.2672
G1 X0.2768 Y10.2754
G1 X0.2716 Y10.2841
G1 X0.2672 Y10.2934
G1 X0.2637 Y10.303
G1 X0.2613 Y10.3128
G1 X0.2597 Y10.3229
G1 X0.2592 Y10.3331
G1 Y10.3332
G1 Y14.1102
G1 X0.2597 Y14.1204
G1 X0.2612 Y14.1305
G1 X0.2637 Y14.1404
G1 X0.2671 Y14.15
G1 X0.2715 Y14.1592
G1 X0.2767 Y14.168
G1 X0.2828 Y14.1762
G1 X0.2896 Y14.1837
G1 X0.2972 Y14.1906
G1 X0.3054 Y14.1967
G1 X0.3141 Y14.2019
G1 X0.3233 Y14.2063
G1 X0.3329 Y14.2097
G1 X0.3428 Y14.2122
G1 X0.3529 Y14.2137
G1 X0.3631 Y14.2142
G1 X0.3632
G1 X11.2007
G1 X11.2027 Y14.2137
G1 X11.2041 Y14.2124
G1 X11.2047 Y14.2105
G1 Y14.2102
G1 X11.2052 Y14.2026
G1 X11.2067 Y14.1951
G1 X11.2092 Y14.1879
G1 X11.2126 Y14.181
G1 X11.2168 Y14.1746
G1 X11.2219 Y14.1689
G1 X11.2276 Y14.1638
G1 X11.234 Y14.1596
G1 X11.2408 Y14.1562
G1 X11.2481 Y14.1537
G1 X11.2556 Y14.1522
G1 X11.2632 Y14.1517
G1 X11.2708 Y14.1522
G1 X11.2783 Y14.1537
G1 X11.2856 Y14.1562
G1 X11.2924 Y14.1596
G1 X11.2988 Y14.1638
G1 X11.3046 Y14.1688
G1 X11.3096 Y14.1746
G1 X11.3139 Y14.1809
G1 X11.3173 Y14.1878
G1 X11.3197 Y14.195
G1 X11.3212 Y14.2025
G1 X11.3217 Y14.2102
G1 X11.3222 Y14.2122
G1 X11.3236 Y14.2136
G1 X11.3255 Y14.2142
G1 X11.3257
G1 X11.6632
( InsideProfile2 )
S1000
G0 Z0.125
G0 X14.7035 Y11.4625
G0 Z0.03
G1 F5.0 Z-0.01
G1 F10.0 X14.703 Y11.4701
G1 X14.7015 Y11.4776
G1 X14.6991 Y11.4849
G1 X14.6957 Y11.4917
G1 X14.6914 Y11.4981
G1 X14.6864 Y11.5039
G1 X14.6806 Y11.5089
G1 X14.6743 Y11.5131
G1 X14.6674 Y11.5165
G1 X14.6602 Y11.519
G1 X14.6527 Y11.5205
G1 X14.645 Y11.521
G1 X14.6374 Y11.5205
G1 X14.6299 Y11.519
G1 X14.6227 Y11.5166
G1 X14.6158 Y11.5132
G1 X14.6094 Y11.5089
G1 X14.6036 Y11.5039
G1 X14.5986 Y11.4981
G1 X14.5943 Y11.4918
G1 X14.591 Y11.4849
G1 X14.5885 Y11.4777
G1 X14.587 Y11.4702
G1 X14.5865 Y11.4625
G1 X14.587 Y11.4549
G1 X14.5885 Y11.4474
G1 X14.5909 Y11.4402
G1 X14.5943 Y11.4333
G1 X14.5986 Y11.4269
G1 X14.6036 Y11.4212
G1 X14.6093 Y11.4161
G1 X14.6157 Y11.4119
G1 X14.6158 Y11.4118
G1 X14.6226 Y11.4085
G1 X14.6299 Y11.406
G1 X14.6374 Y11.4045
G1 X14.645 Y11.404
G1 X14.6526 Y11.4045
G1 X14.6601 Y11.406
G1 X14.6674 Y11.4084
G1 X14.6742 Y11.4118
G1 X14.6806 Y11.4161
G1 X14.6863 Y11.4211
G1 X14.6914 Y11.4269
G1 X14.6956 Y11.4332
G1 X14.699 Y11.4401
G1 X14.7015 Y11.4473
G1 X14.703 Y11.4548
G1 X14.7035 Y11.4624
G1 Y11.4625
G0 Z0.125
G0 X14.8865
G0 Z0.03
G1 F5.0 Z-0.01
G1 F10.0 X14.887 Y11.4549
G1 X14.8885 Y11.4474
G1 X14.8909 Y11.4401
G1 X14.8943 Y11.4333
G1 X14.8986 Y11.4269
G1 X14.9036 Y11.4211
G1 X14.9094 Y11.4161
G1 X14.9157 Y11.4119
G1 X14.9158 Y11.4118
G1 X14.9226 Y11.4085
G1 X14.9299 Y11.406
G1 X14.9374 Y11.4045
G1 X14.945 Y11.404
G1 X14.9526 Y11.4045
G1 X14.9601 Y11.406
G1 X14.9674 Y11.4084
G1 X14.9742 Y11.4118
G1 X14.9806 Y11.4161
G1 X14.9863 Y11.4211
G1 X14.9914 Y11.4269
G1 X14.9956 Y11.4332
G1 X14.999 Y11.4401
G1 X15.0015 Y11.4473
G1 X15.003 Y11.4548
G1 X15.0035 Y11.4624
G1 Y11.4625
G1 X15.003 Y11.4701
G1 X15.0015 Y11.4776
G1 X14.9991 Y11.4849
G1 X14.9957 Y11.4917
G1 X14.9914 Y11.4981
G1 X14.9864 Y11.5039
G1 X14.9806 Y11.5089
G1 X14.9743 Y11.5131
G1 X14.9674 Y11.5165
G1 X14.9602 Y11.519
G1 X14.9527 Y11.5205
G1 X14.945 Y11.521
G1 X14.9374 Y11.5205
G1 X14.9299 Y11.519
G1 X14.9227 Y11.5166
G1 X14.9158 Y11.5132
G1 X14.9094 Y11.5089
G1 X14.9036 Y11.5039
G1 X14.8986 Y11.4981
G1 X14.8943 Y11.4918
G1 X14.891 Y11.4849
G1 X14.8885 Y11.4777
G1 X14.887 Y11.4702
G1 X14.8865 Y11.4625
G0 Z0.125
G0 X14.0785
G0 Z0.03
G1 F5.0 Z-0.01
G1 F10.0 X14.078 Y11.4701
G1 X14.0765 Y11.4776
G1 X14.0741 Y11.4849
G1 X14.0707 Y11.4917
G1 X14.0664 Y11.4981
G1 X14.0614 Y11.5039
G1 X14.0556 Y11.5089
G1 X14.0493 Y11.5131
G1 X14.0424 Y11.5165
G1 X14.0352 Y11.519
G1 X14.0277 Y11.5205
G1 X14.02 Y11.521
G1 X14.0124 Y11.5205
G1 X14.0049 Y11.519
G1 X13.9977 Y11.5166
G1 X13.9908 Y11.5132
G1 X13.9844 Y11.5089
G1 X13.9786 Y11.5039
G1 X13.9736 Y11.4981
G1 X13.9693 Y11.4918
G1 X13.966 Y11.4849
G1 X13.9635 Y11.4777
G1 X13.962 Y11.4702
G1 X13.9615 Y11.4625
G1 X13.962 Y11.4549
G1 X13.9635 Y11.4474
G1 X13.9659 Y11.4402
G1 X13.9693 Y11.4333
G1 X13.9736 Y11.4269
G1 X13.9786 Y11.4212
G1 X13.9843 Y11.4161
G1 X13.9907 Y11.4119
G1 X13.9908 Y11.4118
G1 X13.9976 Y11.4085
G1 X14.0049 Y11.406
G1 X14.0124 Y11.4045
G1 X14.02 Y11.404
G1 X14.0276 Y11.4045
G1 X14.0351 Y11.406
G1 X14.0424 Y11.4084
G1 X14.0492 Y11.4118
G1 X14.0556 Y11.4161
G1 X14.0613 Y11.4211
G1 X14.0664 Y11.4269
G1 X14.0706 Y11.4332
G1 X14.074 Y11.4401
G1 X14.0765 Y11.4473
G1 X14.078 Y11.4548
G1 X14.0785 Y11.4624
G1 Y11.4625
G0 Z0.125
G0 X14.0333 Y11.6555
G0 Z0.03
G1 F5.0 Z-0.01
G1 F10.0 X14.0406 Y11.6578
G1 X14.0476 Y11.6609
G1 X14.0541 Y11.665
G1 X14.06 Y11.6698
G1 X14.0652 Y11.6754
G1 X14.0697 Y11.6816
G1 X14.0733 Y11.6884
G1 X14.076 Y11.6955
G1 X14.0777 Y11.703
G1 X14.0785 Y11.7106
G1 Y11.7125
G1 X14.078 Y11.7201
G1 X14.0765 Y11.7276
G1 X14.0741 Y11.7349
G1 X14.0707 Y11.7417
G1 X14.0664 Y11.7481
G1 X14.0614 Y11.7539
G1 X14.0556 Y11.7589
G1 X14.0493 Y11.7631
G1 X14.0424 Y11.7665
G1 X14.0352 Y11.769
G1 X14.0277 Y11.7705
G1 X14.02 Y11.771
G1 X14.0124 Y11.7705
G1 X14.0049 Y11.769
G1 X13.9977 Y11.7666
G1 X13.9908 Y11.7632
G1 X13.9844 Y11.7589
G1 X13.9786 Y11.7539
G1 X13.9736 Y11.7481
G1 X13.9693 Y11.7418
G1 X13.966 Y11.7349
G1 X13.9635 Y11.7277
G1 X13.962 Y11.7202
G1 X13.9615 Y11.7125
G1 X13.962 Y11.7049
G1 X13.9635 Y11.6974
G1 X13.9659 Y11.6902
G1 X13.9693 Y11.6833
G1 X13.9736 Y11.6769
G1 X13.9786 Y11.6712
G1 X13.9843 Y11.6661
G1 X13.9907 Y11.6619
G1 X13.9908 Y11.6618
G1 X13.9976 Y11.6585
G1 X14.0049 Y11.656
G1 X14.0124 Y11.6545
G1 X14.02 Y11.654
G1 X14.0276 Y11.6545
G1 X14.0333 Y11.6555
G0 Z0.125
G0 X13.7776 Y11.702
G0 Z0.03
G1 F5.0 Z-0.01
G1 F10.0 X13.7784 Y11.7096
G1 X13.7785 Y11.7125
G1 X13.778 Y11.7201
G1 X13.7765 Y11.7276
G1 X13.7741 Y11.7349
G1 X13.7707 Y11.7417
G1 X13.7664 Y11.7481
G1 X13.7614 Y11.7539
G1 X13.7556 Y11.7589
G1 X13.7493 Y11.7631
G1 X13.7424 Y11.7665
G1 X13.7352 Y11.769
G1 X13.7277 Y11.7705
G1 X13.72 Y11.771
G1 X13.7124 Y11.7705
G1 X13.7049 Y11.769
G1 X13.6977 Y11.7666
G1 X13.6908 Y11.7632
G1 X13.6844 Y11.7589
G1 X13.6786 Y11.7539
G1 X13.6736 Y11.7481
G1 X13.6693 Y11.7418
G1 X13.666 Y11.7349
G1 X13.6635 Y11.7277
G1 X13.662 Y11.7202
G1 X13.6615 Y11.7125
G1 X13.662 Y11.7049
G1 X13.6635 Y11.6974
G1 X13.6659 Y11.6902
G1 X13.6693 Y11.6833
G1 X13.6736 Y11.6769
G1 X13.6786 Y11.6712
G1 X13.6843 Y11.6661
G1 X13.6907 Y11.6619
G1 X13.6908 Y11.6618
G1 X13.6976 Y11.6585
G1 X13.7049 Y11.656
G1 X13.7124 Y11.6545
G1 X13.72 Y11.654
G1 X13.7276 Y11.6545
G1 X13.7351 Y11.656
G1 X13.7424 Y11.6584
G1 X13.7492 Y11.6618
G1 X13.7556 Y11.6661
G1 X13.7613 Y11.6711
G1 X13.7664 Y11.6769
G1 X13.7706 Y11.6832
G1 X13.774 Y11.6901
G1 X13.7765 Y11.6973
G1 X13.7776 Y11.702
G0 Z0.125
G0 X13.7337 Y11.5194
G0 Z0.03
G1 F5.0 Z-0.01
G1 F10.0 X13.7261 Y11.5207
G1 X13.7185 Y11.521
G1 X13.7109 Y11.5203
G1 X13.7034 Y11.5186
G1 X13.6962 Y11.516
G1 X13.6908 Y11.5132
G1 X13.6844 Y11.5089
G1 X13.6786 Y11.5039
G1 X13.6736 Y11.4981
G1 X13.6693 Y11.4918
G1 X13.666 Y11.4849
G1 X13.6635 Y11.4777
G1 X13.662 Y11.4702
G1 X13.6615 Y11.4625
G1 X13.662 Y11.4549
G1 X13.6635 Y11.4474
G1 X13.6659 Y11.4402
G1 X13.6693 Y11.4333
G1 X13.6736 Y11.4269
G1 X13.6786 Y11.4212
G1 X13.6843 Y11.4161
G1 X13.6907 Y11.4119
G1 X13.6908 Y11.4118
G1 X13.6976 Y11.4085
G1 X13.7049 Y11.406
G1 X13.7124 Y11.4045
G1 X13.72 Y11.404
G1 X13.7276 Y11.4045
G1 X13.7351 Y11.406
G1 X13.7424 Y11.4084
G1 X13.7492 Y11.4118
G1 X13.7556 Y11.4161
G1 X13.7613 Y11.4211
G1 X13.7664 Y11.4269
G1 X13.7706 Y11.4332
G1 X13.774 Y11.4401
G1 X13.7765 Y11.4473
G1 X13.778 Y11.4548
G1 X13.7785 Y11.4624
G1 Y11.4625
G1 X13.778 Y11.4701
G1 X13.7765 Y11.4776
G1 X13.7741 Y11.4849
G1 X13.7707 Y11.4917
G1 X13.7664 Y11.4981
G1 X13.7614 Y11.5039
G1 X13.7556 Y11.5089
G1 X13.7493 Y11.5131
G1 X13.7424 Y11.5165
G1 X13.7352 Y11.519
G1 X13.7337 Y11.5194
G0 Z0.125
G0 X12.0655 Y11.3227
G0 Z0.03
G1 F5.0 Z-0.01
G1 F10.0 X12.0641 Y11.3307
G1 X12.0617 Y11.3385
G1 X12.0583 Y11.3459
G1 X12.0541 Y11.3528
G1 X12.049 Y11.3592
G1 X12.0432 Y11.3649
G1 X12.0368 Y11.3698
G1 X12.0298 Y11.3739
G1 X12.0223 Y11.3771
G1 X12.0145 Y11.3794
G1 X12.0065 Y11.3807
G1 X11.9984 Y11.381
G1 X11.9903 Y11.3803
G1 X11.9823 Y11.3786
G1 X11.9747 Y11.3759
G1 X11.9674 Y11.3724
G1 X11.967 Y11.3722
G1 X11.9602 Y11.3677
G1 X11.9541 Y11.3624
G1 X11.9486 Y11.3564
G1 X11.9439 Y11.3498
G1 X11.94 Y11.3426
G1 X11.9371 Y11.335
G1 X11.9351 Y11.3271
G1 X11.9341 Y11.3191
G1 Y11.311
G1 X11.9351 Y11.3029
G1 X11.9371 Y11.295
G1 X11.94 Y11.2874
G1 X11.9439 Y11.2803
G1 X11.9486 Y11.2736
G1 X11.954 Y11.2676
G1 X11.9602 Y11.2624
G1 X11.967 Y11.2579
G1 Y11.2578
G1 X11.9743 Y11.2542
G1 X11.9819 Y11.2515
G1 X11.9899 Y11.2498
G1 X11.998 Y11.249
G1 X12.0061 Y11.2493
G1 X12.0141 Y11.2505
G1 X12.0219 Y11.2527
G1 X12.0294 Y11.2559
G1 X12.0364 Y11.26
G1 X12.0429 Y11.2649
G1 X12.0488 Y11.2705
G1 X12.0539 Y11.2768
G1 X12.0581 Y11.2838
G1 X12.0615 Y11.2911
G1 X12.064 Y11.2989
G1 X12.0655 Y11.3069
G1 X12.066 Y11.315
G1 X12.0655 Y11.3227
G0 Z0.125
G0 X12.0016 Y13.944
G0 Z0.03
G1 F5.0 Z-0.01
G1 F10.0 X12.0097 Y13.9447
G1 X12.0177 Y13.9464
G1 X12.0253 Y13.9491
G1 X12.0326 Y13.9526
G1 X12.0394 Y13.9571
G1 X12.0456 Y13.9623
G1 X12.0511 Y13.9683
G1 X12.0559 Y13.9749
G1 X12.0598 Y13.982
G1 X12.0628 Y13.9896
G1 X12.0648 Y13.9974
G1 X12.0658 Y14.0055
G1 X12.066 Y14.01
G1 X12.0655 Y14.0181
G1 X12.064 Y14.0261
G1 X12.0615 Y14.0338
G1 X12.0582 Y14.0412
G1 X12.0539 Y14.0481
G1 X12.0488 Y14.0545
G1 X12.043 Y14.0601
G1 X12.0365 Y14.065
G1 X12.0294 Y14.0691
G1 X12.022 Y14.0722
G1 X12.0141 Y14.0745
G1 X12.0061 Y14.0757
G1 X11.998 Y14.076
G1 X11.9899 Y14.0752
G1 X11.982 Y14.0735
G1 X11.9743 Y14.0708
G1 X11.967 Y14.0672
G1 X11.9602 Y14.0627
G1 X11.9541 Y14.0574
G1 X11.9486 Y14.0514
G1 X11.9439 Y14.0448
G1 X11.94 Y14.0376
G1 X11.9371 Y14.03
G1 X11.9351 Y14.0221
G1 X11.9341 Y14.0141
G1 Y14.006
G1 X11.9351 Y13.9979
G1 X11.9371 Y13.99
G1 X11.94 Y13.9824
G1 X11.9439 Y13.9753
G1 X11.9486 Y13.9686
G1 X11.954 Y13.9626
G1 X11.9602 Y13.9574
G1 X11.967 Y13.9529
G1 Y13.9528
G1 X11.9743 Y13.9492
G1 X11.9819 Y13.9465
G1 X11.9899 Y13.9448
G1 X11.998 Y13.944
G1 X12.0016
( OutsideProfile2 )
S1000
G0 Z0.125
G0 X12.091 Y11.479
G0 Z0.03
G1 F5.0 Z-0.01
G1 F10.0 Y13.846
G1 X11.875
G1 X11.8731 Y13.8465
G1 X11.8716 Y13.8479
G1 X11.871 Y13.8498
G1 Y13.85
G1 Y14.25
G1 X11.8715 Y14.2519
G1 X11.8729 Y14.2534
G1 X11.8748 Y14.254
G1 X11.875
G1 X12.25
G1 X12.2519 Y14.2535
G1 X12.2528 Y14.2529
G1 X12.5016 Y14.0165
G1 X15.792
G1 X15.7939 Y14.016
G1 X15.7954 Y14.0146
G1 X15.796 Y14.0127
G1 Y14.0125
G1 Y13.7625
G1 X15.7955 Y13.7606
G1 X15.7941 Y13.7591
G1 X15.7922 Y13.7585
G1 X15.792
G1 X15.7098
G1 Y13.6415
G1 X16.0142
G1 X16.0143 Y13.7585
G1 X15.932
G1 X15.9301 Y13.759
G1 X15.9286 Y13.7604
G1 X15.928 Y13.7623
G1 Y13.7625
G1 Y14.0125
G1 X15.9285 Y14.0144
G1 X15.9299 Y14.0159
G1 X15.9318 Y14.0165
G1 X15.932
G1 X16.8106
G1 X16.8125 Y14.016
G1 X16.814 Y14.0146
G1 X16.8146 Y14.0127
G1 Y14.0125
G1 Y13.7625
G1 X16.8141 Y13.7606
G1 X16.8127 Y13.7591
G1 X16.8108 Y13.7585
G1 X16.8106
G1 X16.7283
G1 X16.7284 Y13.6415
G1 X17.0329
G1 Y13.7585
G1 X16.9506
G1 X16.9487 Y13.759
G1 X16.9472 Y13.7604
G1 X16.9466 Y13.7623
G1 Y13.7625
G1 Y14.0125
G1 X16.9471 Y14.0144
G1 X16.9485 Y14.0159
G1 X16.9504 Y14.0165
G1 X16.9506
G1 X17.7
G1 X17.7019 Y14.016
G1 X17.7034 Y14.0146
G1 X17.704 Y14.0127
G1 Y14.0125
G1 Y13.0825
G1 X17.7035 Y13.0806
G1 X17.7021 Y13.0791
G1 X17.7002 Y13.0785
G1 X17.7
G1 X17.45
G1 X17.4481 Y13.079
G1 X17.4466 Y13.0804
G1 X17.446 Y13.0823
G1 Y13.0825
G1 Y13.1648
G1 X17.329 Y13.1647
G1 Y12.8603
G1 X17.446
G1 Y12.9425
G1 X17.4465 Y12.9444
G1 X17.4479 Y12.9459
G1 X17.4498 Y12.9465
G1 X17.45
G1 X17.7
G1 X17.7019 Y12.946
G1 X17.7034 Y12.9446
G1 X17.704 Y12.9427
G1 Y12.9425
G1 Y11.8825
G1 X17.7035 Y11.8806
G1 X17.7021 Y11.8791
G1 X17.7002 Y11.8785
G1 X17.7
G1 X17.45
G1 X17.4481 Y11.879
G1 X17.4466 Y11.8804
G1 X17.446 Y11.8823
G1 Y11.8825
G1 Y11.9647
G1 X17.329 Y11.9648
G1 Y11.6603
G1 X17.446
G1 Y11.7425
G1 X17.4465 Y11.7444
G1 X17.4479 Y11.7459
G1 X17.4498 Y11.7465
G1 X17.45
G1 X17.7
G1 X17.7019 Y11.746
G1 X17.7034 Y11.7446
G1 X17.704 Y11.7427
G1 Y11.7425
G1 Y11.3125
G1 X17.7035 Y11.3106
G1 X17.7021 Y11.3091
G1 X17.7002 Y11.3085
G1 X17.7
G1 X12.5016
G1 X12.2528 Y11.0721
G1 X12.251 Y11.0711
G1 X12.25 Y11.071
G1 X11.875
G1 X11.8731 Y11.0715
G1 X11.8716 Y11.0729
G1 X11.871 Y11.0748
G1 Y11.075
G1 Y11.475
G1 X11.8715 Y11.4769
G1 X11.8729 Y11.4784
G1 X11.8748 Y11.479
G1 X11.875
G1 X12.091
( InsideProfile3 )
S1000
G0 Z0.125
G0 X20.6785 Y11.4625
G0 Z0.03
G1 F5.0 Z-0.01
G1 F10.0 X20.678 Y11.4701
G1 X20.6765 Y11.4776
G1 X20.6741 Y11.4849
G1 X20.6707 Y11.4917
G1 X20.6664 Y11.4981
G1 X20.6614 Y11.5039
G1 X20.6556 Y11.5089
G1 X20.6493 Y11.5131
G1 X20.6424 Y11.5165
G1 X20.6352 Y11.519
G1 X20.6277 Y11.5205
G1 X20.62 Y11.521
G1 X20.6124 Y11.5205
G1 X20.6049 Y11.519
G1 X20.5977 Y11.5166
G1 X20.5908 Y11.5132
G1 X20.5844 Y11.5089
G1 X20.5786 Y11.5039
G1 X20.5736 Y11.4981
G1 X20.5693 Y11.4918
G1 X20.566 Y11.4849
G1 X20.5635 Y11.4777
G1 X20.562 Y11.4702
G1 X20.5615 Y11.4625
G1 X20.562 Y11.4549
G1 X20.5635 Y11.4474
G1 X20.5659 Y11.4402
G1 X20.5693 Y11.4333
G1 X20.5736 Y11.4269
G1 X20.5786 Y11.4212
G1 X20.5843 Y11.4161
G1 X20.5907 Y11.4119
G1 X20.5908 Y11.4118
G1 X20.5976 Y11.4085
G1 X20.6049 Y11.406
G1 X20.6124 Y11.4045
G1 X20.62 Y11.404
G1 X20.6276 Y11.4045
G1 X20.6351 Y11.406
G1 X20.6424 Y11.4084
G1 X20.6492 Y11.4118
G1 X20.6556 Y11.4161
G1 X20.6613 Y11.4211
G1 X20.6664 Y11.4269
G1 X20.6706 Y11.4332
G1 X20.674 Y11.4401
G1 X20.6765 Y11.4473
G1 X20.678 Y11.4548
G1 X20.6785 Y11.4624
G1 Y11.4625
G0 Z0.125
G0 X20.8615
G0 Z0.03
G1 F5.0 Z-0.01
G1 F10.0 X20.862 Y11.4549
G1 X20.8635 Y11.4474
G1 X20.8659 Y11.4401
G1 X20.8693 Y11.4333
G1 X20.8736 Y11.4269
G1 X20.8786 Y11.4211
G1 X20.8844 Y11.4161
G1 X20.8907 Y11.4119
G1 X20.8908 Y11.4118
G1 X20.8976 Y11.4085
G1 X20.9049 Y11.406
G1 X20.9124 Y11.4045
G1 X20.92 Y11.404
G1 X20.9276 Y11.4045
G1 X20.9351 Y11.406
G1 X20.9424 Y11.4084
G1 X20.9492 Y11.4118
G1 X20.9556 Y11.4161
G1 X20.9613 Y11.4211
G1 X20.9664 Y11.4269
G1 X20.9706 Y11.4332
G1 X20.974 Y11.4401
G1 X20.9765 Y11.4473
G1 X20.978 Y11.4548
G1 X20.9785 Y11.4624
G1 Y11.4625
G1 X20.978 Y11.4701
G1 X20.9765 Y11.4776
G1 X20.9741 Y11.4849
G1 X20.9707 Y11.4917
G1 X20.9664 Y11.4981
G1 X20.9614 Y11.5039
G1 X20.9556 Y11.5089
G1 X20.9493 Y11.5131
G1 X20.9424 Y11.5165
G1 X20.9352 Y11.519
G1 X20.9277 Y11.5205
G1 X20.92 Y11.521
G1 X20.9124 Y11.5205
G1 X20.9049 Y11.519
G1 X20.8977 Y11.5166
G1 X20.8908 Y11.5132
G1 X20.8844 Y11.5089
G1 X20.8786 Y11.5039
G1 X20.8736 Y11.4981
G1 X20.8693 Y11.4918
G1 X20.866 Y11.4849
G1 X20.8635 Y11.4777
G1 X20.862 Y11.4702
G1 X20.8615 Y11.4625
G0 Z0.125
G0 X20.0535
G0 Z0.03
G1 F5.0 Z-0.01
G1 F10.0 X20.053 Y11.4701
G1 X20.0515 Y11.4776
G1 X20.0491 Y11.4849
G1 X20.0457 Y11.4917
G1 X20.0414 Y11.4981
G1 X20.0364 Y11.5039
G1 X20.0306 Y11.5089
G1 X20.0243 Y11.5131
G1 X20.0174 Y11.5165
G1 X20.0102 Y11.519
G1 X20.0027 Y11.5205
G1 X19.995 Y11.521
G1 X19.9874 Y11.5205
G1 X19.9799 Y11.519
G1 X19.9727 Y11.5166
G1 X19.9658 Y11.5132
G1 X19.9594 Y11.5089
G1 X19.9536 Y11.5039
G1 X19.9486 Y11.4981
G1 X19.9443 Y11.4918
G1 X19.941 Y11.4849
G1 X19.9385 Y11.4777
G1 X19.937 Y11.4702
G1 X19.9365 Y11.4625
G1 X19.937 Y11.4549
G1 X19.9385 Y11.4474
G1 X19.9409 Y11.4402
G1 X19.9443 Y11.4333
G1 X19.9486 Y11.4269
G1 X19.9536 Y11.4212
G1 X19.9593 Y11.4161
G1 X19.9657 Y11.4119
G1 X19.9658 Y11.4118
G1 X19.9726 Y11.4085
G1 X19.9799 Y11.406
G1 X19.9874 Y11.4045
G1 X19.995 Y11.404
G1 X20.0026 Y11.4045
G1 X20.0101 Y11.406
G1 X20.0174 Y11.4084
G1 X20.0242 Y11.4118
G1 X20.0306 Y11.4161
G1 X20.0363 Y11.4211
G1 X20.0414 Y11.4269
G1 X20.0456 Y11.4332
G1 X20.049 Y11.4401
G1 X20.0515 Y11.4473
G1 X20.053 Y11.4548
G1 X20.0535 Y11.4624
G1 Y11.4625
G0 Z0.125
G0 X20.0083 Y11.6555
G0 Z0.03
G1 F5.0 Z-0.01
G1 F10.0 X20.0156 Y11.6578
G1 X20.0226 Y11.6609
G1 X20.0291 Y11.665
G1 X20.035 Y11.6698
G1 X20.0402 Y11.6754
G1 X20.0447 Y11.6816
G1 X20.0483 Y11.6884
G1 X20.051 Y11.6955
G1 X20.0527 Y11.703
G1 X20.0535 Y11.7106
G1 Y11.7125
G1 X20.053 Y11.7201
G1 X20.0515 Y11.7276
G1 X20.0491 Y11.7349
G1 X20.0457 Y11.7417
G1 X20.0414 Y11.7481
G1 X20.0364 Y11.7539
G1 X20.0306 Y11.7589
G1 X20.0243 Y11.7631
G1 X20.0174 Y11.7665
G1 X20.0102 Y11.769
G1 X20.0027 Y11.7705
G1 X19.995 Y11.771
G1 X19.9874 Y11.7705
G1 X19.9799 Y11.769
G1 X19.9727 Y11.7666
G1 X19.9658 Y11.7632
G1 X19.9594 Y11.7589
G1 X19.9536 Y11.7539
G1 X19.9486 Y11.7481
G1 X19.9443 Y11.7418
G1 X19.941 Y11.7349
G1 X19.9385 Y11.7277
G1 X19.937 Y11.7202
G1 X19.9365 Y11.7125
G1 X19.937 Y11.7049
G1 X19.9385 Y11.6974
G1 X19.9409 Y11.6902
G1 X19.9443 Y11.6833
G1 X19.9486 Y11.6769
G1 X19.9536 Y11.6712
G1 X19.9593 Y11.6661
G1 X19.9657 Y11.6619
G1 X19.9658 Y11.6618
G1 X19.9726 Y11.6585
G1 X19.9799 Y11.656
G1 X19.9874 Y11.6545
G1 X19.995 Y11.654
G1 X20.0026 Y11.6545
G1 X20.0083 Y11.6555
G0 Z0.125
G0 X19.7526 Y11.702
G0 Z0.03
G1 F5.0 Z-0.01
G1 F10.0 X19.7534 Y11.7096
G1 X19.7535 Y11.7125
G1 X19.753 Y11.7201
G1 X19.7515 Y11.7276
G1 X19.7491 Y11.7349
G1 X19.7457 Y11.7417
G1 X19.7414 Y11.7481
G1 X19.7364 Y11.7539
G1 X19.7306 Y11.7589
G1 X19.7243 Y11.7631
G1 X19.7174 Y11.7665
G1 X19.7102 Y11.769
G1 X19.7027 Y11.7705
G1 X19.695 Y11.771
G1 X19.6874 Y11.7705
G1 X19.6799 Y11.769
G1 X19.6727 Y11.7666
G1 X19.6658 Y11.7632
G1 X19.6594 Y11.7589
G1 X19.6536 Y11.7539
G1 X19.6486 Y11.7481
G1 X19.6443 Y11.7418
G1 X19.641 Y11.7349
G1 X19.6385 Y11.7277
G1 X19.637 Y11.7202
G1 X19.6365 Y11.7125
G1 X19.637 Y11.7049
G1 X19.6385 Y11.6974
G1 X19.6409 Y11.6902
G1 X19.6443 Y11.6833
G1 X19.6486 Y11.6769
G1 X19.6536 Y11.6712
G1 X19.6593 Y11.6661
G1 X19.6657 Y11.6619
G1 X19.6658 Y11.6618
G1 X19.6726 Y11.6585
G1 X19.6799 Y11.656
G1 X19.6874 Y11.6545
G1 X19.695 Y11.654
G1 X19.7026 Y11.6545
G1 X19.7101 Y11.656
G1 X19.7174 Y11.6584
G1 X19.7242 Y11.6618
G1 X19.7306 Y11.6661
G1 X19.7363 Y11.6711
G1 X19.7414 Y11.6769
G1 X19.7456 Y11.6832
G1 X19.749 Y11.6901
G1 X19.7515 Y11.6973
G1 X19.7526 Y11.702
G0 Z0.125
G0 X19.7087 Y11.5194
G0 Z0.03
G1 F5.0 Z-0.01
G1 F10.0 X19.7011 Y11.5207
G1 X19.6935 Y11.521
G1 X19.6859 Y11.5203
G1 X19.6784 Y11.5186
G1 X19.6712 Y11.516
G1 X19.6658 Y11.5132
G1 X19.6594 Y11.5089
G1 X19.6536 Y11.5039
G1 X19.6486 Y11.4981
G1 X19.6443 Y11.4918
G1 X19.641 Y11.4849
G1 X19.6385 Y11.4777
G1 X19.637 Y11.4702
G1 X19.6365 Y11.4625
G1 X19.637 Y11.4549
G1 X19.6385 Y11.4474
G1 X19.6409 Y11.4402
G1 X19.6443 Y11.4333
G1 X19.6486 Y11.4269
G1 X19.6536 Y11.4212
G1 X19.6593 Y11.4161
G1 X19.6657 Y11.4119
G1 X19.6658 Y11.4118
G1 X19.6726 Y11.4085
G1 X19.6799 Y11.406
G1 X19.6874 Y11.4045
G1 X19.695 Y11.404
G1 X19.7026 Y11.4045
G1 X19.7101 Y11.406
G1 X19.7174 Y11.4084
G1 X19.7242 Y11.4118
G1 X19.7306 Y11.4161
G1 X19.7363 Y11.4211
G1 X19.7414 Y11.4269
G1 X19.7456 Y11.4332
G1 X19.749 Y11.4401
G1 X19.7515 Y11.4473
G1 X19.753 Y11.4548
G1 X19.7535 Y11.4624
G1 Y11.4625
G1 X19.753 Y11.4701
G1 X19.7515 Y11.4776
G1 X19.7491 Y11.4849
G1 X19.7457 Y11.4917
G1 X19.7414 Y11.4981
G1 X19.7364 Y11.5039
G1 X19.7306 Y11.5089
G1 X19.7243 Y11.5131
G1 X19.7174 Y11.5165
G1 X19.7102 Y11.519
G1 X19.7087 Y11.5194
G0 Z0.125
G0 X18.0405 Y11.3227
G0 Z0.03
G1 F5.0 Z-0.01
G1 F10.0 X18.0391 Y11.3307
G1 X18.0367 Y11.3385
G1 X18.0333 Y11.3459
G1 X18.0291 Y11.3528
G1 X18.024 Y11.3592
G1 X18.0182 Y11.3649
G1 X18.0118 Y11.3698
G1 X18.0048 Y11.3739
G1 X17.9973 Y11.3771
G1 X17.9895 Y11.3794
G1 X17.9815 Y11.3807
G1 X17.9734 Y11.381
G1 X17.9653 Y11.3803
G1 X17.9573 Y11.3786
G1 X17.9497 Y11.3759
G1 X17.9424 Y11.3724
G1 X17.942 Y11.3722
G1 X17.9352 Y11.3677
G1 X17.9291 Y11.3624
G1 X17.9236 Y11.3564
G1 X17.9189 Y11.3498
G1 X17.915 Y11.3426
G1 X17.9121 Y11.335
G1 X17.9101 Y11.3271
G1 X17.9091 Y11.3191
G1 Y11.311
G1 X17.9101 Y11.3029
G1 X17.9121 Y11.295
G1 X17.915 Y11.2874
G1 X17.9189 Y11.2803
G1 X17.9236 Y11.2736
G1 X17.929 Y11.2676
G1 X17.9352 Y11.2624
G1 X17.942 Y11.2579
G1 Y11.2578
G1 X17.9493 Y11.2542
G1 X17.9569 Y11.2515
G1 X17.9649 Y11.2498
G1 X17.973 Y11.249
G1 X17.9811 Y11.2493
G1 X17.9891 Y11.2505
G1 X17.9969 Y11.2527
G1 X18.0044 Y11.2559
G1 X18.0114 Y11.26
G1 X18.0179 Y11.2649
G1 X18.0238 Y11.2705
G1 X18.0289 Y11.2768
G1 X18.0331 Y11.2838
G1 X18.0365 Y11.2911
G1 X18.039 Y11.2989
G1 X18.0405 Y11.3069
G1 X18.041 Y11.315
G1 X18.0405 Y11.3227
G0 Z0.125
G0 X17.9766 Y13.944
G0 Z0.03
G1 F5.0 Z-0.01
G1 F10.0 X17.9847 Y13.9447
G1 X17.9927 Y13.9464
G1 X18.0003 Y13.9491
G1 X18.0076 Y13.9526
G1 X18.0144 Y13.9571
G1 X18.0206 Y13.9623
G1 X18.0261 Y13.9683
G1 X18.0309 Y13.9749
G1 X18.0348 Y13.982
G1 X18.0378 Y13.9896
G1 X18.0398 Y13.9974
G1 X18.0408 Y14.0055
G1 X18.041 Y14.01
G1 X18.0405 Y14.0181
G1 X18.039 Y14.0261
G1 X18.0365 Y14.0338
G1 X18.0332 Y14.0412
G1 X18.0289 Y14.0481
G1 X18.0238 Y14.0545
G1 X18.018 Y14.0601
G1 X18.0115 Y14.065
G1 X18.0044 Y14.0691
G1 X17.997 Y14.0722
G1 X17.9891 Y14.0745
G1 X17.9811 Y14.0757
G1 X17.973 Y14.076
G1 X17.9649 Y14.0752
G1 X17.957 Y14.0735
G1 X17.9493 Y14.0708
G1 X17.942 Y14.0672
G1 X17.9352 Y14.0627
G1 X17.9291 Y14.0574
G1 X17.9236 Y14.0514
G1 X17.9189 Y14.0448
G1 X17.915 Y14.0376
G1 X17.9121 Y14.03
G1 X17.9101 Y14.0221
G1 X17.9091 Y14.0141
G1 Y14.006
G1 X17.9101 Y13.9979
G1 X17.9121 Y13.99
G1 X17.915 Y13.9824
G1 X17.9189 Y13.9753
G1 X17.9236 Y13.9686
G1 X17.929 Y13.9626
G1 X17.9352 Y13.9574
G1 X17.942 Y13.9529
G1 Y13.9528
G1 X17.9493 Y13.9492
G1 X17.9569 Y13.9465
G1 X17.9649 Y13.9448
G1 X17.973 Y13.944
G1 X17.9766
( OutsideProfile3 )
S1000
G0 Z0.125
G0 X18.066 Y11.479
G0 Z0.03
G1 F5.0 Z-0.01
G1 F10.0 Y13.846
G1 X17.85
G1 X17.8481 Y13.8465
G1 X17.8466 Y13.8479
G1 X17.846 Y13.8498
G1 Y13.85
G1 Y14.25
G1 X17.8465 Y14.2519
G1 X17.8479 Y14.2534
G1 X17.8498 Y14.254
G1 X17.85
G1 X18.225
G1 X18.2269 Y14.2535
G1 X18.2278 Y14.2529
G1 X18.4766 Y14.0165
G1 X21.767
G1 X21.7689 Y14.016
G1 X21.7704 Y14.0146
G1 X21.771 Y14.0127
G1 Y14.0125
G1 Y13.7625
G1 X21.7705 Y13.7606
G1 X21.7691 Y13.7591
G1 X21.7672 Y13.7585
G1 X21.767
G1 X21.6848
G1 Y13.6415
G1 X21.9893
G1 X21.9892 Y13.7585
G1 X21.907
G1 X21.9051 Y13.759
G1 X21.9036 Y13.7604
G1 X21.903 Y13.7623
G1 Y13.7625
G1 Y14.0125
G1 X21.9035 Y14.0144
G1 X21.9049 Y14.0159
G1 X21.9068 Y14.0165
G1 X21.907
G1 X22.7856
G1 X22.7875 Y14.016
G1 X22.789 Y14.0146
G1 X22.7896 Y14.0127
G1 Y14.0125
G1 Y13.7625
G1 X22.7891 Y13.7606
G1 X22.7877 Y13.7591
G1 X22.7858 Y13.7585
G1 X22.7856
G1 X22.7033
G1 Y13.6415
G1 X23.0079
G1 X23.0078 Y13.7585
G1 X22.9256
G1 X22.9237 Y13.759
G1 X22.9222 Y13.7604
G1 X22.9216 Y13.7623
G1 Y13.7625
G1 Y14.0125
G1 X22.9221 Y14.0144
G1 X22.9235 Y14.0159
G1 X22.9254 Y14.0165
G1 X22.9256
G1 X23.675
G1 X23.6769 Y14.016
G1 X23.6784 Y14.0146
G1 X23.679 Y14.0127
G1 Y14.0125
G1 Y13.0825
G1 X23.6785 Y13.0806
G1 X23.6771 Y13.0791
G1 X23.6752 Y13.0785
G1 X23.675
G1 X23.425
G1 X23.4231 Y13.079
G1 X23.4216 Y13.0804
G1 X23.421 Y13.0823
G1 Y13.0825
G1 Y13.1647
G1 X23.304 Y13.1648
G1 Y12.8602
G1 X23.421 Y12.8603
G1 Y12.9425
G1 X23.4215 Y12.9444
G1 X23.4229 Y12.9459
G1 X23.4248 Y12.9465
G1 X23.425
G1 X23.675
G1 X23.6769 Y12.946
G1 X23.6784 Y12.9446
G1 X23.679 Y12.9427
G1 Y12.9425
G1 Y11.8825
G1 X23.6785 Y11.8806
G1 X23.6771 Y11.8791
G1 X23.6752 Y11.8785
G1 X23.675
G1 X23.425
G1 X23.4231 Y11.879
G1 X23.4216 Y11.8804
G1 X23.421 Y11.8823
G1 Y11.8825
G1 Y11.9648
G1 X23.304 Y11.9647
G1 Y11.6602
G1 X23.421
G1 Y11.7425
G1 X23.4215 Y11.7444
G1 X23.4229 Y11.7459
G1 X23.4248 Y11.7465
G1 X23.425
G1 X23.675
G1 X23.6769 Y11.746
G1 X23.6784 Y11.7446
G1 X23.679 Y11.7427
G1 Y11.7425
G1 Y11.3125
G1 X23.6785 Y11.3106
G1 X23.6771 Y11.3091
G1 X23.6752 Y11.3085
G1 X23.675
G1 X18.4766
G1 X18.2278 Y11.0721
G1 X18.226 Y11.0711
G1 X18.225 Y11.071
G1 X17.85
G1 X17.8481 Y11.0715
G1 X17.8466 Y11.0729
G1 X17.846 Y11.0748
G1 Y11.075
G1 Y11.475
G1 X17.8465 Y11.4769
G1 X17.8479 Y11.4784
G1 X17.8498 Y11.479
G1 X17.85
G1 X18.066
( OutsideProfileRB )
S1000
G0 Z0.125
G0 X18.975 Y10.2174
G0 Z0.03
G1 F5.0 Z-0.01
G1 F10.0 X18.5034
G1 X18.5015 Y10.2179
G1 X18.5001 Y10.2193
G1 X18.4995 Y10.2212
G1 X18.4994 Y10.2214
G1 Y10.2534
G1 X18.4999 Y10.2554
G1 X18.5006 Y10.2563
G1 X18.8193 Y10.575
G1 X18.5006 Y10.8937
G1 X18.4996 Y10.8954
G1 X18.4994 Y10.8966
G1 Y10.9286
G1 X18.4999 Y10.9305
G1 X18.5013 Y10.9319
G1 X18.5032 Y10.9325
G1 X18.5034 Y10.9326
G1 X18.6352
G1 Y11.1386
G1 X18.6357 Y11.1405
G1 X18.6371 Y11.1419
G1 X18.639 Y11.1425
G1 X18.6392 Y11.1426
G1 X18.7127
G1 X18.7147 Y11.1421
G1 X18.7161 Y11.1407
G1 X18.7167 Y11.1391
G1 X18.7317 Y11.0324
G1 Y11.0318
G1 Y10.8436
G1 X18.7322 Y10.8396
G1 X18.7337 Y10.8359
G1 X18.736 Y10.8326
G1 X18.7391 Y10.8301
G1 X18.7427 Y10.8284
G1 X18.7467 Y10.8276
G1 X18.7477
G1 X18.8307
G1 X18.8347 Y10.8281
G1 X18.8384 Y10.8295
G1 X18.8417 Y10.8319
G1 X18.8442 Y10.8349
G1 X18.8459 Y10.8386
G1 X18.8467 Y10.8425
G1 Y10.8436
G1 Y11.0318
G1 X18.8468 Y11.0324
G1 X18.8618 Y11.1391
G1 X18.8625 Y11.141
G1 X18.8641 Y11.1422
G1 X18.8657 Y11.1426
G1 X18.9392
G1 X18.9412 Y11.1421
G1 X18.9426 Y11.1407
G1 X18.9432 Y11.1388
G1 Y11.1386
G1 Y10.9326
G1 X19.075
G1 X19.0769 Y10.9321
G1 X19.0784 Y10.9307
G1 X19.079 Y10.9288
G1 Y10.9286
G1 Y10.3214
G1 X19.0785 Y10.3113
G1 X19.077 Y10.3012
G1 X19.0745 Y10.2913
G1 X19.0711 Y10.2817
G1 X19.0667 Y10.2725
G1 X19.0615 Y10.2637
G1 X19.0554 Y10.2555
G1 X19.0486 Y10.248
G1 X19.041 Y10.2411
G1 X19.0328 Y10.235
G1 X19.0241 Y10.2298
G1 X19.0149 Y10.2254
G1 X19.0053 Y10.222
G1 X18.9954 Y10.2195
G1 X18.9853 Y10.218
G1 X18.9751 Y10.2174
G1 X18.975
G0 Z0.125
G0 X18.9646 Y10.0925
G0 Z0.03
G1 F5.0 Z-0.01
G1 F10.0 X18.9664 Y10.0919
G1 X18.9678 Y10.0904
G1 X18.9682 Y10.0886
G1 Y9.8826
G1 X19.1
G1 X19.1019 Y9.8821
G1 X19.1034 Y9.8807
G1 X19.104 Y9.8788
G1 Y9.8786
G1 Y9.2714
G1 X19.1035 Y9.2613
G1 X19.102 Y9.2512
G1 X19.0995 Y9.2413
G1 X19.0961 Y9.2317
G1 X19.0917 Y9.2225
G1 X19.0865 Y9.2137
G1 X19.0804 Y9.2055
G1 X19.0736 Y9.198
G1 X19.066 Y9.1911
G1 X19.0578 Y9.185
G1 X19.0491 Y9.1798
G1 X19.0399 Y9.1754
G1 X19.0303 Y9.172
G1 X19.0204 Y9.1695
G1 X19.0103 Y9.168
G1 X19.0001 Y9.1674
G1 X19.0
G1 X18.5284
G1 X18.5265 Y9.1679
G1 X18.5251 Y9.1693
G1 X18.5245 Y9.1712
G1 X18.5244 Y9.1714
G1 Y9.2034
G1 X18.5249 Y9.2054
G1 X18.5256 Y9.2063
G1 X18.8443 Y9.525
G1 X18.5256 Y9.8437
G1 X18.5246 Y9.8454
G1 X18.5244 Y9.8466
G1 Y9.8786
G1 X18.5249 Y9.8805
G1 X18.5263 Y9.8819
G1 X18.5282 Y9.8825
G1 X18.5284 Y9.8826
G1 X18.6602
G1 Y10.0886
G1 X18.6607 Y10.0905
G1 X18.6621 Y10.0919
G1 X18.664 Y10.0925
G1 X18.6642 Y10.0926
G1 X18.7377
G1 X18.7397 Y10.0921
G1 X18.7411 Y10.0907
G1 X18.7417 Y10.0891
G1 X18.7567 Y9.9824
G1 Y9.9818
G1 Y9.7936
G1 X18.7572 Y9.7896
G1 X18.7587 Y9.7859
G1 X18.761 Y9.7826
G1 X18.7641 Y9.7801
G1 X18.7677 Y9.7784
G1 X18.7717 Y9.7776
G1 X18.7727
G1 X18.8557
G1 X18.8597 Y9.7781
G1 X18.8634 Y9.7795
G1 X18.8667 Y9.7819
G1 X18.8692 Y9.7849
G1 X18.8709 Y9.7886
G1 X18.8717 Y9.7925
G1 Y9.7936
G1 Y9.9818
G1 X18.8718 Y9.9824
G1 X18.8868 Y10.0891
G1 X18.8875 Y10.091
G1 X18.8891 Y10.0922
G1 X18.8907 Y10.0926
G1 X18.9642
G1 X18.9646 Y10.0925
G0 Z0.125
G0 X19.2 Y9.9555
G0 Z0.03
G1 F5.0 Z-0.01
G1 F10.0 X19.2006 Y9.9563
G1 X19.5193 Y10.275
G1 X19.2006 Y10.5937
G1 X19.1996 Y10.5954
G1 X19.1994 Y10.5966
G1 Y10.6286
G1 X19.1999 Y10.6305
G1 X19.2013 Y10.6319
G1 X19.2032 Y10.6325
G1 X19.2034 Y10.6326
G1 X19.3352
G1 Y10.8386
G1 X19.3357 Y10.8405
G1 X19.3371 Y10.8419
G1 X19.339 Y10.8425
G1 X19.3392 Y10.8426
G1 X19.4127
G1 X19.4147 Y10.8421
G1 X19.4161 Y10.8407
G1 X19.4167 Y10.8391
G1 X19.4317 Y10.7324
G1 Y10.7318
G1 Y10.5436
G1 X19.4322 Y10.5396
G1 X19.4337 Y10.5359
G1 X19.436 Y10.5326
G1 X19.4391 Y10.5301
G1 X19.4427 Y10.5284
G1 X19.4467 Y10.5276
G1 X19.4477
G1 X19.5307
G1 X19.5347 Y10.5281
G1 X19.5384 Y10.5295
G1 X19.5417 Y10.5319
G1 X19.5442 Y10.5349
G1 X19.5459 Y10.5386
G1 X19.5467 Y10.5425
G1 Y10.5436
G1 Y10.7318
G1 X19.5468 Y10.7324
G1 X19.5618 Y10.8391
G1 X19.5625 Y10.841
G1 X19.5641 Y10.8422
G1 X19.5657 Y10.8426
G1 X19.6392
G1 X19.6412 Y10.8421
G1 X19.6426 Y10.8407
G1 X19.6432 Y10.8388
G1 Y10.8386
G1 Y10.6326
G1 X19.775
G1 X19.7769 Y10.6321
G1 X19.7784 Y10.6307
G1 X19.779 Y10.6288
G1 Y10.6286
G1 Y10.0214
G1 X19.7785 Y10.0113
G1 X19.777 Y10.0012
G1 X19.7745 Y9.9913
G1 X19.7711 Y9.9817
G1 X19.7667 Y9.9725
G1 X19.7615 Y9.9637
G1 X19.7554 Y9.9555
G1 X19.7486 Y9.948
G1 X19.741 Y9.9411
G1 X19.7328 Y9.935
G1 X19.7241 Y9.9298
G1 X19.7149 Y9.9254
G1 X19.7053 Y9.922
G1 X19.6954 Y9.9195
G1 X19.6853 Y9.918
G1 X19.6751 Y9.9174
G1 X19.675
G1 X19.2034
G1 X19.2015 Y9.9179
G1 X19.2001 Y9.9193
G1 X19.1995 Y9.9212
G1 X19.1994 Y9.9214
G1 Y9.9534
G1 X19.1999 Y9.9554
G1 X19.2 Y9.9555
G0 Z0.125
G0 X19.3364 Y9.8164
G0 Z0.03
G1 F5.0 Z-0.01
G1 F10.0 X19.3382 Y9.8174
G1 X19.3392 Y9.8176
G1 X19.4127
G1 X19.4147 Y9.8171
G1 X19.4161 Y9.8157
G1 X19.4167 Y9.8141
G1 X19.4317 Y9.7074
G1 Y9.7068
G1 Y9.5186
G1 X19.4322 Y9.5146
G1 X19.4337 Y9.5109
G1 X19.436 Y9.5076
G1 X19.4391 Y9.5051
G1 X19.4427 Y9.5034
G1 X19.4467 Y9.5026
G1 X19.4477
G1 X19.5307
G1 X19.5347 Y9.5031
G1 X19.5384 Y9.5045
G1 X19.5417 Y9.5069
G1 X19.5442 Y9.5099
G1 X19.5459 Y9.5136
G1 X19.5467 Y9.5175
G1 Y9.5186
G1 Y9.7068
G1 X19.5468 Y9.7074
G1 X19.5618 Y9.8141
G1 X19.5625 Y9.816
G1 X19.5641 Y9.8172
G1 X19.5657 Y9.8176
G1 X19.6392
G1 X19.6412 Y9.8171
G1 X19.6426 Y9.8157
G1 X19.6432 Y9.8138
G1 Y9.8136
G1 Y9.6076
G1 X19.775
G1 X19.7769 Y9.6071
G1 X19.7784 Y9.6057
G1 X19.779 Y9.6038
G1 Y9.6036
G1 Y8.9964
G1 X19.7785 Y8.9863
G1 X19.777 Y8.9762
G1 X19.7745 Y8.9663
G1 X19.7711 Y8.9567
G1 X19.7667 Y8.9475
G1 X19.7615 Y8.9387
G1 X19.7554 Y8.9305
G1 X19.7486 Y8.923
G1 X19.741 Y8.9161
G1 X19.7328 Y8.91
G1 X19.7241 Y8.9048
G1 X19.7149 Y8.9004
G1 X19.7053 Y8.897
G1 X19.6954 Y8.8945
G1 X19.6853 Y8.893
G1 X19.6751 Y8.8924
G1 X19.675
G1 X19.2034
G1 X19.2015 Y8.8929
G1 X19.2001 Y8.8943
G1 X19.1995 Y8.8962
G1 X19.1994 Y8.8964
G1 Y8.9284
G1 X19.1999 Y8.9304
G1 X19.2006 Y8.9313
G1 X19.5193 Y9.25
G1 X19.2006 Y9.5687
G1 X19.1996 Y9.5704
G1 X19.1994 Y9.5716
G1 Y9.6036
G1 X19.1999 Y9.6055
G1 X19.2013 Y9.6069
G1 X19.2032 Y9.6075
G1 X19.2034 Y9.6076
G1 X19.3352
G1 Y9.8136
G1 X19.3357 Y9.8155
G1 X19.3364 Y9.8164
G0 Z0.125
G0 X19.8995 Y9.9207
G0 Z0.03
G1 F5.0 Z-0.01
G1 F10.0 X19.8994 Y9.9214
G1 Y9.9534
G1 X19.8999 Y9.9554
G1 X19.9006 Y9.9563
G1 X20.2193 Y10.275
G1 X19.9006 Y10.5937
G1 X19.8996 Y10.5954
G1 X19.8994 Y10.5966
G1 Y10.6286
G1 X19.8999 Y10.6305
G1 X19.9013 Y10.6319
G1 X19.9032 Y10.6325
G1 X19.9034 Y10.6326
G1 X20.0352
G1 Y10.8386
G1 X20.0357 Y10.8405
G1 X20.0371 Y10.8419
G1 X20.039 Y10.8425
G1 X20.0392 Y10.8426
G1 X20.1127
G1 X20.1147 Y10.8421
G1 X20.1161 Y10.8407
G1 X20.1167 Y10.8391
G1 X20.1317 Y10.7324
G1 Y10.7318
G1 Y10.5436
G1 X20.1322 Y10.5396
G1 X20.1337 Y10.5359
G1 X20.136 Y10.5326
G1 X20.1391 Y10.5301
G1 X20.1427 Y10.5284
G1 X20.1467 Y10.5276
G1 X20.1477
G1 X20.2307
G1 X20.2347 Y10.5281
G1 X20.2384 Y10.5295
G1 X20.2417 Y10.5319
G1 X20.2442 Y10.5349
G1 X20.2459 Y10.5386
G1 X20.2467 Y10.5425
G1 Y10.5436
G1 Y10.7318
G1 X20.2468 Y10.7324
G1 X20.2618 Y10.8391
G1 X20.2625 Y10.841
G1 X20.2641 Y10.8422
G1 X20.2657 Y10.8426
G1 X20.3392
G1 X20.3412 Y10.8421
G1 X20.3426 Y10.8407
G1 X20.3432 Y10.8388
G1 Y10.8386
G1 Y10.6326
G1 X20.475
G1 X20.4769 Y10.6321
G1 X20.4784 Y10.6307
G1 X20.479 Y10.6288
G1 Y10.6286
G1 Y10.0214
G1 X20.4785 Y10.0113
G1 X20.477 Y10.0012
G1 X20.4745 Y9.9913
G1 X20.4711 Y9.9817
G1 X20.4667 Y9.9725
G1 X20.4615 Y9.9637
G1 X20.4554 Y9.9555
G1 X20.4486 Y9.948
G1 X20.441 Y9.9411
G1 X20.4328 Y9.935
G1 X20.4241 Y9.9298
G1 X20.4149 Y9.9254
G1 X20.4053 Y9.922
G1 X20.3954 Y9.9195
G1 X20.3853 Y9.918
G1 X20.3751 Y9.9174
G1 X20.375
G1 X19.9034
G1 X19.9015 Y9.9179
G1 X19.9001 Y9.9193
G1 X19.8995 Y9.9207
G0 Z0.125
G0 X20.0113 Y9.8163
G0 Z0.03
G1 F5.0 Z-0.01
G1 F10.0 X20.013 Y9.8174
G1 X20.0142 Y9.8176
G1 X20.0877
G1 X20.0897 Y9.8171
G1 X20.0911 Y9.8157
G1 X20.0917 Y9.8141
G1 X20.1067 Y9.7074
G1 Y9.7068
G1 Y9.5186
G1 X20.1072 Y9.5146
G1 X20.1087 Y9.5109
G1 X20.111 Y9.5076
G1 X20.1141 Y9.5051
G1 X20.1177 Y9.5034
G1 X20.1217 Y9.5026
G1 X20.1227
G1 X20.2057
G1 X20.2097 Y9.5031
G1 X20.2134 Y9.5045
G1 X20.2167 Y9.5069
G1 X20.2192 Y9.5099
G1 X20.2209 Y9.5136
G1 X20.2217 Y9.5175
G1 Y9.5186
G1 Y9.7068
G1 X20.2218 Y9.7074
G1 X20.2368 Y9.8141
G1 X20.2375 Y9.816
G1 X20.2391 Y9.8172
G1 X20.2407 Y9.8176
G1 X20.3142
G1 X20.3162 Y9.8171
G1 X20.3176 Y9.8157
G1 X20.3182 Y9.8138
G1 Y9.8136
G1 Y9.6076
G1 X20.45
G1 X20.4519 Y9.6071
G1 X20.4534 Y9.6057
G1 X20.454 Y9.6038
G1 Y9.6036
G1 Y8.9964
G1 X20.4535 Y8.9863
G1 X20.452 Y8.9762
G1 X20.4495 Y8.9663
G1 X20.4461 Y8.9567
G1 X20.4417 Y8.9475
G1 X20.4365 Y8.9387
G1 X20.4304 Y8.9305
G1 X20.4236 Y8.923
G1 X20.416 Y8.9161
G1 X20.4078 Y8.91
G1 X20.3991 Y8.9048
G1 X20.3899 Y8.9004
G1 X20.3803 Y8.897
G1 X20.3704 Y8.8945
G1 X20.3603 Y8.893
G1 X20.3501 Y8.8924
G1 X20.35
G1 X19.8784
G1 X19.8765 Y8.8929
G1 X19.8751 Y8.8943
G1 X19.8745 Y8.8962
G1 X19.8744 Y8.8964
G1 Y8.9284
G1 X19.8749 Y8.9304
G1 X19.8756 Y8.9313
G1 X20.1943 Y9.25
G1 X19.8756 Y9.5687
G1 X19.8746 Y9.5704
G1 X19.8744 Y9.5716
G1 Y9.6036
G1 X19.8749 Y9.6055
G1 X19.8763 Y9.6069
G1 X19.8782 Y9.6075
G1 X19.8784 Y9.6076
G1 X20.0102
G1 Y9.8136
G1 X20.0107 Y9.8155
G1 X20.0113 Y9.8163
G0 Z0.125
G0 X18.9675 Y9.0659
G0 Z0.03
G1 F5.0 Z-0.01
G1 F10.0 X18.9682 Y9.064
G1 Y9.0636
G1 Y8.8576
G1 X19.1
G1 X19.1019 Y8.8571
G1 X19.1034 Y8.8557
G1 X19.104 Y8.8538
G1 Y8.8536
G1 Y8.2464
G1 X19.1035 Y8.2363
G1 X19.102 Y8.2262
G1 X19.0995 Y8.2163
G1 X19.0961 Y8.2067
G1 X19.0917 Y8.1975
G1 X19.0865 Y8.1887
G1 X19.0804 Y8.1805
G1 X19.0736 Y8.173
G1 X19.066 Y8.1661
G1 X19.0578 Y8.16
G1 X19.0491 Y8.1548
G1 X19.0399 Y8.1504
G1 X19.0303 Y8.147
G1 X19.0204 Y8.1445
G1 X19.0103 Y8.143
G1 X19.0001 Y8.1424
G1 X19.0
G1 X18.5284
G1 X18.5265 Y8.1429
G1 X18.5251 Y8.1443
G1 X18.5245 Y8.1462
G1 X18.5244 Y8.1464
G1 Y8.1784
G1 X18.5249 Y8.1804
G1 X18.5256 Y8.1813
G1 X18.8443 Y8.5
G1 X18.5256 Y8.8187
G1 X18.5246 Y8.8204
G1 X18.5244 Y8.8216
G1 Y8.8536
G1 X18.5249 Y8.8555
G1 X18.5263 Y8.8569
G1 X18.5282 Y8.8575
G1 X18.5284 Y8.8576
G1 X18.6602
G1 Y9.0636
G1 X18.6607 Y9.0655
G1 X18.6621 Y9.0669
G1 X18.664 Y9.0675
G1 X18.6642 Y9.0676
G1 X18.7377
G1 X18.7397 Y9.0671
G1 X18.7411 Y9.0657
G1 X18.7417 Y9.0641
G1 X18.7567 Y8.9574
G1 Y8.9568
G1 Y8.7686
G1 X18.7572 Y8.7646
G1 X18.7587 Y8.7609
G1 X18.761 Y8.7576
G1 X18.7641 Y8.7551
G1 X18.7677 Y8.7534
G1 X18.7717 Y8.7526
G1 X18.7727
G1 X18.8557
G1 X18.8597 Y8.7531
G1 X18.8634 Y8.7545
G1 X18.8667 Y8.7569
G1 X18.8692 Y8.7599
G1 X18.8709 Y8.7636
G1 X18.8717 Y8.7675
G1 Y8.7686
G1 Y8.9568
G1 X18.8718 Y8.9574
G1 X18.8868 Y9.0641
G1 X18.8875 Y9.066
G1 X18.8891 Y9.0672
G1 X18.8907 Y9.0676
G1 X18.9642
G1 X18.9662 Y9.0671
G1 X18.9675 Y9.0659
G0 Z0.125
G0 X18.404
G0 Z0.03
G1 F5.0 Z-0.01
G1 F10.0 Y8.9964
G1 X18.4035 Y8.9863
G1 X18.402 Y8.9762
G1 X18.3995 Y8.9663
G1 X18.3961 Y8.9567
G1 X18.3917 Y8.9475
G1 X18.3865 Y8.9387
G1 X18.3804 Y8.9305
G1 X18.3736 Y8.923
G1 X18.366 Y8.9161
G1 X18.3578 Y8.91
G1 X18.3491 Y8.9048
G1 X18.3399 Y8.9004
G1 X18.3303 Y8.897
G1 X18.3204 Y8.8945
G1 X18.3103 Y8.893
G1 X18.3001 Y8.8924
G1 X18.3
G1 X17.8284
G1 X17.8265 Y8.8929
G1 X17.8251 Y8.8943
G1 X17.8245 Y8.8962
G1 X17.8244 Y8.8964
G1 Y8.9284
G1 X17.8249 Y8.9304
G1 X17.8256 Y8.9313
G1 X18.1443 Y9.25
G1 X17.8256 Y9.5687
G1 X17.8246 Y9.5704
G1 X17.8244 Y9.5716
G1 Y9.6036
G1 X17.8249 Y9.6055
G1 X17.8263 Y9.6069
G1 X17.8282 Y9.6075
G1 X17.8284 Y9.6076
G1 X17.9602
G1 Y9.8136
G1 X17.9607 Y9.8155
G1 X17.9621 Y9.8169
G1 X17.964 Y9.8175
G1 X17.9642 Y9.8176
G1 X18.0377
G1 X18.0397 Y9.8171
G1 X18.0411 Y9.8157
G1 X18.0417 Y9.8141
G1 X18.0567 Y9.7074
G1 Y9.7068
G1 Y9.5186
G1 X18.0572 Y9.5146
G1 X18.0587 Y9.5109
G1 X18.061 Y9.5076
G1 X18.0641 Y9.5051
G1 X18.0677 Y9.5034
G1 X18.0717 Y9.5026
G1 X18.0727
G1 X18.1557
G1 X18.1597 Y9.5031
G1 X18.1634 Y9.5045
G1 X18.1667 Y9.5069
G1 X18.1692 Y9.5099
G1 X18.1709 Y9.5136
G1 X18.1717 Y9.5175
G1 Y9.5186
G1 Y9.7068
G1 X18.1718 Y9.7074
G1 X18.1868 Y9.8141
G1 X18.1875 Y9.816
G1 X18.1891 Y9.8172
G1 X18.1907 Y9.8176
G1 X18.2642
G1 X18.2662 Y9.8171
G1 X18.2676 Y9.8157
G1 X18.2682 Y9.8138
G1 Y9.8136
G1 Y9.6076
G1 X18.4
G1 X18.4019 Y9.6071
G1 X18.4034 Y9.6057
G1 X18.404 Y9.6038
G1 Y9.6036
G1 Y9.0659
G0 Z0.125
G0 X17.6759 Y9.2464
G0 Z0.03
G1 F5.0 Z-0.01
G1 F10.0 X17.673 Y9.2367
G1 X17.6691 Y9.2272
G1 X17.6643 Y9.2182
G1 X17.6587 Y9.2097
G1 X17.6523 Y9.2018
G1 X17.6451 Y9.1946
G1 X17.6372 Y9.1881
G1 X17.6287 Y9.1824
G1 X17.6198 Y9.1776
G1 X17.6103 Y9.1736
G1 X17.6006 Y9.1706
G1 X17.5906 Y9.1686
G1 X17.5805 Y9.1676
G1 X17.575 Y9.1674
G1 X17.1034
G1 X17.1015 Y9.1679
G1 X17.1001 Y9.1693
G1 X17.0995 Y9.1712
G1 X17.0994 Y9.1714
G1 Y9.2034
G1 X17.0999 Y9.2054
G1 X17.1006 Y9.2063
G1 X17.4193 Y9.525
G1 X17.1006 Y9.8437
G1 X17.0996 Y9.8454
G1 X17.0994 Y9.8466
G1 Y9.8786
G1 X17.0999 Y9.8805
G1 X17.1013 Y9.8819
G1 X17.1032 Y9.8825
G1 X17.1034 Y9.8826
G1 X17.2352
G1 Y10.0886
G1 X17.2357 Y10.0905
G1 X17.2371 Y10.0919
G1 X17.239 Y10.0925
G1 X17.2392 Y10.0926
G1 X17.3127
G1 X17.3147 Y10.0921
G1 X17.3161 Y10.0907
G1 X17.3167 Y10.0891
G1 X17.3317 Y9.9824
G1 Y9.9818
G1 Y9.7936
G1 X17.3322 Y9.7896
G1 X17.3337 Y9.7859
G1 X17.336 Y9.7826
G1 X17.3391 Y9.7801
G1 X17.3427 Y9.7784
G1 X17.3467 Y9.7776
G1 X17.3477
G1 X17.4307
G1 X17.4347 Y9.7781
G1 X17.4384 Y9.7795
G1 X17.4417 Y9.7819
G1 X17.4442 Y9.7849
G1 X17.4459 Y9.7886
G1 X17.4467 Y9.7925
G1 Y9.7936
G1 Y9.9818
G1 X17.4468 Y9.9824
G1 X17.4618 Y10.0891
G1 X17.4625 Y10.091
G1 X17.4641 Y10.0922
G1 X17.4657 Y10.0926
G1 X17.5392
G1 X17.5412 Y10.0921
G1 X17.5426 Y10.0907
G1 X17.5432 Y10.0888
G1 Y10.0886
G1 Y9.8826
G1 X17.675
G1 X17.6769 Y9.8821
G1 X17.6784 Y9.8807
G1 X17.679 Y9.8788
G1 Y9.8786
G1 Y9.2714
G1 X17.6785 Y9.2613
G1 X17.677 Y9.2512
G1 X17.6759 Y9.2464
G0 Z0.125
G0 X17.5416 Y9.0668
G0 Z0.03
G1 F5.0 Z-0.01
G1 F10.0 X17.5429 Y9.0652
G1 X17.5432 Y9.0636
G1 Y8.8576
G1 X17.675
G1 X17.6769 Y8.8571
G1 X17.6784 Y8.8557
G1 X17.679 Y8.8538
G1 Y8.8536
G1 Y8.2464
G1 X17.6785 Y8.2363
G1 X17.677 Y8.2262
G1 X17.6745 Y8.2163
G1 X17.6711 Y8.2067
G1 X17.6667 Y8.1975
G1 X17.6615 Y8.1887
G1 X17.6554 Y8.1805
G1 X17.6486 Y8.173
G1 X17.641 Y8.1661
G1 X17.6328 Y8.16
G1 X17.6241 Y8.1548
G1 X17.6149 Y8.1504
G1 X17.6053 Y8.147
G1 X17.5954 Y8.1445
G1 X17.5853 Y8.143
G1 X17.5751 Y8.1424
G1 X17.575
G1 X17.1034
G1 X17.1015 Y8.1429
G1 X17.1001 Y8.1443
G1 X17.0995 Y8.1462
G1 X17.0994 Y8.1464
G1 Y8.1784
G1 X17.0999 Y8.1804
G1 X17.1006 Y8.1813
G1 X17.4193 Y8.5
G1 X17.1006 Y8.8187
G1 X17.0996 Y8.8204
G1 X17.0994 Y8.8216
G1 Y8.8536
G1 X17.0999 Y8.8555
G1 X17.1013 Y8.8569
G1 X17.1032 Y8.8575
G1 X17.1034 Y8.8576
G1 X17.2352
G1 Y9.0636
G1 X17.2357 Y9.0655
G1 X17.2371 Y9.0669
G1 X17.239 Y9.0675
G1 X17.2392 Y9.0676
G1 X17.3127
G1 X17.3147 Y9.0671
G1 X17.3161 Y9.0657
G1 X17.3167 Y9.0641
G1 X17.3317 Y8.9574
G1 Y8.9568
G1 Y8.7686
G1 X17.3322 Y8.7646
G1 X17.3337 Y8.7609
G1 X17.336 Y8.7576
G1 X17.3391 Y8.7551
G1 X17.3427 Y8.7534
G1 X17.3467 Y8.7526
G1 X17.3477
G1 X17.4307
G1 X17.4347 Y8.7531
G1 X17.4384 Y8.7545
G1 X17.4417 Y8.7569
G1 X17.4442 Y8.7599
G1 X17.4459 Y8.7636
G1 X17.4467 Y8.7675
G1 Y8.7686
G1 Y8.9568
G1 X17.4468 Y8.9574
G1 X17.4618 Y9.0641
G1 X17.4625 Y9.066
G1 X17.4641 Y9.0672
G1 X17.4657 Y9.0676
G1 X17.5392
G1 X17.5412 Y9.0671
G1 X17.5416 Y9.0668
G0 Z0.125
G0 X17.8023 Y9.9176
G0 Z0.03
G1 F5.0 Z-0.01
G1 F10.0 X17.8006 Y9.9187
G1 X17.7996 Y9.9204
G1 X17.7994 Y9.9214
G1 Y9.9534
G1 X17.7999 Y9.9554
G1 X17.8006 Y9.9563
G1 X18.1193 Y10.275
G1 X17.8006 Y10.5937
G1 X17.7996 Y10.5954
G1 X17.7994 Y10.5966
G1 Y10.6286
G1 X17.7999 Y10.6305
G1 X17.8013 Y10.6319
G1 X17.8032 Y10.6325
G1 X17.8034 Y10.6326
G1 X17.9352
G1 Y10.8386
G1 X17.9357 Y10.8405
G1 X17.9371 Y10.8419
G1 X17.939 Y10.8425
G1 X17.9392 Y10.8426
G1 X18.0127
G1 X18.0147 Y10.8421
G1 X18.0161 Y10.8407
G1 X18.0167 Y10.8391
G1 X18.0317 Y10.7324
G1 Y10.7318
G1 Y10.5436
G1 X18.0322 Y10.5396
G1 X18.0337 Y10.5359
G1 X18.036 Y10.5326
G1 X18.0391 Y10.5301
G1 X18.0427 Y10.5284
G1 X18.0467 Y10.5276
G1 X18.0477
G1 X18.1307
G1 X18.1347 Y10.5281
G1 X18.1384 Y10.5295
G1 X18.1417 Y10.5319
G1 X18.1442 Y10.5349
G1 X18.1459 Y10.5386
G1 X18.1467 Y10.5425
G1 Y10.5436
G1 Y10.7318
G1 X18.1468 Y10.7324
G1 X18.1618 Y10.8391
G1 X18.1625 Y10.841
G1 X18.1641 Y10.8422
G1 X18.1657 Y10.8426
G1 X18.2392
G1 X18.2412 Y10.8421
G1 X18.2426 Y10.8407
G1 X18.2432 Y10.8388
G1 Y10.8386
G1 Y10.6326
G1 X18.375
G1 X18.3769 Y10.6321
G1 X18.3784 Y10.6307
G1 X18.379 Y10.6288
G1 Y10.6286
G1 Y10.0214
G1 X18.3785 Y10.0113
G1 X18.377 Y10.0012
G1 X18.3745 Y9.9913
G1 X18.3711 Y9.9817
G1 X18.3667 Y9.9725
G1 X18.3615 Y9.9637
G1 X18.3554 Y9.9555
G1 X18.3486 Y9.948
G1 X18.341 Y9.9411
G1 X18.3328 Y9.935
G1 X18.3241 Y9.9298
G1 X18.3149 Y9.9254
G1 X18.3053 Y9.922
G1 X18.2954 Y9.9195
G1 X18.2853 Y9.918
G1 X18.2751 Y9.9174
G1 X18.275
G1 X17.8034
G1 X17.8023 Y9.9176
G0 Z0.125
G0 X17.626 Y10.2308
G0 Z0.03
G1 F5.0 Z-0.01
G1 F10.0 X17.6169 Y10.2263
G1 X17.6074 Y10.2226
G1 X17.5975 Y10.2199
G1 X17.5875 Y10.2182
G1 X17.5773 Y10.2175
G1 X17.575 Y10.2174
G1 X17.1034
G1 X17.1015 Y10.2179
G1 X17.1001 Y10.2193
G1 X17.0995 Y10.2212
G1 X17.0994 Y10.2214
G1 Y10.2534
G1 X17.0999 Y10.2554
G1 X17.1006 Y10.2563
G1 X17.4193 Y10.575
G1 X17.1006 Y10.8937
G1 X17.0996 Y10.8954
G1 X17.0994 Y10.8966
G1 Y10.9286
G1 X17.0999 Y10.9305
G1 X17.1013 Y10.9319
G1 X17.1032 Y10.9325
G1 X17.1034 Y10.9326
G1 X17.2352
G1 Y11.1386
G1 X17.2357 Y11.1405
G1 X17.2371 Y11.1419
G1 X17.239 Y11.1425
G1 X17.2392 Y11.1426
G1 X17.3127
G1 X17.3147 Y11.1421
G1 X17.3161 Y11.1407
G1 X17.3167 Y11.1391
G1 X17.3317 Y11.0324
G1 Y11.0318
G1 Y10.8436
G1 X17.3322 Y10.8396
G1 X17.3337 Y10.8359
G1 X17.336 Y10.8326
G1 X17.3391 Y10.8301
G1 X17.3427 Y10.8284
G1 X17.3467 Y10.8276
G1 X17.3477
G1 X17.4307
G1 X17.4347 Y10.8281
G1 X17.4384 Y10.8295
G1 X17.4417 Y10.8319
G1 X17.4442 Y10.8349
G1 X17.4459 Y10.8386
G1 X17.4467 Y10.8425
G1 Y10.8436
G1 Y11.0318
G1 X17.4468 Y11.0324
G1 X17.4618 Y11.1391
G1 X17.4625 Y11.141
G1 X17.4641 Y11.1422
G1 X17.4657 Y11.1426
G1 X17.5392
G1 X17.5412 Y11.1421
G1 X17.5426 Y11.1407
G1 X17.5432 Y11.1388
G1 Y11.1386
G1 Y10.9326
G1 X17.675
G1 X17.6769 Y10.9321
G1 X17.6784 Y10.9307
G1 X17.679 Y10.9288
G1 Y10.9286
G1 Y10.3214
G1 X17.6785 Y10.3113
G1 X17.677 Y10.3012
G1 X17.6745 Y10.2913
G1 X17.6711 Y10.2817
G1 X17.6667 Y10.2725
G1 X17.6615 Y10.2637
G1 X17.6554 Y10.2555
G1 X17.6486 Y10.248
G1 X17.641 Y10.2411
G1 X17.6328 Y10.235
G1 X17.626 Y10.2308
G0 Z0.125
G0 X22.7244 Y10.0786
G0 Z0.03
G1 F5.0 Z-0.01
G1 F10.0 X22.725 Y10.0805
G1 X22.7256 Y10.0813
G1 X23.0443 Y10.4
G1 X22.7256 Y10.7187
G1 X22.7246 Y10.7204
G1 X22.7244 Y10.7216
G1 Y10.7536
G1 X22.7249 Y10.7555
G1 X22.7263 Y10.7569
G1 X22.7282 Y10.7575
G1 X22.7284 Y10.7576
G1 X22.8602
G1 Y10.9636
G1 X22.8607 Y10.9655
G1 X22.8621 Y10.9669
G1 X22.864 Y10.9675
G1 X22.8642 Y10.9676
G1 X22.9377
G1 X22.9397 Y10.9671
G1 X22.9411 Y10.9657
G1 X22.9417 Y10.9641
G1 X22.9567 Y10.8574
G1 Y10.8568
G1 Y10.6686
G1 X22.9572 Y10.6646
G1 X22.9587 Y10.6609
G1 X22.961 Y10.6576
G1 X22.9641 Y10.6551
G1 X22.9677 Y10.6534
G1 X22.9717 Y10.6526
G1 X22.9727
G1 X23.0557
G1 X23.0597 Y10.6531
G1 X23.0634 Y10.6545
G1 X23.0667 Y10.6569
G1 X23.0692 Y10.6599
G1 X23.0709 Y10.6636
G1 X23.0717 Y10.6675
G1 Y10.6686
G1 Y10.8568
G1 X23.0718 Y10.8574
G1 X23.0868 Y10.9641
G1 X23.0875 Y10.966
G1 X23.0891 Y10.9672
G1 X23.0907 Y10.9676
G1 X23.1642
G1 X23.1662 Y10.9671
G1 X23.1676 Y10.9657
G1 X23.1682 Y10.9638
G1 Y10.9636
G1 Y10.7576
G1 X23.3
G1 X23.3019 Y10.7571
G1 X23.3034 Y10.7557
G1 X23.304 Y10.7538
G1 Y10.7536
G1 Y10.1464
G1 X23.3035 Y10.1363
G1 X23.302 Y10.1262
G1 X23.2995 Y10.1163
G1 X23.2961 Y10.1067
G1 X23.2917 Y10.0975
G1 X23.2865 Y10.0887
G1 X23.2804 Y10.0805
G1 X23.2736 Y10.073
G1 X23.266 Y10.0661
G1 X23.2578 Y10.06
G1 X23.2491 Y10.0548
G1 X23.2399 Y10.0504
G1 X23.2303 Y10.047
G1 X23.2204 Y10.0445
G1 X23.2103 Y10.043
G1 X23.2001 Y10.0424
G1 X23.2
G1 X22.7284
G1 X22.7265 Y10.0429
G1 X22.7251 Y10.0443
G1 X22.7245 Y10.0462
G1 X22.7244 Y10.0464
G1 Y10.0784
G1 Y10.0786
G0 Z0.125
G0 X22.8866 Y9.8916
G0 Z0.03
G1 F5.0 Z-0.01
G1 F10.0 X22.8884 Y9.8925
G1 X22.8892 Y9.8926
G1 X22.9627
G1 X22.9647 Y9.8921
G1 X22.9661 Y9.8907
G1 X22.9667 Y9.8891
G1 X22.9817 Y9.7824
G1 Y9.7818
G1 Y9.5936
G1 X22.9822 Y9.5896
G1 X22.9837 Y9.5859
G1 X22.986 Y9.5826
G1 X22.9891 Y9.5801
G1 X22.9927 Y9.5784
G1 X22.9967 Y9.5776
G1 X22.9977
G1 X23.0807
G1 X23.0847 Y9.5781
G1 X23.0884 Y9.5795
G1 X23.0917 Y9.5819
G1 X23.0942 Y9.5849
G1 X23.0959 Y9.5886
G1 X23.0967 Y9.5925
G1 Y9.5936
G1 Y9.7818
G1 X23.0968 Y9.7824
G1 X23.1118 Y9.8891
G1 X23.1125 Y9.891
G1 X23.1141 Y9.8922
G1 X23.1157 Y9.8926
G1 X23.1892
G1 X23.1912 Y9.8921
G1 X23.1926 Y9.8907
G1 X23.1932 Y9.8888
G1 Y9.8886
G1 Y9.6826
G1 X23.325
G1 X23.3269 Y9.6821
G1 X23.3284 Y9.6807
G1 X23.329 Y9.6788
G1 Y9.6786
G1 Y9.0714
G1 X23.3285 Y9.0613
G1 X23.327 Y9.0512
G1 X23.3245 Y9.0413
G1 X23.3211 Y9.0317
G1 X23.3167 Y9.0225
G1 X23.3115 Y9.0137
G1 X23.3054 Y9.0055
G1 X23.2986 Y8.998
G1 X23.291 Y8.9911
G1 X23.2828 Y8.985
G1 X23.2741 Y8.9798
G1 X23.2649 Y8.9754
G1 X23.2553 Y8.972
G1 X23.2454 Y8.9695
G1 X23.2353 Y8.968
G1 X23.2251 Y8.9674
G1 X23.225
G1 X22.7534
G1 X22.7515 Y8.9679
G1 X22.7501 Y8.9693
G1 X22.7495 Y8.9712
G1 X22.7494 Y8.9714
G1 Y9.0034
G1 X22.7499 Y9.0054
G1 X22.7506 Y9.0063
G1 X23.0693 Y9.325
G1 X22.7506 Y9.6437
G1 X22.7496 Y9.6454
G1 X22.7494 Y9.6466
G1 Y9.6786
G1 X22.7499 Y9.6805
G1 X22.7513 Y9.6819
G1 X22.7532 Y9.6825
G1 X22.7534 Y9.6826
G1 X22.8852
G1 Y9.8886
G1 X22.8857 Y9.8905
G1 X22.8866 Y9.8916
( InsideProfile4 )
S1000
G0 Z0.125
G0 X20.1016 Y7.8884
G0 Z0.03
G1 F5.0 Z-0.01
G1 F10.0 Y8.1304
G1 X19.8096
G1 Y7.8884
G1 X20.1016
G0 Z0.125
G0 X20.8661 Y8.8796
G0 Z0.03
G1 F5.0 Z-0.01
G1 F10.0 X20.8725 Y8.8754
G1 X20.8793 Y8.872
G1 X20.8865 Y8.8695
G1 X20.894 Y8.868
G1 X20.9017 Y8.8674
G1 X20.9093 Y8.8679
G1 X20.9168 Y8.8694
G1 X20.9241 Y8.8718
G1 X20.9309 Y8.8752
G1 X20.9373 Y8.8794
G1 X20.9431 Y8.8844
G1 X20.9481 Y8.8902
G1 X20.9524 Y8.8965
G1 X20.9558 Y8.9034
G1 X20.9583 Y8.9106
G1 X20.9598 Y8.9181
G1 X20.9603 Y8.9257
G1 Y8.9259
G1 Y9.0259
G1 X20.9598 Y9.0336
G1 X20.9583 Y9.0411
G1 X20.9559 Y9.0483
G1 X20.9525 Y9.0552
G1 X20.9483 Y9.0615
G1 X20.9432 Y9.0673
G1 X20.9375 Y9.0723
G1 X20.9311 Y9.0766
G1 X20.9242 Y9.08
G1 X20.917 Y9.0824
G1 X20.9095 Y9.0839
G1 X20.9019 Y9.0844
G1 X20.8942 Y9.0839
G1 X20.8867 Y9.0825
G1 X20.8795 Y9.08
G1 X20.8726 Y9.0766
G1 X20.8663 Y9.0724
G1 X20.8605 Y9.0674
G1 X20.8555 Y9.0616
G1 X20.8512 Y9.0553
G1 X20.8478 Y9.0484
G1 X20.8453 Y9.0412
G1 X20.8438 Y9.0337
G1 X20.8433 Y9.026
G1 Y9.0259
G1 Y8.9259
G1 X20.8438 Y8.9183
G1 X20.8453 Y8.9108
G1 X20.8478 Y8.9036
G1 X20.8512 Y8.8967
G1 X20.8554 Y8.8903
G1 X20.8605 Y8.8846
G1 X20.8661 Y8.8796
G0 Z0.125
G0 X21.2077 Y9.2268
G0 Z0.03
G1 F5.0 Z-0.01
G1 F10.0 X21.2229 Y9.2126
G1 X21.2388 Y9.1991
G1 X21.2552 Y9.1863
G1 X21.2723 Y9.1744
G1 X21.29 Y9.1633
G1 X21.3081 Y9.1531
G1 X21.3267 Y9.1438
G1 X21.3458 Y9.1353
G1 X21.3652 Y9.1278
G1 X21.385 Y9.1212
G1 X21.405 Y9.1156
G1 X21.4253 Y9.1109
G1 X21.4458 Y9.1073
G1 X21.4665 Y9.1046
G1 X21.4873 Y9.1029
G1 X21.5081 Y9.1022
G1 X21.5289 Y9.1025
G1 X21.5497 Y9.1038
G1 X21.5704 Y9.1061
G1 X21.591 Y9.1094
G1 X21.6114 Y9.1137
G1 X21.6315 Y9.119
G1 X21.6514 Y9.1252
G1 X21.671 Y9.1323
G1 X21.6902 Y9.1404
G1 X21.709 Y9.1494
G1 X21.7273 Y9.1593
G1 X21.7451 Y9.1701
G1 X21.7624 Y9.1817
G1 X21.7792 Y9.1941
G1 X21.7953 Y9.2073
G1 X21.8107 Y9.2213
G1 X21.8255 Y9.236
G1 X21.8395 Y9.2514
G1 X21.8528 Y9.2674
G1 X21.8653 Y9.2841
G1 X21.877 Y9.3013
G1 X21.8879 Y9.3191
G1 X21.8979 Y9.3374
G1 X21.9069 Y9.3561
G1 X21.9151 Y9.3753
G1 X21.9224 Y9.3948
G1 X21.9287 Y9.4147
G1 X21.9341 Y9.4348
G1 X21.9384 Y9.4552
G1 X21.9418 Y9.4757
G1 X21.9442 Y9.4964
G1 X21.9456 Y9.5172
G1 X21.9461 Y9.5362
G1 Y9.6362
G1 X21.9456 Y9.657
G1 X21.9441 Y9.6778
G1 X21.9416 Y9.6985
G1 X21.9381 Y9.719
G1 X21.9336 Y9.7394
G1 X21.9282 Y9.7595
G1 X21.9218 Y9.7793
G1 X21.9144 Y9.7988
G1 X21.9062 Y9.8179
G1 X21.897 Y9.8366
G1 X21.8869 Y9.8549
G1 X21.876 Y9.8726
G1 X21.8643 Y9.8898
G1 X21.8517 Y9.9064
G1 X21.8383 Y9.9224
G1 X21.8242 Y9.9377
G1 X21.8094 Y9.9523
G1 X21.7939 Y9.9662
G1 X21.7777 Y9.9794
G1 X21.7609 Y9.9917
G1 X21.7436 Y10.0033
G1 X21.7257 Y10.014
G1 X21.7073 Y10.0238
G1 X21.6885 Y10.0327
G1 X21.6693 Y10.0407
G1 X21.6497 Y10.0478
G1 X21.6298 Y10.0539
G1 X21.6096 Y10.0591
G1 X21.5892 Y10.0633
G1 X21.5686 Y10.0665
G1 X21.5479 Y10.0687
G1 X21.5271 Y10.0699
G1 X21.5062 Y10.0701
G1 X21.4854 Y10.0694
G1 X21.4647 Y10.0676
G1 X21.444 Y10.0648
G1 X21.4235 Y10.061
G1 X21.4032 Y10.0563
G1 X21.3832 Y10.0506
G1 X21.3635 Y10.0439
G1 X21.3441 Y10.0363
G1 X21.3251 Y10.0278
G1 X21.3065 Y10.0184
G1 X21.2884 Y10.0081
G1 X21.2708 Y9.9969
G1 X21.2538 Y9.9849
G1 X21.2373 Y9.9721
G1 X21.2215 Y9.9586
G1 X21.2064 Y9.9442
G1 X21.1919 Y9.9292
G1 X21.1783 Y9.9135
G1 X21.1653 Y9.8972
G1 X21.1532 Y9.8802
G1 X21.1419 Y9.8627
G1 X21.1315 Y9.8447
G1 X21.1219 Y9.8262
G1 X21.1132 Y9.8073
G1 X21.1055 Y9.7879
G1 X21.0987 Y9.7682
G1 X21.0928 Y9.7483
G1 X21.0879 Y9.728
G1 X21.084 Y9.7075
G1 X21.0811 Y9.6869
G1 X21.0791 Y9.6662
G1 X21.0782 Y9.6454
G1 X21.0781 Y9.6362
G1 Y9.5362
G1 X21.0786 Y9.5154
G1 X21.0801 Y9.4946
G1 X21.0826 Y9.4739
G1 X21.0861 Y9.4534
G1 X21.0905 Y9.433
G1 X21.096 Y9.4129
G1 X21.1024 Y9.3931
G1 X21.1097 Y9.3736
G1 X21.118 Y9.3544
G1 X21.1271 Y9.3357
G1 X21.1372 Y9.3175
G1 X21.1481 Y9.2998
G1 X21.1599 Y9.2826
G1 X21.1725 Y9.266
G1 X21.1858 Y9.25
G1 X21.1999 Y9.2347
G1 X21.2077 Y9.2268
G0 Z0.125
G0 X22.0652 Y9.0385
G0 Z0.03
G1 F5.0 Z-0.01
G1 F10.0 X22.064 Y9.0309
G1 X22.0638 Y9.0259
G1 Y8.9259
G1 X22.0643 Y8.9183
G1 X22.0658 Y8.9108
G1 X22.0683 Y8.9036
G1 X22.0716 Y8.8967
G1 X22.0759 Y8.8903
G1 X22.0809 Y8.8846
G1 X22.0867 Y8.8795
G1 X22.093 Y8.8753
G1 X22.0999 Y8.8719
G1 X22.1071 Y8.8694
G1 X22.1146 Y8.8679
G1 X22.1223 Y8.8674
G1 X22.1299 Y8.8679
G1 X22.1374 Y8.8694
G1 X22.1446 Y8.8719
G1 X22.1515 Y8.8753
G1 X22.1579 Y8.8795
G1 X22.1636 Y8.8845
G1 X22.1687 Y8.8903
G1 X22.1729 Y8.8966
G1 X22.1763 Y8.9035
G1 X22.1788 Y8.9107
G1 X22.1803 Y8.9182
G1 X22.1808 Y8.9259
G1 Y9.0259
G1 X22.1803 Y9.0336
G1 X22.1788 Y9.0411
G1 X22.1764 Y9.0483
G1 X22.173 Y9.0552
G1 X22.1687 Y9.0615
G1 X22.1637 Y9.0673
G1 X22.1579 Y9.0723
G1 X22.1516 Y9.0766
G1 X22.1447 Y9.08
G1 X22.1375 Y9.0824
G1 X22.13 Y9.0839
G1 X22.1223 Y9.0844
G1 X22.1147 Y9.0839
G1 X22.1072 Y9.0825
G1 X22.1 Y9.08
G1 X22.0931 Y9.0766
G1 X22.0867 Y9.0724
G1 X22.081 Y9.0674
G1 X22.0759 Y9.0616
G1 X22.0717 Y9.0553
G1 X22.0683 Y9.0484
G1 X22.0658 Y9.0412
G1 X22.0652 Y9.0385
G0 Z0.125
G0 X22.1193 Y10.088
G0 Z0.03
G1 F5.0 Z-0.01
G1 F10.0 X22.1269 Y10.0881
G1 X22.1345 Y10.0892
G1 X22.1419 Y10.0913
G1 X22.1489 Y10.0943
G1 X22.1555 Y10.0982
G1 X22.1615 Y10.103
G1 X22.1668 Y10.1084
G1 X22.1714 Y10.1146
G1 X22.1751 Y10.1212
G1 X22.1779 Y10.1283
G1 X22.1798 Y10.1358
G1 X22.1807 Y10.1434
G1 X22.1808 Y10.1464
G1 Y10.2464
G1 X22.1803 Y10.254
G1 X22.1788 Y10.2615
G1 X22.1764 Y10.2688
G1 X22.173 Y10.2757
G1 X22.1687 Y10.282
G1 X22.1637 Y10.2878
G1 X22.1579 Y10.2928
G1 X22.1516 Y10.2971
G1 X22.1447 Y10.3005
G1 X22.1375 Y10.3029
G1 X22.13 Y10.3044
G1 X22.1223 Y10.3049
G1 X22.1147 Y10.3044
G1 X22.1072 Y10.3029
G1 X22.1 Y10.3005
G1 X22.0931 Y10.2971
G1 X22.0867 Y10.2929
G1 X22.081 Y10.2878
G1 X22.0759 Y10.2821
G1 X22.0717 Y10.2757
G1 X22.0683 Y10.2689
G1 X22.0658 Y10.2616
G1 X22.0643 Y10.2541
G1 X22.0638 Y10.2465
G1 Y10.2464
G1 Y10.1464
G1 X22.0643 Y10.1388
G1 X22.0658 Y10.1313
G1 X22.0683 Y10.124
G1 X22.0716 Y10.1172
G1 X22.0759 Y10.1108
G1 X22.0809 Y10.1051
G1 X22.0867 Y10.1
G1 X22.093 Y10.0958
G1 X22.0999 Y10.0924
G1 X22.1071 Y10.0899
G1 X22.1146 Y10.0884
G1 X22.1193 Y10.088
G0 Z0.125
G0 X20.9603 Y10.1436
G0 Z0.03
G1 F5.0 Z-0.01
G1 F10.0 Y10.1464
G1 Y10.2464
G1 X20.9598 Y10.254
G1 X20.9583 Y10.2615
G1 X20.9559 Y10.2688
G1 X20.9525 Y10.2757
G1 X20.9483 Y10.282
G1 X20.9432 Y10.2878
G1 X20.9375 Y10.2928
G1 X20.9311 Y10.2971
G1 X20.9242 Y10.3005
G1 X20.917 Y10.3029
G1 X20.9095 Y10.3044
G1 X20.9019 Y10.3049
G1 X20.8942 Y10.3044
G1 X20.8867 Y10.3029
G1 X20.8795 Y10.3005
G1 X20.8726 Y10.2971
G1 X20.8663 Y10.2929
G1 X20.8605 Y10.2878
G1 X20.8555 Y10.2821
G1 X20.8512 Y10.2757
G1 X20.8478 Y10.2689
G1 X20.8453 Y10.2616
G1 X20.8438 Y10.2541
G1 X20.8433 Y10.2465
G1 Y10.2464
G1 Y10.1464
G1 X20.8438 Y10.1388
G1 X20.8453 Y10.1313
G1 X20.8478 Y10.124
G1 X20.8512 Y10.1172
G1 X20.8554 Y10.1108
G1 X20.8605 Y10.1051
G1 X20.8662 Y10.1
G1 X20.8726 Y10.0958
G1 X20.8794 Y10.0924
G1 X20.8867 Y10.0899
G1 X20.8942 Y10.0884
G1 X20.9018 Y10.0879
G1 X20.9094 Y10.0884
G1 X20.9169 Y10.0899
G1 X20.9242 Y10.0923
G1 X20.931 Y10.0957
G1 X20.9374 Y10.1
G1 X20.9432 Y10.105
G1 X20.9482 Y10.1107
G1 X20.9525 Y10.1171
G1 X20.9558 Y10.124
G1 X20.9583 Y10.1312
G1 X20.9598 Y10.1387
G1 X20.9603 Y10.1436
G0 Z0.125
G0 X23.2146 Y8.1304
G0 Z0.03
G1 F5.0 Z-0.01
G1 F10.0 Y7.8884
G1 X23.5066
G1 Y8.1304
G1 X23.2146
G0 Z0.125
G0 Y1.5054
G0 Z0.03
G1 F5.0 Z-0.01
G1 F10.0 Y1.2634
G1 X23.5066
G1 Y1.5054
G1 X23.2146
G0 Z0.125
G0 X21.7861 Y0.789
G0 Z0.03
G1 F5.0 Z-0.01
G1 F10.0 X21.782 Y0.796
G1 X21.7771 Y0.8025
G1 X21.7714 Y0.8083
G1 X21.7651 Y0.8134
G1 X21.7581 Y0.8176
G1 X21.7507 Y0.821
G1 X21.743 Y0.8235
G1 X21.735 Y0.8249
G1 X21.7269 Y0.8254
G1 X21.7188 Y0.8249
G1 X21.7108 Y0.8234
G1 X21.7031 Y0.8209
G1 X21.6957 Y0.8175
G1 X21.6941 Y0.8166
G1 X21.6873 Y0.8121
G1 X21.6811 Y0.8068
G1 X21.6757 Y0.8008
G1 X21.671 Y0.7942
G1 X21.6671 Y0.787
G1 X21.6642 Y0.7794
G1 X21.6622 Y0.7715
G1 X21.6612 Y0.7635
G1 Y0.7554
G1 X21.6622 Y0.7473
G1 X21.6642 Y0.7394
G1 X21.6671 Y0.7318
G1 X21.6709 Y0.7247
G1 X21.6756 Y0.7181
G1 X21.6811 Y0.712
G1 X21.6873 Y0.7068
G1 X21.694 Y0.7023
G1 X21.6941
G1 X21.7013 Y0.6986
G1 X21.709 Y0.6959
G1 X21.7169 Y0.6942
G1 X21.725 Y0.6934
G1 X21.7331 Y0.6937
G1 X21.7412 Y0.6949
G1 X21.749 Y0.6972
G1 X21.7565 Y0.7003
G1 X21.7635 Y0.7044
G1 X21.77 Y0.7093
G1 X21.7758 Y0.7149
G1 X21.7809 Y0.7213
G1 X21.7852 Y0.7282
G1 X21.7886 Y0.7355
G1 X21.7911 Y0.7433
G1 X21.7926 Y0.7513
G1 X21.7931 Y0.7594
G1 X21.7926 Y0.7675
G1 X21.7911 Y0.7755
G1 X21.7886 Y0.7832
G1 X21.7861 Y0.789
G0 Z0.125
G0 X20.1016 Y1.2634
G0 Z0.03
G1 F5.0 Z-0.01
G1 F10.0 Y1.5054
G1 X19.8096
G1 Y1.2634
G1 X20.1016
( OutsideProfile4 )
S1000
G0 Z0.125
G0 X19.6656 Y8.5594
G0 Z0.03
G1 F5.0 Z-0.01
G1 F10.0 X19.6661 Y8.5737
G1 X19.6676 Y8.5879
G1 X19.6701 Y8.602
G1 X19.6735 Y8.6158
G1 X19.6779 Y8.6294
G1 X19.6833 Y8.6426
G1 X19.6896 Y8.6555
G1 X19.6968 Y8.6678
G1 X19.7048 Y8.6796
G1 X19.7136 Y8.6909
G1 X19.7232 Y8.7015
G1 X19.7335 Y8.7114
G1 X19.7444 Y8.7205
G1 X19.756 Y8.7289
G1 X19.7681 Y8.7364
G1 X19.7808 Y8.7431
G1 X19.7938 Y8.7488
G1 X19.8073 Y8.7537
G1 X19.821 Y8.7575
G1 X19.835 Y8.7605
G1 X19.8492 Y8.7624
G1 X19.8634 Y8.7633
G1 X19.8696 Y8.7634
G1 X20.4371
G1 X20.4511 Y8.7639
G1 X20.465 Y8.7654
G1 X20.4788 Y8.7679
G1 X20.4923 Y8.7714
G1 X20.5056 Y8.7758
G1 X20.5185 Y8.7811
G1 X20.5311 Y8.7874
G1 X20.5431 Y8.7946
G1 X20.5546 Y8.8025
G1 X20.5655 Y8.8113
G1 X20.5757 Y8.8209
G1 X20.5853 Y8.8311
G1 X20.594 Y8.842
G1 X20.602 Y8.8535
G1 X20.6092 Y8.8656
G1 X20.6154 Y8.8781
G1 X20.6208 Y8.8911
G1 X20.6252 Y8.9043
G1 X20.6286 Y8.9179
G1 X20.6311 Y8.9317
G1 X20.6326 Y8.9456
G1 X20.6331 Y8.9594
G1 Y10.313
G1 X20.6336 Y10.3231
G1 X20.6351 Y10.3332
G1 X20.6375 Y10.3431
G1 X20.641 Y10.3527
G1 X20.6453 Y10.3619
G1 X20.6506 Y10.3707
G1 X20.6566 Y10.3789
G1 X20.6635 Y10.3864
G1 X20.671 Y10.3933
G1 X20.6792 Y10.3994
G1 X20.688 Y10.4046
G1 X20.6972 Y10.409
G1 X20.7068 Y10.4124
G1 X20.7167 Y10.4149
G1 X20.7268 Y10.4164
G1 X20.7369 Y10.417
G1 X20.7371
G1 X22.2871
G1 X22.2973 Y10.4165
G1 X22.3073 Y10.415
G1 X22.3172 Y10.4125
G1 X22.3268 Y10.409
G1 X22.3361 Y10.4047
G1 X22.3448 Y10.3995
G1 X22.353 Y10.3934
G1 X22.3606 Y10.3865
G1 X22.3674 Y10.379
G1 X22.3735 Y10.3708
G1 X22.3787 Y10.3621
G1 X22.3831 Y10.3528
G1 X22.3866 Y10.3432
G1 X22.389 Y10.3334
G1 X22.3906 Y10.3233
G1 X22.3911 Y10.3131
G1 Y10.313
G1 Y8.9594
G1 X22.3916 Y8.9454
G1 X22.3931 Y8.9315
G1 X22.3956 Y8.9177
G1 X22.399 Y8.9042
G1 X22.4034 Y8.8909
G1 X22.4088 Y8.8779
G1 X22.4151 Y8.8654
G1 X22.4222 Y8.8534
G1 X22.4302 Y8.8419
G1 X22.439 Y8.831
G1 X22.4485 Y8.8207
G1 X22.4588 Y8.8112
G1 X22.4697 Y8.8024
G1 X22.4812 Y8.7945
G1 X22.4932 Y8.7873
G1 X22.5058 Y8.7811
G1 X22.5187 Y8.7757
G1 X22.532 Y8.7713
G1 X22.5456 Y8.7679
G1 X22.5593 Y8.7654
G1 X22.5733 Y8.7639
G1 X22.5871 Y8.7634
G1 X23.4466
G1 X23.4608 Y8.7629
G1 X23.475 Y8.7614
G1 X23.4891 Y8.7589
G1 X23.503 Y8.7555
G1 X23.5165 Y8.751
G1 X23.5298 Y8.7457
G1 X23.5426 Y8.7394
G1 X23.555 Y8.7322
G1 X23.5668 Y8.7242
G1 X23.578 Y8.7154
G1 X23.5886 Y8.7058
G1 X23.5985 Y8.6955
G1 X23.6077 Y8.6846
G1 X23.616 Y8.673
G1 X23.6236 Y8.6608
G1 X23.6302 Y8.6482
G1 X23.636 Y8.6351
G1 X23.6408 Y8.6217
G1 X23.6447 Y8.608
G1 X23.6476 Y8.594
G1 X23.6495 Y8.5798
G1 X23.6505 Y8.5656
G1 X23.6506 Y8.5594
G1 Y0.4594
G1 X23.6501 Y0.4451
G1 X23.6486 Y0.4309
G1 X23.6461 Y0.4169
G1 X23.6426 Y0.403
G1 X23.6382 Y0.3894
G1 X23.6328 Y0.3762
G1 X23.6265 Y0.3634
G1 X23.6194 Y0.351
G1 X23.6114 Y0.3392
G1 X23.6026 Y0.3279
G1 X23.593 Y0.3174
G1 X23.5827 Y0.3075
G1 X23.5717 Y0.2983
G1 X23.5601 Y0.2899
G1 X23.548 Y0.2824
G1 X23.5354 Y0.2757
G1 X23.5223 Y0.27
G1 X23.5089 Y0.2651
G1 X23.4951 Y0.2613
G1 X23.4811 Y0.2584
G1 X23.467 Y0.2564
G1 X23.4527 Y0.2555
G1 X23.4466 Y0.2554
G1 X19.8696
G1 X19.8553 Y0.2559
G1 X19.8411 Y0.2574
G1 X19.827 Y0.2599
G1 X19.8132 Y0.2634
G1 X19.7996 Y0.2678
G1 X19.7864 Y0.2732
G1 X19.7735 Y0.2794
G1 X19.7612 Y0.2866
G1 X19.7493 Y0.2946
G1 X19.7381 Y0.3034
G1 X19.7275 Y0.313
G1 X19.7176 Y0.3233
G1 X19.7085 Y0.3343
G1 X19.7001 Y0.3458
G1 X19.6926 Y0.358
G1 X19.6859 Y0.3706
G1 X19.6801 Y0.3837
G1 X19.6753 Y0.3971
G1 X19.6714 Y0.4109
G1 X19.6685 Y0.4248
G1 X19.6666 Y0.439
G1 X19.6657 Y0.4533
G1 X19.6656 Y0.4594
G1 Y1.308
G1 X19.6651 Y1.3219
G1 X19.6636 Y1.3359
G1 X19.6611 Y1.3496
G1 X19.6576 Y1.3632
G1 X19.6532 Y1.3765
G1 X19.6478 Y1.3894
G1 X19.6416 Y1.4019
G1 X19.6344 Y1.414
G1 X19.6264 Y1.4255
G1 X19.6176 Y1.4364
G1 X19.6081 Y1.4466
G1 X19.5978 Y1.4561
G1 X19.5869 Y1.4649
G1 X19.5754 Y1.4729
G1 X19.5634 Y1.48
G1 X19.5509 Y1.4863
G1 X19.5379 Y1.4916
G1 X19.5246 Y1.4961
G1 X19.5111 Y1.4995
G1 X19.4973 Y1.502
G1 X19.4834 Y1.5035
G1 X19.4696 Y1.504
G1 X17.3466
G1 X17.3323 Y1.5045
G1 X17.3181 Y1.5059
G1 X17.304 Y1.5084
G1 X17.2902 Y1.5119
G1 X17.2766 Y1.5163
G1 X17.2634 Y1.5217
G1 X17.2505 Y1.528
G1 X17.2382 Y1.5351
G1 X17.2263 Y1.5431
G1 X17.2151 Y1.552
G1 X17.2045 Y1.5615
G1 X17.1946 Y1.5718
G1 X17.1855 Y1.5828
G1 X17.1771 Y1.5944
G1 X17.1696 Y1.6065
G1 X17.1629 Y1.6192
G1 X17.1571 Y1.6322
G1 X17.1523 Y1.6457
G1 X17.1484 Y1.6594
G1 X17.1455 Y1.6734
G1 X17.1436 Y1.6875
G1 X17.1427 Y1.7018
G1 X17.1426 Y1.708
G1 Y7.808
G1 X17.1431 Y7.8222
G1 X17.1446 Y7.8364
G1 X17.1471 Y7.8505
G1 X17.1505 Y7.8644
G1 X17.1549 Y7.8779
G1 X17.1603 Y7.8912
G1 X17.1666 Y7.904
G1 X17.1738 Y7.9164
G1 X17.1818 Y7.9282
G1 X17.1906 Y7.9394
G1 X17.2002 Y7.95
G1 X17.2105 Y7.9599
G1 X17.2214 Y7.9691
G1 X17.233 Y7.9774
G1 X17.2451 Y7.9849
G1 X17.2578 Y7.9916
G1 X17.2708 Y7.9974
G1 X17.2843 Y8.0022
G1 X17.298 Y8.0061
G1 X17.312 Y8.009
G1 X17.3262 Y8.0109
G1 X17.3404 Y8.0119
G1 X17.3466 Y8.012
G1 X19.4696
G1 X19.4836 Y8.0125
G1 X19.4975 Y8.0139
G1 X19.5113 Y8.0164
G1 X19.5248 Y8.0199
G1 X19.5381 Y8.0243
G1 X19.551 Y8.0297
G1 X19.5636 Y8.036
G1 X19.5756 Y8.0431
G1 X19.5871 Y8.0511
G1 X19.598 Y8.0599
G1 X19.6082 Y8.0694
G1 X19.6178 Y8.0797
G1 X19.6265 Y8.0906
G1 X19.6345 Y8.1021
G1 X19.6417 Y8.1141
G1 X19.6479 Y8.1267
G1 X19.6533 Y8.1396
G1 X19.6577 Y8.1529
G1 X19.6611 Y8.1664
G1 X19.6636 Y8.1802
G1 X19.6651 Y8.1941
G1 X19.6656 Y8.208
G1 Y8.5594
( InsideProfile5 )
S1000
G0 Z0.125
G0 X18.91 Y0.7928
G0 Z0.03
G1 F5.0 Z-0.01
G1 F10.0 X18.9095 Y0.8003
G1 X18.908 Y0.8076
G1 X18.9055 Y0.8147
G1 X18.9021 Y0.8214
G1 X18.8979 Y0.8275
G1 X18.8929 Y0.8331
G1 X18.8872 Y0.8379
G1 X18.8809 Y0.8419
G1 X18.8741 Y0.8451
G1 X18.8669 Y0.8473
G1 X18.8595 Y0.8485
G1 X18.8521 Y0.8488
G1 X18.8446 Y0.848
G1 X18.8373 Y0.8463
G1 X18.8304 Y0.8436
G1 X18.826 Y0.8413
G1 X18.8197 Y0.8371
G1 X18.8141 Y0.8322
G1 X18.8092 Y0.8265
G1 X18.8051 Y0.8203
G1 X18.8019 Y0.8135
G1 X18.7996 Y0.8064
G1 X18.7983 Y0.799
G1 X18.798 Y0.7915
G1 X18.7986 Y0.7841
G1 X18.8003 Y0.7768
G1 X18.8029 Y0.7698
G1 X18.8064 Y0.7632
G1 X18.8108 Y0.7571
G1 X18.816 Y0.7517
G1 X18.8218 Y0.747
G1 X18.826 Y0.7443
G1 X18.8327 Y0.741
G1 X18.8398 Y0.7386
G1 X18.8471 Y0.7372
G1 X18.8546 Y0.7368
G1 X18.8621 Y0.7374
G1 X18.8694 Y0.739
G1 X18.8764 Y0.7415
G1 X18.8831 Y0.745
G1 X18.8892 Y0.7493
G1 X18.8947 Y0.7543
G1 X18.8994 Y0.7601
G1 X18.9034 Y0.7665
G1 X18.9065 Y0.7733
G1 X18.9086 Y0.7805
G1 X18.9097 Y0.7879
G1 X18.91 Y0.7928
( OutsideProfile5 )
S1000
G0 Z0.125
G0 X19.0455 Y1.1678
G0 Z0.03
G1 F5.0 Z-0.01
G1 F10.0 Y0.4178
G1 X19.045 Y0.4159
G1 X19.0436 Y0.4144
G1 X19.0417 Y0.4138
G1 X19.0415
G1 X17.5415
G1 X17.5395 Y0.4143
G1 X17.5381 Y0.4157
G1 X17.5375 Y0.4176
G1 Y0.4178
G1 Y1.1678
G1 X17.538 Y1.1697
G1 X17.5393 Y1.1712
G1 X17.5412 Y1.1718
G1 X17.5415
G1 X19.0415
G1 X19.0434 Y1.1713
G1 X19.0449 Y1.1699
G1 X19.0455 Y1.168
G1 Y1.1678
( InsideProfile6 )
S1000
G0 Z0.125
G0 X14.9385 Y9.7533
G0 Z0.03
G1 F5.0 Z-0.01
G1 F10.0 X14.938 Y9.7614
G1 X14.9365 Y9.7694
G1 X14.9341 Y9.7772
G1 X14.9307 Y9.7845
G1 X14.9264 Y9.7914
G1 X14.9213 Y9.7978
G1 X14.9155 Y9.8034
G1 X14.909 Y9.8083
G1 X14.902 Y9.8124
G1 X14.8945 Y9.8156
G1 X14.8867 Y9.8178
G1 X14.8786 Y9.819
G1 X14.8705 Y9.8193
G1 X14.8624 Y9.8185
G1 X14.8545 Y9.8168
G1 X14.8468 Y9.8141
G1 X14.8395 Y9.8105
G1 X14.8327 Y9.806
G1 X14.8266 Y9.8007
G1 X14.8211 Y9.7947
G1 X14.8164 Y9.7881
G1 X14.8126 Y9.7809
G1 X14.8096 Y9.7733
G1 X14.8076 Y9.7655
G1 X14.8066 Y9.7574
G1 Y9.7493
G1 X14.8076 Y9.7412
G1 X14.8096 Y9.7333
G1 X14.8126 Y9.7258
G1 X14.8164 Y9.7186
G1 X14.8211 Y9.712
G1 X14.8266 Y9.706
G1 X14.8327 Y9.7007
G1 X14.8395 Y9.6962
G1 X14.8468 Y9.6925
G1 X14.8545 Y9.6898
G1 X14.8624 Y9.6881
G1 X14.8705 Y9.6873
G1 X14.8786 Y9.6876
G1 X14.8866 Y9.6888
G1 X14.8944 Y9.6911
G1 X14.9019 Y9.6942
G1 X14.909 Y9.6983
G1 X14.9154 Y9.7032
G1 X14.9213 Y9.7088
G1 X14.9264 Y9.7152
G1 X14.9307 Y9.7221
G1 X14.9341 Y9.7294
G1 X14.9365 Y9.7372
G1 X14.938 Y9.7452
G1 X14.9385 Y9.7533
G0 Z0.125
G0 X13.385 Y9.2493
G0 Z0.03
G1 F5.0 Z-0.01
G1 F10.0 X13.093
G1 Y9.0073
G1 X13.385
G1 Y9.2493
G0 Z0.125
G0 X13.335 Y6.2493
G0 Z0.03
G1 F5.0 Z-0.01
G1 F10.0 X13.093
G1 Y5.9573
G1 X13.335
G1 Y6.2493
G0 Z0.125
G0 X13.2209 Y5.7074
G0 Z0.03
G1 F5.0 Z-0.01
G1 F10.0 X13.2128 Y5.7086
G1 X13.2047 Y5.7088
G1 X13.1965 Y5.708
G1 X13.1885 Y5.7062
G1 X13.1808 Y5.7034
G1 X13.1736 Y5.6998
G1 X13.1668 Y5.6953
G1 X13.1606 Y5.69
G1 X13.1551 Y5.684
G1 X13.1503 Y5.6773
G1 X13.1464 Y5.6701
G1 X13.1434 Y5.6625
G1 X13.1414 Y5.6546
G1 X13.1403 Y5.6465
G1 X13.1402 Y5.6383
G1 X13.1412 Y5.6301
G1 X13.1431 Y5.6222
G1 X13.1459 Y5.6145
G1 X13.1497 Y5.6073
G1 X13.1544 Y5.6005
G1 X13.1598 Y5.5944
G1 X13.1659 Y5.589
G1 X13.1727 Y5.5843
G1 X13.1736 Y5.5838
G1 X13.181 Y5.5801
G1 X13.1887 Y5.5774
G1 X13.1967 Y5.5756
G1 X13.2048 Y5.5749
G1 X13.213 Y5.5751
G1 X13.2211 Y5.5763
G1 X13.229 Y5.5785
G1 X13.2365 Y5.5816
G1 X13.2437 Y5.5856
G1 X13.2502 Y5.5905
G1 X13.2562 Y5.5962
G1 X13.2614 Y5.6025
G1 X13.2658 Y5.6094
G1 X13.2693 Y5.6168
G1 X13.2719 Y5.6245
G1 X13.2735 Y5.6326
G1 X13.2741 Y5.6407
G1 Y5.6418
G1 X13.2736 Y5.65
G1 X13.2721 Y5.658
G1 X13.2697 Y5.6658
G1 X13.2663 Y5.6733
G1 X13.262 Y5.6803
G1 X13.2569 Y5.6867
G1 X13.2511 Y5.6924
G1 X13.2446 Y5.6974
G1 X13.2375 Y5.7015
G1 X13.23 Y5.7048
G1 X13.2221 Y5.7071
G1 X13.2209 Y5.7074
G0 Z0.125
G0 Y2.9993
G0 Z0.03
G1 F5.0 Z-0.01
G1 F10.0 X13.093
G1 Y2.7573
G1 X13.385
G1 Y2.9993
G1 X13.2209
G0 Z0.125
G0 X13.2081 Y2.1318
G0 Z0.03
G1 F5.0 Z-0.01
G1 F10.0 X13.1999 Y2.1314
G1 X13.1919 Y2.1301
G1 X13.184 Y2.1277
G1 X13.1765 Y2.1244
G1 X13.1736 Y2.1228
G1 X13.1668 Y2.1183
G1 X13.1606 Y2.113
G1 X13.1551 Y2.107
G1 X13.1503 Y2.1003
G1 X13.1464 Y2.0931
G1 X13.1434 Y2.0855
G1 X13.1414 Y2.0776
G1 X13.1403 Y2.0695
G1 X13.1402 Y2.0613
G1 X13.1412 Y2.0531
G1 X13.1431 Y2.0452
G1 X13.1459 Y2.0375
G1 X13.1497 Y2.0303
G1 X13.1544 Y2.0235
G1 X13.1598 Y2.0174
G1 X13.1659 Y2.012
G1 X13.1727 Y2.0073
G1 X13.1736 Y2.0068
G1 X13.181 Y2.0031
G1 X13.1887 Y2.0004
G1 X13.1967 Y1.9986
G1 X13.2048 Y1.9979
G1 X13.213 Y1.9981
G1 X13.2211 Y1.9993
G1 X13.229 Y2.0015
G1 X13.2365 Y2.0046
G1 X13.2437 Y2.0086
G1 X13.2502 Y2.0135
G1 X13.2562 Y2.0192
G1 X13.2614 Y2.0255
G1 X13.2658 Y2.0324
G1 X13.2693 Y2.0398
G1 X13.2719 Y2.0475
G1 X13.2735 Y2.0556
G1 X13.2741 Y2.0637
G1 Y2.0648
G1 X13.2736 Y2.073
G1 X13.2721 Y2.081
G1 X13.2697 Y2.0888
G1 X13.2663 Y2.0963
G1 X13.262 Y2.1033
G1 X13.2569 Y2.1097
G1 X13.2511 Y2.1154
G1 X13.2446 Y2.1204
G1 X13.2375 Y2.1245
G1 X13.23 Y2.1278
G1 X13.2221 Y2.1301
G1 X13.2141 Y2.1315
G1 X13.2081 Y2.1318
G0 Z0.125
G0 Y1.7493
G0 Z0.03
G1 F5.0 Z-0.01
G1 F10.0 X13.093
G1 Y1.4573
G1 X13.335
G1 Y1.7493
G1 X13.2081
G0 Z0.125
G0 X14.1774 Y1.0379
G0 Z0.03
G1 F5.0 Z-0.01
G1 F10.0 X14.1732 Y1.0315
G1 X14.17 Y1.0246
G1 X14.1677 Y1.0173
G1 X14.1664 Y1.0097
G1 X14.166 Y1.0033
G1 Y0.9033
G1 X14.1665 Y0.8957
G1 X14.168 Y0.8882
G1 X14.1705 Y0.8809
G1 X14.1738 Y0.8741
G1 X14.1781 Y0.8677
G1 X14.1831 Y0.862
G1 X14.1889 Y0.8569
G1 X14.1952 Y0.8527
G1 X14.2021 Y0.8493
G1 X14.2093 Y0.8468
G1 X14.2168 Y0.8453
G1 X14.2245 Y0.8448
G1 X14.2321 Y0.8453
G1 X14.2396 Y0.8468
G1 X14.2469 Y0.8492
G1 X14.2537 Y0.8526
G1 X14.2601 Y0.8569
G1 X14.2658 Y0.8619
G1 X14.2709 Y0.8676
G1 X14.2751 Y0.874
G1 X14.2785 Y0.8809
G1 X14.281 Y0.8881
G1 X14.2825 Y0.8956
G1 X14.283 Y0.9032
G1 Y0.9033
G1 Y1.0033
G1 X14.2825 Y1.0109
G1 X14.281 Y1.0184
G1 X14.2786 Y1.0257
G1 X14.2752 Y1.0326
G1 X14.2709 Y1.0389
G1 X14.2659 Y1.0447
G1 X14.2601 Y1.0497
G1 X14.2538 Y1.054
G1 X14.2469 Y1.0573
G1 X14.2397 Y1.0598
G1 X14.2322 Y1.0613
G1 X14.2246 Y1.0618
G1 X14.2169 Y1.0613
G1 X14.2094 Y1.0598
G1 X14.2022 Y1.0574
G1 X14.1953 Y1.054
G1 X14.189 Y1.0498
G1 X14.1832 Y1.0447
G1 X14.1781 Y1.039
G1 X14.1774 Y1.0379
G0 Z0.125
G0 X14.6489 Y1.02
G0 Z0.03
G1 F5.0 Z-0.01
G1 F10.0 X14.6486 Y1.0033
G1 Y0.9033
G1 X14.6491 Y0.8824
G1 X14.6506 Y0.8615
G1 X14.6531 Y0.8407
G1 X14.6566 Y0.82
G1 X14.661 Y0.7995
G1 X14.6665 Y0.7793
G1 X14.6729 Y0.7594
G1 X14.6802 Y0.7397
G1 X14.6885 Y0.7205
G1 X14.6977 Y0.7017
G1 X14.7077 Y0.6833
G1 X14.7187 Y0.6654
G1 X14.7304 Y0.6481
G1 X14.743 Y0.6313
G1 X14.7564 Y0.6152
G1 X14.7705 Y0.5997
G1 X14.7854 Y0.585
G1 X14.8009 Y0.5709
G1 X14.8171 Y0.5576
G1 X14.8339 Y0.5451
G1 X14.8513 Y0.5334
G1 X14.8692 Y0.5225
G1 X14.8876 Y0.5126
G1 X14.9065 Y0.5035
G1 X14.9258 Y0.4953
G1 X14.9454 Y0.488
G1 X14.9654 Y0.4817
G1 X14.9857 Y0.4764
G1 X15.0062 Y0.472
G1 X15.0268 Y0.4686
G1 X15.0477 Y0.4662
G1 X15.0686 Y0.4648
G1 X15.0895 Y0.4644
G1 X15.1104 Y0.465
G1 X15.1313 Y0.4666
G1 X15.1521 Y0.4692
G1 X15.1728 Y0.4728
G1 X15.1932 Y0.4773
G1 X15.2134 Y0.4828
G1 X15.2333 Y0.4893
G1 X15.2529 Y0.4968
G1 X15.2721 Y0.5051
G1 X15.2909 Y0.5144
G1 X15.3093 Y0.5245
G1 X15.3271 Y0.5355
G1 X15.3444 Y0.5474
G1 X15.361 Y0.5601
G1 X15.3771 Y0.5735
G1 X15.3925 Y0.5877
G1 X15.4072 Y0.6026
G1 X15.4212 Y0.6182
G1 X15.4344 Y0.6345
G1 X15.4469 Y0.6513
G1 X15.4585 Y0.6688
G1 X15.4693 Y0.6867
G1 X15.4792 Y0.7052
G1 X15.4882 Y0.7241
G1 X15.4963 Y0.7434
G1 X15.5034 Y0.7631
G1 X15.5097 Y0.7831
G1 X15.5149 Y0.8034
G1 X15.5192 Y0.8239
G1 X15.5225 Y0.8446
G1 X15.5248 Y0.8654
G1 X15.5261 Y0.8863
G1 X15.5264 Y0.9033
G1 Y1.0033
G1 X15.5259 Y1.0243
G1 X15.5244 Y1.0452
G1 X15.5219 Y1.066
G1 X15.5185 Y1.0866
G1 X15.514 Y1.1071
G1 X15.5086 Y1.1273
G1 X15.5022 Y1.1473
G1 X15.4948 Y1.1669
G1 X15.4865 Y1.1861
G1 X15.4774 Y1.205
G1 X15.4673 Y1.2233
G1 X15.4564 Y1.2412
G1 X15.4446 Y1.2585
G1 X15.432 Y1.2753
G1 X15.4186 Y1.2914
G1 X15.4045 Y1.3069
G1 X15.3897 Y1.3217
G1 X15.3741 Y1.3357
G1 X15.3579 Y1.349
G1 X15.3411 Y1.3615
G1 X15.3238 Y1.3732
G1 X15.3058 Y1.3841
G1 X15.2874 Y1.3941
G1 X15.2685 Y1.4032
G1 X15.2493 Y1.4113
G1 X15.2296 Y1.4186
G1 X15.2096 Y1.4249
G1 X15.1894 Y1.4302
G1 X15.1689 Y1.4346
G1 X15.1482 Y1.438
G1 X15.1274 Y1.4404
G1 X15.1065 Y1.4418
G1 X15.0855 Y1.4422
G1 X15.0646 Y1.4416
G1 X15.0437 Y1.44
G1 X15.0229 Y1.4374
G1 X15.0023 Y1.4339
G1 X14.9818 Y1.4293
G1 X14.9616 Y1.4238
G1 X14.9417 Y1.4173
G1 X14.9221 Y1.4099
G1 X14.9029 Y1.4015
G1 X14.8841 Y1.3922
G1 X14.8658 Y1.3821
G1 X14.848 Y1.3711
G1 X14.8307 Y1.3592
G1 X14.814 Y1.3466
G1 X14.7979 Y1.3331
G1 X14.7825 Y1.3189
G1 X14.7678 Y1.304
G1 X14.7538 Y1.2884
G1 X14.7406 Y1.2722
G1 X14.7282 Y1.2553
G1 X14.7165 Y1.2379
G1 X14.7058 Y1.2199
G1 X14.6959 Y1.2014
G1 X14.6869 Y1.1825
G1 X14.6788 Y1.1632
G1 X14.6716 Y1.1435
G1 X14.6654 Y1.1235
G1 X14.6601 Y1.1032
G1 X14.6558 Y1.0827
G1 X14.6526 Y1.062
G1 X14.6502 Y1.0412
G1 X14.6489 Y1.0203
G1 Y1.02
G0 Z0.125
G0 X15.892 Y1.0041
G0 Z0.03
G1 F5.0 Z-0.01
G1 F10.0 Y1.0033
G1 Y0.9033
G1 X15.8925 Y0.8957
G1 X15.894 Y0.8882
G1 X15.8965 Y0.8809
G1 X15.8999 Y0.8741
G1 X15.9041 Y0.8677
G1 X15.9091 Y0.862
G1 X15.9149 Y0.8569
G1 X15.9212 Y0.8527
G1 X15.9281 Y0.8493
G1 X15.9353 Y0.8468
G1 X15.9428 Y0.8453
G1 X15.9505 Y0.8448
G1 X15.9581 Y0.8453
G1 X15.9656 Y0.8468
G1 X15.9729 Y0.8492
G1 X15.9797 Y0.8526
G1 X15.9861 Y0.8569
G1 X15.9918 Y0.8619
G1 X15.9969 Y0.8676
G1 X16.0011 Y0.874
G1 X16.0045 Y0.8809
G1 X16.007 Y0.8881
G1 X16.0085 Y0.8956
G1 X16.009 Y0.9032
G1 Y0.9033
G1 Y1.0033
G1 X16.0085 Y1.0109
G1 X16.007 Y1.0184
G1 X16.0046 Y1.0257
G1 X16.0012 Y1.0326
G1 X15.9969 Y1.0389
G1 X15.9919 Y1.0447
G1 X15.9862 Y1.0497
G1 X15.9798 Y1.054
G1 X15.9729 Y1.0574
G1 X15.9657 Y1.0598
G1 X15.9582 Y1.0613
G1 X15.9506 Y1.0618
G1 X15.9429 Y1.0613
G1 X15.9354 Y1.0598
G1 X15.9282 Y1.0574
G1 X15.9213 Y1.054
G1 X15.915 Y1.0498
G1 X15.9092 Y1.0447
G1 X15.9042 Y1.039
G1 X15.8999 Y1.0326
G1 X15.8965 Y1.0258
G1 X15.894 Y1.0185
G1 X15.8925 Y1.011
G1 X15.892 Y1.0041
G0 Z0.125
G0 X16.548 Y1.4573
G0 Z0.03
G1 F5.0 Z-0.01
G1 F10.0 X16.79
G1 Y1.7493
G1 X16.548
G1 Y1.4573
G0 Z0.125
G0 X16.6621 Y1.9993
G0 Z0.03
G1 F5.0 Z-0.01
G1 F10.0 X16.6702 Y1.9981
G1 X16.6784 Y1.9979
G1 X16.6865 Y1.9987
G1 X16.6945 Y2.0005
G1 X16.7022 Y2.0032
G1 X16.7095 Y2.0069
G1 X16.7164 Y2.0114
G1 X16.7226 Y2.0167
G1 X16.7281 Y2.0228
G1 X16.7328 Y2.0295
G1 X16.7367 Y2.0367
G1 X16.7397 Y2.0443
G1 X16.7417 Y2.0522
G1 X16.7428 Y2.0603
G1 X16.7429 Y2.0648
G1 X16.7424 Y2.073
G1 X16.7409 Y2.081
G1 X16.7385 Y2.0888
G1 X16.7351 Y2.0963
G1 X16.7308 Y2.1033
G1 X16.7257 Y2.1097
G1 X16.7198 Y2.1154
G1 X16.7133 Y2.1204
G1 X16.7063 Y2.1245
G1 X16.6988 Y2.1278
G1 X16.6909 Y2.1301
G1 X16.6829 Y2.1315
G1 X16.6747 Y2.1318
G1 X16.6665 Y2.1312
G1 X16.6585 Y2.1295
G1 X16.6507 Y2.1269
G1 X16.6434 Y2.1234
G1 X16.6424 Y2.1228
G1 X16.6356 Y2.1183
G1 X16.6294 Y2.113
G1 X16.6238 Y2.107
G1 X16.6191 Y2.1003
G1 X16.6152 Y2.0931
G1 X16.6122 Y2.0855
G1 X16.6101 Y2.0776
G1 X16.6091 Y2.0695
G1 X16.609 Y2.0613
G1 X16.6099 Y2.0531
G1 X16.6119 Y2.0452
G1 X16.6147 Y2.0375
G1 X16.6185 Y2.0303
G1 X16.6232 Y2.0235
G1 X16.6286 Y2.0174
G1 X16.6347 Y2.012
G1 X16.6415 Y2.0073
G1 X16.6424 Y2.0068
G1 X16.6497 Y2.0031
G1 X16.6575 Y2.0004
G1 X16.6621 Y1.9993
G0 Z0.125
G0 Y2.7573
G0 Z0.03
G1 F5.0 Z-0.01
G1 F10.0 X16.79
G1 Y2.9993
G1 X16.498
G1 Y2.7573
G1 X16.6621
G0 Z0.125
G0 X16.6756 Y5.5748
G0 Z0.03
G1 F5.0 Z-0.01
G1 F10.0 X16.6838 Y5.5753
G1 X16.6918 Y5.5767
G1 X16.6996 Y5.5792
G1 X16.7071 Y5.5825
G1 X16.7141 Y5.5868
G1 X16.7205 Y5.5918
G1 X16.7263 Y5.5976
G1 X16.7313 Y5.6041
G1 X16.7355 Y5.6112
G1 X16.7388 Y5.6186
G1 X16.7411 Y5.6265
G1 X16.7425 Y5.6346
G1 X16.7429 Y5.6418
G1 X16.7424 Y5.65
G1 X16.7409 Y5.658
G1 X16.7385 Y5.6658
G1 X16.7351 Y5.6733
G1 X16.7308 Y5.6803
G1 X16.7257 Y5.6867
G1 X16.7198 Y5.6924
G1 X16.7133 Y5.6974
G1 X16.7063 Y5.7015
G1 X16.6988 Y5.7048
G1 X16.6909 Y5.7071
G1 X16.6829 Y5.7085
G1 X16.6747 Y5.7088
G1 X16.6665 Y5.7082
G1 X16.6585 Y5.7065
G1 X16.6507 Y5.7039
G1 X16.6434 Y5.7004
G1 X16.6424 Y5.6998
G1 X16.6356 Y5.6953
G1 X16.6294 Y5.69
G1 X16.6238 Y5.684
G1 X16.6191 Y5.6773
G1 X16.6152 Y5.6701
G1 X16.6122 Y5.6625
G1 X16.6101 Y5.6546
G1 X16.6091 Y5.6465
G1 X16.609 Y5.6383
G1 X16.6099 Y5.6301
G1 X16.6119 Y5.6222
G1 X16.6147 Y5.6145
G1 X16.6185 Y5.6073
G1 X16.6232 Y5.6005
G1 X16.6286 Y5.5944
G1 X16.6347 Y5.589
G1 X16.6415 Y5.5843
G1 X16.6424 Y5.5838
G1 X16.6497 Y5.5801
G1 X16.6575 Y5.5774
G1 X16.6654 Y5.5756
G1 X16.6736 Y5.5749
G1 X16.6756 Y5.5748
G0 Z0.125
G0 Y5.9573
G0 Z0.03
G1 F5.0 Z-0.01
G1 F10.0 X16.79
G1 Y6.2493
G1 X16.548
G1 Y5.9573
G1 X16.6756
G0 Z0.125
G0 Y9.0073
G0 Z0.03
G1 F5.0 Z-0.01
G1 F10.0 X16.79
G1 Y9.2493
G1 X16.498
G1 Y9.0073
G1 X16.6756
( OutsideProfile6 )
S1000
G0 Z0.125
G0 X16.934 Y10.1533
G0 Z0.03
G1 F5.0 Z-0.01
G1 F10.0 Y9.8158
G1 X16.9335 Y9.8139
G1 X16.9321 Y9.8124
G1 X16.9302 Y9.8118
G1 X16.93
G1 X16.9224 Y9.8113
G1 X16.9149 Y9.8098
G1 X16.9076 Y9.8074
G1 X16.9008 Y9.804
G1 X16.8944 Y9.7997
G1 X16.8887 Y9.7947
G1 X16.8836 Y9.7889
G1 X16.8794 Y9.7826
G1 X16.876 Y9.7757
G1 X16.8735 Y9.7685
G1 X16.872 Y9.761
G1 X16.8715 Y9.7534
G1 X16.872 Y9.7457
G1 X16.8735 Y9.7382
G1 X16.876 Y9.731
G1 X16.8793 Y9.7241
G1 X16.8836 Y9.7178
G1 X16.8886 Y9.712
G1 X16.8944 Y9.7069
G1 X16.9007 Y9.7027
G1 X16.9076 Y9.6993
G1 X16.9148 Y9.6968
G1 X16.9223 Y9.6953
G1 X16.9299 Y9.6948
G1 X16.93
G1 X16.932 Y9.6943
G1 X16.9334 Y9.6929
G1 X16.934 Y9.691
G1 Y9.6908
G1 Y0.4033
G1 X16.9335 Y0.3931
G1 X16.932 Y0.383
G1 X16.9295 Y0.3731
G1 X16.9261 Y0.3635
G1 X16.9218 Y0.3543
G1 X16.9165 Y0.3456
G1 X16.9104 Y0.3374
G1 X16.9036 Y0.3298
G1 X16.8961 Y0.323
G1 X16.8879 Y0.3169
G1 X16.8791 Y0.3116
G1 X16.8699 Y0.3073
G1 X16.8603 Y0.3038
G1 X16.8504 Y0.3013
G1 X16.8403 Y0.2998
G1 X16.8301 Y0.2993
G1 X16.83
G1 X16.4323
G1 X16.4266 Y0.2909
G1 X16.4201 Y0.283
G1 X16.4128 Y0.2759
G1 X16.4049 Y0.2694
G1 X16.3964 Y0.2638
G1 X16.3874 Y0.2591
G1 X16.3779 Y0.2552
G1 X16.3681 Y0.2523
G1 X16.3581 Y0.2504
G1 X16.348 Y0.2494
G1 X16.3434 Y0.2493
G1 X13.5396
G1 X13.5294 Y0.2498
G1 X13.5193 Y0.2513
G1 X13.5095 Y0.2538
G1 X13.4999 Y0.2572
G1 X13.4906 Y0.2616
G1 X13.4819 Y0.2668
G1 X13.4737 Y0.2729
G1 X13.4661 Y0.2797
G1 X13.4593 Y0.2873
G1 X13.4532 Y0.2955
G1 X13.4507 Y0.2993
G1 X13.053
G1 X13.0428 Y0.2998
G1 X13.0327 Y0.3013
G1 X13.0229 Y0.3038
G1 X13.0133 Y0.3072
G1 X13.004 Y0.3116
G1 X12.9953 Y0.3168
G1 X12.9871 Y0.3229
G1 X12.9795 Y0.3297
G1 X12.9727 Y0.3373
G1 X12.9666 Y0.3455
G1 X12.9613 Y0.3542
G1 X12.957 Y0.3634
G1 X12.9535 Y0.373
G1 X12.951 Y0.3829
G1 X12.9495 Y0.393
G1 X12.949 Y0.4032
G1 Y0.4033
G1 Y10.1533
G1 X12.9495 Y10.1635
G1 X12.951 Y10.1736
G1 X12.9535 Y10.1835
G1 X12.9569 Y10.1931
G1 X12.9613 Y10.2023
G1 X12.9665 Y10.2111
G1 X12.9726 Y10.2192
G1 X12.9794 Y10.2268
G1 X12.987 Y10.2337
G1 X12.9952 Y10.2397
G1 X13.0039 Y10.245
G1 X13.0131 Y10.2494
G1 X13.0227 Y10.2528
G1 X13.0326 Y10.2553
G1 X13.0427 Y10.2568
G1 X13.0529 Y10.2573
G1 X13.053
G1 X16.83
G1 X16.8402 Y10.2568
G1 X16.8503 Y10.2553
G1 X16.8602 Y10.2528
G1 X16.8698 Y10.2494
G1 X16.879 Y10.2451
G1 X16.8878 Y10.2398
G1 X16.896 Y10.2337
G1 X16.9035 Y10.2269
G1 X16.9104 Y10.2193
G1 X16.9164 Y10.2112
G1 X16.9217 Y10.2024
G1 X16.9261 Y10.1932
G1 X16.9295 Y10.1836
G1 X16.932 Y10.1737
G1 X16.9335 Y10.1636
G1 X16.934 Y10.1534
G1 Y10.1533
( InsideProfile7 )
S1000
G0 Z0.125
G0 X10.641 Y9.425
G0 Z0.03
G1 F5.0 Z-0.01
G1 F10.0 X10.6405 Y9.4331
G1 X10.639 Y9.4411
G1 X10.6365 Y9.4488
G1 X10.6332 Y9.4562
G1 X10.6289 Y9.4631
G1 X10.6238 Y9.4695
G1 X10.618 Y9.4751
G1 X10.6115 Y9.48
G1 X10.6044 Y9.4841
G1 X10.597 Y9.4872
G1 X10.5891 Y9.4895
G1 X10.5811 Y9.4907
G1 X10.573 Y9.491
G1 X10.5649 Y9.4902
G1 X10.557 Y9.4885
G1 X10.5493 Y9.4858
G1 X10.542 Y9.4822
G1 X10.5352 Y9.4777
G1 X10.5291 Y9.4724
G1 X10.5236 Y9.4664
G1 X10.5189 Y9.4598
G1 X10.515 Y9.4526
G1 X10.5121 Y9.445
G1 X10.5101 Y9.4371
G1 X10.5091 Y9.4291
G1 Y9.421
G1 X10.5101 Y9.4129
G1 X10.5121 Y9.405
G1 X10.515 Y9.3974
G1 X10.5189 Y9.3903
G1 X10.5236 Y9.3836
G1 X10.529 Y9.3776
G1 X10.5352 Y9.3724
G1 X10.542 Y9.3679
G1 Y9.3678
G1 X10.5493 Y9.3642
G1 X10.5569 Y9.3615
G1 X10.5649 Y9.3598
G1 X10.573 Y9.359
G1 X10.5811 Y9.3593
G1 X10.5891 Y9.3605
G1 X10.5969 Y9.3627
G1 X10.6044 Y9.3659
G1 X10.6114 Y9.37
G1 X10.6179 Y9.3749
G1 X10.6238 Y9.3805
G1 X10.6289 Y9.3868
G1 X10.6331 Y9.3938
G1 X10.6365 Y9.4011
G1 X10.639 Y9.4089
G1 X10.6405 Y9.4169
G1 X10.641 Y9.425
G0 Z0.125
G0 X11.519
G0 Z0.03
G1 F5.0 Z-0.01
G1 F10.0 X11.5195 Y9.4175
G1 X11.521 Y9.4102
G1 X11.5234 Y9.4031
G1 X11.5268 Y9.3965
G1 X11.5311 Y9.3903
G1 X11.5361 Y9.3847
G1 X11.5418 Y9.3799
G1 X11.547 Y9.3765
G1 X11.5537 Y9.3732
G1 X11.5608 Y9.3708
G1 X11.5682 Y9.3694
G1 X11.5756 Y9.369
G1 X11.5831 Y9.3696
G1 X11.5904 Y9.3712
G1 X11.5975 Y9.3737
G1 X11.6041 Y9.3771
G1 X11.6102 Y9.3815
G1 X11.6157 Y9.3865
G1 X11.6205 Y9.3923
G1 X11.6244 Y9.3987
G1 X11.6275 Y9.4055
G1 X11.6296 Y9.4127
G1 X11.6308 Y9.4201
G1 X11.631 Y9.425
G1 X11.6305 Y9.4325
G1 X11.629 Y9.4398
G1 X11.6266 Y9.4469
G1 X11.6232 Y9.4535
G1 X11.6189 Y9.4597
G1 X11.6139 Y9.4653
G1 X11.6082 Y9.4701
G1 X11.6019 Y9.4741
G1 X11.5951 Y9.4773
G1 X11.588 Y9.4795
G1 X11.5806 Y9.4807
G1 X11.5731 Y9.481
G1 X11.5657 Y9.4802
G1 X11.5584 Y9.4785
G1 X11.5514 Y9.4758
G1 X11.547 Y9.4735
G1 X11.5408 Y9.4693
G1 X11.5352 Y9.4644
G1 X11.5303 Y9.4587
G1 X11.5262 Y9.4524
G1 X11.523 Y9.4457
G1 X11.5207 Y9.4386
G1 X11.5193 Y9.4312
G1 X11.519 Y9.425
G0 Z0.125
G0 X11.5719 Y8.4809
G0 Z0.03
G1 F5.0 Z-0.01
G1 F10.0 X11.5644 Y8.48
G1 X11.5572 Y8.4781
G1 X11.5503 Y8.4753
G1 X11.547 Y8.4735
G1 X11.5408 Y8.4693
G1 X11.5352 Y8.4644
G1 X11.5303 Y8.4587
G1 X11.5262 Y8.4524
G1 X11.523 Y8.4457
G1 X11.5207 Y8.4386
G1 X11.5193 Y8.4312
G1 X11.519 Y8.4237
G1 X11.5197 Y8.4163
G1 X11.5213 Y8.409
G1 X11.524 Y8.402
G1 X11.5275 Y8.3954
G1 X11.5319 Y8.3893
G1 X11.537 Y8.3839
G1 X11.5428 Y8.3792
G1 X11.547 Y8.3765
G1 X11.5537 Y8.3732
G1 X11.5608 Y8.3708
G1 X11.5682 Y8.3694
G1 X11.5756 Y8.369
G1 X11.5831 Y8.3696
G1 X11.5904 Y8.3712
G1 X11.5975 Y8.3737
G1 X11.6041 Y8.3771
G1 X11.6102 Y8.3815
G1 X11.6157 Y8.3865
G1 X11.6205 Y8.3923
G1 X11.6244 Y8.3987
G1 X11.6275 Y8.4055
G1 X11.6296 Y8.4127
G1 X11.6308 Y8.4201
G1 X11.631 Y8.425
G1 X11.6305 Y8.4325
G1 X11.629 Y8.4398
G1 X11.6266 Y8.4469
G1 X11.6232 Y8.4535
G1 X11.6189 Y8.4597
G1 X11.6139 Y8.4653
G1 X11.6082 Y8.4701
G1 X11.6019 Y8.4741
G1 X11.5951 Y8.4773
G1 X11.588 Y8.4795
G1 X11.5806 Y8.4807
G1 X11.5731 Y8.481
G1 X11.5719 Y8.4809
G0 Z0.125
G0 X11.9117 Y8.4328
G0 Z0.03
G1 F5.0 Z-0.01
G1 F10.0 X11.9111 Y8.4254
G1 X11.9116 Y8.4179
G1 X11.913 Y8.4106
G1 X11.9154 Y8.4035
G1 X11.9187 Y8.3968
G1 X11.9229 Y8.3906
G1 X11.9279 Y8.385
G1 X11.9336 Y8.3801
G1 X11.9391 Y8.3765
G1 X11.9458 Y8.3732
G1 X11.9529 Y8.3708
G1 X11.9603 Y8.3694
G1 X11.9677 Y8.369
G1 X11.9752 Y8.3696
G1 X11.9825 Y8.3712
G1 X11.9896 Y8.3737
G1 X11.9962 Y8.3771
G1 X12.0023 Y8.3815
G1 X12.0078 Y8.3865
G1 X12.0126 Y8.3923
G1 X12.0165 Y8.3987
G1 X12.0196 Y8.4055
G1 X12.0217 Y8.4127
G1 X12.0229 Y8.4201
G1 X12.0231 Y8.425
G1 X12.0226 Y8.4325
G1 X12.0211 Y8.4398
G1 X12.0187 Y8.4469
G1 X12.0153 Y8.4535
G1 X12.011 Y8.4597
G1 X12.006 Y8.4653
G1 X12.0003 Y8.4701
G1 X11.994 Y8.4741
G1 X11.9872 Y8.4773
G1 X11.9801 Y8.4795
G1 X11.9727 Y8.4807
G1 X11.9652 Y8.481
G1 X11.9578 Y8.4802
G1 X11.9505 Y8.4785
G1 X11.9435 Y8.4758
G1 X11.9391 Y8.4735
G1 X11.9329 Y8.4693
G1 X11.9273 Y8.4644
G1 X11.9224 Y8.4587
G1 X11.9183 Y8.4524
G1 X11.9151 Y8.4457
G1 X11.9128 Y8.4386
G1 X11.9117 Y8.4328
G0 Z0.125
G0 X12.509 Y8.4258
G0 Z0.03
G1 F5.0 Z-0.01
G1 F10.0 X12.5094 Y8.4177
G1 X12.5108 Y8.4097
G1 X12.5132 Y8.4019
G1 X12.5165 Y8.3945
G1 X12.5207 Y8.3875
G1 X12.5257 Y8.3811
G1 X12.5315 Y8.3754
G1 X12.5379 Y8.3704
G1 X12.542 Y8.3678
G1 X12.5493 Y8.3642
G1 X12.5569 Y8.3615
G1 X12.5649 Y8.3598
G1 X12.573 Y8.359
G1 X12.5811 Y8.3593
G1 X12.5891 Y8.3605
G1 X12.5969 Y8.3627
G1 X12.6044 Y8.3659
G1 X12.6114 Y8.37
G1 X12.6179 Y8.3749
G1 X12.6238 Y8.3805
G1 X12.6289 Y8.3868
G1 X12.6331 Y8.3938
G1 X12.6365 Y8.4011
G1 X12.639 Y8.4089
G1 X12.6405 Y8.4169
G1 X12.641 Y8.425
G1 X12.6405 Y8.4331
G1 X12.639 Y8.4411
G1 X12.6365 Y8.4488
G1 X12.6332 Y8.4562
G1 X12.6289 Y8.4631
G1 X12.6238 Y8.4695
G1 X12.618 Y8.4751
G1 X12.6115 Y8.48
