( Made using CamBam - http://www.cambam.co.uk )
( carriage_layout 6/9/2015 1:37:19 PM )
( T0 : 0.01 )
G20 G90 G64 G40
G0 Z0.125
( T0 : 0.01 )
T0 M6
( Profile1 )
G17
M3 S1000
G0 X3.0562 Y2.9667
G0 Z0.03
G1 F5.0 Z-0.01
G1 F10.0 X3.0557 Y2.9743
G1 X3.0542 Y2.9817
G1 X3.0517 Y2.9889
G1 X3.0484 Y2.9957
G1 X3.0441 Y3.002
G1 X3.0391 Y3.0077
G1 X3.0333 Y3.0126
G1 X3.027 Y3.0168
G1 X3.0202 Y3.0201
G1 X3.013 Y3.0224
G1 X3.0055 Y3.0238
G1 X2.9979 Y3.0242
G1 X2.9904 Y3.0236
G1 X2.983 Y3.0221
G1 X2.9758 Y3.0195
G1 X2.9699 Y3.0165
G1 X2.9636 Y3.0123
G1 X2.9579 Y3.0073
G1 X2.9529 Y3.0016
G1 X2.9488 Y2.9953
G1 X2.9454 Y2.9885
G1 X2.943 Y2.9813
G1 X2.9416 Y2.9738
G1 X2.9412 Y2.9662
G1 X2.9417 Y2.9587
G1 X2.9433 Y2.9513
G1 X2.9458 Y2.9441
G1 X2.9493 Y2.9374
G1 X2.9536 Y2.9311
G1 X2.9586 Y2.9255
G1 X2.9644 Y2.9206
G1 X2.9699 Y2.9169
G1 X2.9767 Y2.9136
G1 X2.9839 Y2.9112
G1 X2.9914 Y2.9097
G1 X2.9989 Y2.9092
G1 X3.0065 Y2.9098
G1 X3.0139 Y2.9113
G1 X3.0211 Y2.9138
G1 X3.0279 Y2.9172
G1 X3.0341 Y2.9215
G1 X3.0398 Y2.9265
G1 X3.0447 Y2.9323
G1 X3.0488 Y2.9386
G1 X3.0521 Y2.9455
G1 X3.0544 Y2.9527
G1 X3.0558 Y2.9602
G1 X3.0562 Y2.9667
G0 Z0.125
G0 X3.0095 Y3.2103
G0 Z0.03
G1 F5.0 Z-0.01
G1 F10.0 X3.0168 Y3.2122
G1 X3.0239 Y3.2151
G1 X3.0304 Y3.2188
G1 X3.0365 Y3.2234
G1 X3.0418 Y3.2288
G1 X3.0465 Y3.2348
G1 X3.0503 Y3.2413
G1 X3.0532 Y3.2483
G1 X3.0551 Y3.2557
G1 X3.0561 Y3.2632
G1 X3.0562 Y3.2667
G1 X3.0557 Y3.2743
G1 X3.0542 Y3.2817
G1 X3.0517 Y3.2889
G1 X3.0484 Y3.2957
G1 X3.0441 Y3.302
G1 X3.0391 Y3.3077
G1 X3.0333 Y3.3126
G1 X3.027 Y3.3168
G1 X3.0202 Y3.3201
G1 X3.013 Y3.3224
G1 X3.0055 Y3.3238
G1 X2.9979 Y3.3242
G1 X2.9904 Y3.3236
G1 X2.983 Y3.3221
G1 X2.9758 Y3.3195
G1 X2.9699 Y3.3165
G1 X2.9636 Y3.3123
G1 X2.9579 Y3.3073
G1 X2.9529 Y3.3016
G1 X2.9488 Y3.2953
G1 X2.9454 Y3.2885
G1 X2.943 Y3.2813
G1 X2.9416 Y3.2738
G1 X2.9412 Y3.2662
G1 X2.9417 Y3.2587
G1 X2.9433 Y3.2513
G1 X2.9458 Y3.2441
G1 X2.9493 Y3.2374
G1 X2.9536 Y3.2311
G1 X2.9586 Y3.2255
G1 X2.9644 Y3.2206
G1 X2.9699 Y3.2169
G1 X2.9767 Y3.2136
G1 X2.9839 Y3.2112
G1 X2.9914 Y3.2097
G1 X2.9989 Y3.2092
G1 X3.0065 Y3.2098
G1 X3.0095 Y3.2103
G0 Z0.125
G0 X2.9994 Y2.3992
G0 Z0.03
G1 F5.0 Z-0.01
G1 F10.0 X2.9918 Y2.3988
G1 X2.9844 Y2.3974
G1 X2.9772 Y2.3951
G1 X2.9703 Y2.3918
G1 X2.9699 Y2.3915
G1 X2.9636 Y2.3873
G1 X2.9579 Y2.3823
G1 X2.9529 Y2.3766
G1 X2.9488 Y2.3703
G1 X2.9454 Y2.3635
G1 X2.943 Y2.3563
G1 X2.9416 Y2.3488
G1 X2.9412 Y2.3412
G1 X2.9417 Y2.3337
G1 X2.9433 Y2.3263
G1 X2.9458 Y2.3191
G1 X2.9493 Y2.3124
G1 X2.9536 Y2.3061
G1 X2.9586 Y2.3005
G1 X2.9644 Y2.2956
G1 X2.9699 Y2.2919
G1 X2.9767 Y2.2886
G1 X2.9839 Y2.2862
G1 X2.9914 Y2.2847
G1 X2.9989 Y2.2842
G1 X3.0065 Y2.2848
G1 X3.0139 Y2.2863
G1 X3.0211 Y2.2888
G1 X3.0279 Y2.2922
G1 X3.0341 Y2.2965
G1 X3.0398 Y2.3015
G1 X3.0447 Y2.3073
G1 X3.0488 Y2.3136
G1 X3.0521 Y2.3205
G1 X3.0544 Y2.3277
G1 X3.0558 Y2.3352
G1 X3.0562 Y2.3417
G1 X3.0557 Y2.3493
G1 X3.0542 Y2.3567
G1 X3.0517 Y2.3639
G1 X3.0484 Y2.3707
G1 X3.0441 Y2.377
G1 X3.0391 Y2.3827
G1 X3.0333 Y2.3876
G1 X3.027 Y2.3918
G1 X3.0202 Y2.3951
G1 X3.013 Y2.3974
G1 X3.0055 Y2.3988
G1 X2.9994 Y2.3992
G0 Z0.125
G0 X2.8047 Y2.3546
G0 Z0.03
G1 F5.0 Z-0.01
G1 F10.0 X2.8025 Y2.3619
G1 X2.7994 Y2.3688
G1 X2.7954 Y2.3752
G1 X2.7906 Y2.3811
G1 X2.7851 Y2.3863
G1 X2.7789 Y2.3907
G1 X2.7722 Y2.3942
G1 X2.7651 Y2.3968
G1 X2.7577 Y2.3985
G1 X2.7502 Y2.3992
G1 X2.7426 Y2.3989
G1 X2.7351 Y2.3976
G1 X2.7279 Y2.3953
G1 X2.721 Y2.3921
G1 X2.7199 Y2.3915
G1 X2.7136 Y2.3873
G1 X2.7079 Y2.3823
G1 X2.7029 Y2.3766
G1 X2.6988 Y2.3703
G1 X2.6954 Y2.3635
G1 X2.693 Y2.3563
G1 X2.6916 Y2.3488
G1 X2.6912 Y2.3412
G1 X2.6917 Y2.3337
G1 X2.6933 Y2.3263
G1 X2.6958 Y2.3191
G1 X2.6993 Y2.3124
G1 X2.7036 Y2.3061
G1 X2.7086 Y2.3005
G1 X2.7144 Y2.2956
G1 X2.7199 Y2.2919
G1 X2.7267 Y2.2886
G1 X2.7339 Y2.2862
G1 X2.7414 Y2.2847
G1 X2.7489 Y2.2842
G1 X2.7565 Y2.2848
G1 X2.7639 Y2.2863
G1 X2.7711 Y2.2888
G1 X2.7779 Y2.2922
G1 X2.7841 Y2.2965
G1 X2.7898 Y2.3015
G1 X2.7947 Y2.3073
G1 X2.7988 Y2.3136
G1 X2.8021 Y2.3205
G1 X2.8044 Y2.3277
G1 X2.8058 Y2.3352
G1 X2.8062 Y2.3417
G1 X2.8057 Y2.3493
G1 X2.8047 Y2.3546
G0 Z0.125
G0 X2.7588 Y2.0983
G0 Z0.03
G1 F5.0 Z-0.01
G1 F10.0 X2.7513 Y2.0992
G1 X2.7437 Y2.099
G1 X2.7362 Y2.0979
G1 X2.7289 Y2.0957
G1 X2.722 Y2.0927
G1 X2.7199 Y2.0915
G1 X2.7136 Y2.0873
G1 X2.7079 Y2.0823
G1 X2.7029 Y2.0766
G1 X2.6988 Y2.0703
G1 X2.6954 Y2.0635
G1 X2.693 Y2.0563
G1 X2.6916 Y2.0488
G1 X2.6912 Y2.0412
G1 X2.6917 Y2.0337
G1 X2.6933 Y2.0263
G1 X2.6958 Y2.0191
G1 X2.6993 Y2.0124
G1 X2.7036 Y2.0061
G1 X2.7086 Y2.0005
G1 X2.7144 Y1.9956
G1 X2.7199 Y1.9919
G1 X2.7267 Y1.9886
G1 X2.7339 Y1.9862
G1 X2.7414 Y1.9847
G1 X2.7489 Y1.9842
G1 X2.7565 Y1.9848
G1 X2.7639 Y1.9863
G1 X2.7711 Y1.9888
G1 X2.7779 Y1.9922
G1 X2.7841 Y1.9965
G1 X2.7898 Y2.0015
G1 X2.7947 Y2.0073
G1 X2.7988 Y2.0136
G1 X2.8021 Y2.0205
G1 X2.8044 Y2.0277
G1 X2.8058 Y2.0352
G1 X2.8062 Y2.0417
G1 X2.8057 Y2.0493
G1 X2.8042 Y2.0567
G1 X2.8017 Y2.0639
G1 X2.7984 Y2.0707
G1 X2.7941 Y2.077
G1 X2.7891 Y2.0827
G1 X2.7833 Y2.0876
G1 X2.777 Y2.0918
G1 X2.7702 Y2.0951
G1 X2.763 Y2.0974
G1 X2.7588 Y2.0983
G0 Z0.125
G0 X2.9427 Y2.0549
G0 Z0.03
G1 F5.0 Z-0.01
G1 F10.0 X2.9415 Y2.0475
G1 X2.9412 Y2.0399
G1 X2.942 Y2.0323
G1 X2.9437 Y2.025
G1 X2.9464 Y2.0179
G1 X2.95 Y2.0112
G1 X2.9544 Y2.005
G1 X2.9596 Y1.9995
G1 X2.9655 Y1.9948
G1 X2.9699 Y1.9919
G1 X2.9767 Y1.9886
G1 X2.9839 Y1.9862
G1 X2.9914 Y1.9847
G1 X2.9989 Y1.9842
G1 X3.0065 Y1.9848
G1 X3.0139 Y1.9863
G1 X3.0211 Y1.9888
G1 X3.0279 Y1.9922
G1 X3.0341 Y1.9965
G1 X3.0398 Y2.0015
G1 X3.0447 Y2.0073
G1 X3.0488 Y2.0136
G1 X3.0521 Y2.0205
G1 X3.0544 Y2.0277
G1 X3.0558 Y2.0352
G1 X3.0562 Y2.0417
G1 X3.0557 Y2.0493
G1 X3.0542 Y2.0567
G1 X3.0517 Y2.0639
G1 X3.0484 Y2.0707
G1 X3.0441 Y2.077
G1 X3.0391 Y2.0827
G1 X3.0333 Y2.0876
G1 X3.027 Y2.0918
G1 X3.0202 Y2.0951
G1 X3.013 Y2.0974
G1 X3.0055 Y2.0988
G1 X2.9979 Y2.0992
G1 X2.9904 Y2.0986
G1 X2.983 Y2.0971
G1 X2.9758 Y2.0945
G1 X2.9699 Y2.0915
G1 X2.9636 Y2.0873
G1 X2.9579 Y2.0823
G1 X2.9529 Y2.0766
G1 X2.9488 Y2.0703
G1 X2.9454 Y2.0635
G1 X2.943 Y2.0563
G1 X2.9427 Y2.0549
G0 Z0.125
G0 X3.1386 Y0.3863
G0 Z0.03
G1 F5.0 Z-0.01
G1 F10.0 X3.1307 Y0.3849
G1 X3.123 Y0.3825
G1 X3.1156 Y0.3791
G1 X3.1137 Y0.378
G1 X3.107 Y0.3736
G1 X3.1008 Y0.3683
G1 X3.0954 Y0.3624
G1 X3.0908 Y0.3558
G1 X3.087 Y0.3486
G1 X3.0841 Y0.3411
G1 X3.0822 Y0.3333
G1 X3.0813 Y0.3253
G1 Y0.3172
G1 X3.0824 Y0.3092
G1 X3.0844 Y0.3014
G1 X3.0874 Y0.2939
G1 X3.0913 Y0.2869
G1 X3.0961 Y0.2803
G1 X3.1016 Y0.2745
G1 X3.1078 Y0.2693
G1 X3.1137 Y0.2655
G1 X3.1209 Y0.2619
G1 X3.1285 Y0.2592
G1 X3.1364 Y0.2575
G1 X3.1444 Y0.2568
G1 X3.1525 Y0.257
G1 X3.1604 Y0.2583
G1 X3.1682 Y0.2606
G1 X3.1756 Y0.2638
G1 X3.1825 Y0.2679
G1 X3.1889 Y0.2728
G1 X3.1947 Y0.2784
G1 X3.1996 Y0.2848
G1 X3.2038 Y0.2917
G1 X3.2071 Y0.299
G1 X3.2094 Y0.3068
G1 X3.2108 Y0.3147
G1 X3.2112 Y0.3217
G1 X3.2107 Y0.3298
G1 X3.2092 Y0.3377
G1 X3.2067 Y0.3454
G1 X3.2033 Y0.3527
G1 X3.1991 Y0.3595
G1 X3.194 Y0.3658
G1 X3.1882 Y0.3714
G1 X3.1817 Y0.3762
G1 X3.1747 Y0.3802
G1 X3.1672 Y0.3832
G1 X3.1594 Y0.3854
G1 X3.1515 Y0.3865
G1 X3.1434 Y0.3867
G1 X3.1386 Y0.3863
G0 Z0.125
G0 X0.5162 Y0.3233
G0 Z0.03
G1 F5.0 Z-0.01
G1 F10.0 X0.5155 Y0.3313
G1 X0.5138 Y0.3392
G1 X0.5111 Y0.3468
G1 X0.5076 Y0.3541
G1 X0.5031 Y0.3608
G1 X0.4979 Y0.3669
G1 X0.4919 Y0.3724
G1 X0.4854 Y0.377
G1 X0.4783 Y0.3808
G1 X0.4707 Y0.3837
G1 X0.4629 Y0.3857
G1 X0.4549 Y0.3866
G1 X0.4468
G1 X0.4389 Y0.3856
G1 X0.431 Y0.3835
G1 X0.4235 Y0.3806
G1 X0.4187 Y0.378
G1 X0.412 Y0.3736
G1 X0.4058 Y0.3683
G1 X0.4004 Y0.3624
G1 X0.3958 Y0.3558
G1 X0.392 Y0.3486
G1 X0.3891 Y0.3411
G1 X0.3872 Y0.3333
G1 X0.3863 Y0.3253
G1 Y0.3172
G1 X0.3874 Y0.3092
G1 X0.3894 Y0.3014
G1 X0.3924 Y0.2939
G1 X0.3963 Y0.2869
G1 X0.4011 Y0.2803
G1 X0.4066 Y0.2745
G1 X0.4128 Y0.2693
G1 X0.4187 Y0.2655
G1 X0.4259 Y0.2619
G1 X0.4335 Y0.2592
G1 X0.4414 Y0.2575
G1 X0.4494 Y0.2568
G1 X0.4575 Y0.257
G1 X0.4654 Y0.2583
G1 X0.4732 Y0.2606
G1 X0.4806 Y0.2638
G1 X0.4875 Y0.2679
G1 X0.4939 Y0.2728
G1 X0.4997 Y0.2784
G1 X0.5046 Y0.2848
G1 X0.5088 Y0.2917
G1 X0.5121 Y0.299
G1 X0.5144 Y0.3068
G1 X0.5158 Y0.3147
G1 X0.5162 Y0.3217
G1 Y0.3233
( Profile2 )
S1000
G0 Z0.125
G0 X2.9812 Y0.4117
G0 Z0.03
G1 F5.0 Z-0.01
G1 F10.0 X0.6162
G1 Y0.1967
G1 X0.6157 Y0.1946
G1 X0.6143 Y0.1928
G1 X0.6123 Y0.1919
G1 X0.6112 Y0.1917
G1 X0.2112
G1 X0.209 Y0.1922
G1 X0.2073 Y0.1936
G1 X0.2063 Y0.1957
G1 X0.2062 Y0.1967
G1 Y0.5717
G1 X0.2067 Y0.5739
G1 X0.2076 Y0.5752
G1 X0.4437 Y0.8237
G1 Y4.1137
G1 X0.4442 Y4.1159
G1 X0.4456 Y4.1177
G1 X0.4476 Y4.1186
G1 X0.4487 Y4.1187
G1 X0.6987
G1 X0.7009 Y4.1182
G1 X0.7026 Y4.1168
G1 X0.7036 Y4.1148
G1 X0.7037 Y4.1137
G1 Y4.0325
G1 X0.8187
G1 Y4.335
G1 X0.7037
G1 Y4.2537
G1 X0.7032 Y4.2516
G1 X0.7018 Y4.2498
G1 X0.6998 Y4.2489
G1 X0.6987 Y4.2487
G1 X0.4487
G1 X0.4465 Y4.2492
G1 X0.4448 Y4.2506
G1 X0.4438 Y4.2527
G1 X0.4437 Y4.2537
G1 Y5.1323
G1 X0.4442 Y5.1345
G1 X0.4456 Y5.1363
G1 X0.4476 Y5.1372
G1 X0.4487 Y5.1373
G1 X0.6987
G1 X0.7009 Y5.1368
G1 X0.7026 Y5.1354
G1 X0.7036 Y5.1334
G1 X0.7037 Y5.1323
G1 Y5.0511
G1 X0.8187
G1 Y5.3536
G1 X0.7037
G1 Y5.2723
G1 X0.7032 Y5.2702
G1 X0.7018 Y5.2684
G1 X0.6998 Y5.2675
G1 X0.6987 Y5.2673
G1 X0.4487
G1 X0.4465 Y5.2678
G1 X0.4448 Y5.2692
G1 X0.4438 Y5.2713
G1 X0.4437 Y5.2723
G1 Y6.0217
G1 X0.4442 Y6.0239
G1 X0.4456 Y6.0257
G1 X0.4476 Y6.0266
G1 X0.4487 Y6.0267
G1 X1.3787
G1 X1.3809 Y6.0262
G1 X1.3826 Y6.0248
G1 X1.3836 Y6.0228
G1 X1.3837 Y6.0217
G1 Y5.7717
G1 X1.3832 Y5.7696
G1 X1.3818 Y5.7678
G1 X1.3798 Y5.7669
G1 X1.3787 Y5.7667
G1 X1.2974
G1 Y5.6517
G1 X1.5999
G1 Y5.7667
G1 X1.5187
G1 X1.5165 Y5.7672
G1 X1.5148 Y5.7686
G1 X1.5138 Y5.7707
G1 X1.5137 Y5.7717
G1 Y6.0217
G1 X1.5142 Y6.0239
G1 X1.5156 Y6.0257
G1 X1.5176 Y6.0266
G1 X1.5187 Y6.0267
G1 X2.5787
G1 X2.5809 Y6.0262
G1 X2.5826 Y6.0248
G1 X2.5836 Y6.0228
G1 X2.5837 Y6.0217
G1 Y5.7717
G1 X2.5832 Y5.7696
G1 X2.5818 Y5.7678
G1 X2.5798 Y5.7669
G1 X2.5787 Y5.7667
G1 X2.4974
G1 Y5.6517
G1 X2.7999
G1 Y5.7667
G1 X2.7187
G1 X2.7165 Y5.7672
G1 X2.7148 Y5.7686
G1 X2.7138 Y5.7707
G1 X2.7137 Y5.7717
G1 Y6.0217
G1 X2.7142 Y6.0239
G1 X2.7156 Y6.0257
G1 X2.7176 Y6.0266
G1 X2.7187 Y6.0267
G1 X3.1487
G1 X3.1509 Y6.0262
G1 X3.1526 Y6.0248
G1 X3.1536 Y6.0228
G1 X3.1537 Y6.0217
G1 Y0.8237
G1 X3.3898 Y0.5752
G1 X3.3909 Y0.5733
G1 X3.3912 Y0.5717
G1 Y0.1967
G1 X3.3907 Y0.1946
G1 X3.3893 Y0.1928
G1 X3.3873 Y0.1919
G1 X3.3862 Y0.1917
G1 X2.9862
G1 X2.984 Y0.1922
G1 X2.9823 Y0.1936
G1 X2.9813 Y0.1957
G1 X2.9812 Y0.1967
G1 Y0.4117
( Profile3 )
S1000
G0 Z0.125
G0 X6.4812 Y2.9667
G0 Z0.03
G1 F5.0 Z-0.01
G1 F10.0 X6.4807 Y2.9743
G1 X6.4792 Y2.9817
G1 X6.4767 Y2.9889
G1 X6.4734 Y2.9957
G1 X6.4691 Y3.002
G1 X6.4641 Y3.0077
G1 X6.4583 Y3.0126
G1 X6.452 Y3.0168
G1 X6.4452 Y3.0201
G1 X6.438 Y3.0224
G1 X6.4305 Y3.0238
G1 X6.4229 Y3.0242
G1 X6.4154 Y3.0236
G1 X6.408 Y3.0221
G1 X6.4008 Y3.0195
G1 X6.3949 Y3.0165
G1 X6.3886 Y3.0123
G1 X6.3829 Y3.0073
G1 X6.3779 Y3.0016
G1 X6.3738 Y2.9953
G1 X6.3704 Y2.9885
G1 X6.368 Y2.9813
G1 X6.3666 Y2.9738
G1 X6.3662 Y2.9662
G1 X6.3667 Y2.9587
G1 X6.3683 Y2.9513
G1 X6.3708 Y2.9441
G1 X6.3743 Y2.9374
G1 X6.3786 Y2.9311
G1 X6.3836 Y2.9255
G1 X6.3894 Y2.9206
G1 X6.3949 Y2.9169
G1 X6.4017 Y2.9136
G1 X6.4089 Y2.9112
G1 X6.4164 Y2.9097
G1 X6.4239 Y2.9092
G1 X6.4315 Y2.9098
G1 X6.4389 Y2.9113
G1 X6.4461 Y2.9138
G1 X6.4529 Y2.9172
G1 X6.4591 Y2.9215
G1 X6.4648 Y2.9265
G1 X6.4697 Y2.9323
G1 X6.4738 Y2.9386
G1 X6.4771 Y2.9455
G1 X6.4794 Y2.9527
G1 X6.4808 Y2.9602
G1 X6.4812 Y2.9667
G0 Z0.125
G0 X6.4345 Y3.2103
G0 Z0.03
G1 F5.0 Z-0.01
G1 F10.0 X6.4418 Y3.2122
G1 X6.4489 Y3.2151
G1 X6.4554 Y3.2188
G1 X6.4615 Y3.2234
G1 X6.4668 Y3.2288
G1 X6.4715 Y3.2348
G1 X6.4753 Y3.2413
G1 X6.4782 Y3.2483
G1 X6.4801 Y3.2557
G1 X6.4811 Y3.2632
G1 X6.4812 Y3.2667
G1 X6.4807 Y3.2743
G1 X6.4792 Y3.2817
G1 X6.4767 Y3.2889
G1 X6.4734 Y3.2957
G1 X6.4691 Y3.302
G1 X6.4641 Y3.3077
G1 X6.4583 Y3.3126
G1 X6.452 Y3.3168
G1 X6.4452 Y3.3201
G1 X6.438 Y3.3224
G1 X6.4305 Y3.3238
G1 X6.4229 Y3.3242
G1 X6.4154 Y3.3236
G1 X6.408 Y3.3221
G1 X6.4008 Y3.3195
G1 X6.3949 Y3.3165
G1 X6.3886 Y3.3123
G1 X6.3829 Y3.3073
G1 X6.3779 Y3.3016
G1 X6.3738 Y3.2953
G1 X6.3704 Y3.2885
G1 X6.368 Y3.2813
G1 X6.3666 Y3.2738
G1 X6.3662 Y3.2662
G1 X6.3667 Y3.2587
G1 X6.3683 Y3.2513
G1 X6.3708 Y3.2441
G1 X6.3743 Y3.2374
G1 X6.3786 Y3.2311
G1 X6.3836 Y3.2255
G1 X6.3894 Y3.2206
G1 X6.3949 Y3.2169
G1 X6.4017 Y3.2136
G1 X6.4089 Y3.2112
G1 X6.4164 Y3.2097
G1 X6.4239 Y3.2092
G1 X6.4315 Y3.2098
G1 X6.4345 Y3.2103
G0 Z0.125
G0 X6.4244 Y2.3992
G0 Z0.03
G1 F5.0 Z-0.01
G1 F10.0 X6.4168 Y2.3988
G1 X6.4094 Y2.3974
G1 X6.4022 Y2.3951
G1 X6.3953 Y2.3918
G1 X6.3949 Y2.3915
G1 X6.3886 Y2.3873
G1 X6.3829 Y2.3823
G1 X6.3779 Y2.3766
G1 X6.3738 Y2.3703
G1 X6.3704 Y2.3635
G1 X6.368 Y2.3563
G1 X6.3666 Y2.3488
G1 X6.3662 Y2.3412
G1 X6.3667 Y2.3337
G1 X6.3683 Y2.3263
G1 X6.3708 Y2.3191
G1 X6.3743 Y2.3124
G1 X6.3786 Y2.3061
G1 X6.3836 Y2.3005
G1 X6.3894 Y2.2956
G1 X6.3949 Y2.2919
G1 X6.4017 Y2.2886
G1 X6.4089 Y2.2862
G1 X6.4164 Y2.2847
G1 X6.4239 Y2.2842
G1 X6.4315 Y2.2848
G1 X6.4389 Y2.2863
G1 X6.4461 Y2.2888
G1 X6.4529 Y2.2922
G1 X6.4591 Y2.2965
G1 X6.4648 Y2.3015
G1 X6.4697 Y2.3073
G1 X6.4738 Y2.3136
G1 X6.4771 Y2.3205
G1 X6.4794 Y2.3277
G1 X6.4808 Y2.3352
G1 X6.4812 Y2.3417
G1 X6.4807 Y2.3493
G1 X6.4792 Y2.3567
G1 X6.4767 Y2.3639
G1 X6.4734 Y2.3707
G1 X6.4691 Y2.377
G1 X6.4641 Y2.3827
G1 X6.4583 Y2.3876
G1 X6.452 Y2.3918
G1 X6.4452 Y2.3951
G1 X6.438 Y2.3974
G1 X6.4305 Y2.3988
G1 X6.4244 Y2.3992
G0 Z0.125
G0 X6.2297 Y2.3546
G0 Z0.03
G1 F5.0 Z-0.01
G1 F10.0 X6.2275 Y2.3619
G1 X6.2244 Y2.3688
G1 X6.2204 Y2.3752
G1 X6.2156 Y2.3811
G1 X6.2101 Y2.3863
G1 X6.2039 Y2.3907
G1 X6.1972 Y2.3942
G1 X6.1901 Y2.3968
G1 X6.1827 Y2.3985
G1 X6.1752 Y2.3992
G1 X6.1676 Y2.3989
G1 X6.1601 Y2.3976
G1 X6.1529 Y2.3953
G1 X6.146 Y2.3921
G1 X6.1449 Y2.3915
G1 X6.1386 Y2.3873
G1 X6.1329 Y2.3823
G1 X6.1279 Y2.3766
G1 X6.1238 Y2.3703
G1 X6.1204 Y2.3635
G1 X6.118 Y2.3563
G1 X6.1166 Y2.3488
G1 X6.1162 Y2.3412
G1 X6.1167 Y2.3337
G1 X6.1183 Y2.3263
G1 X6.1208 Y2.3191
G1 X6.1243 Y2.3124
G1 X6.1286 Y2.3061
G1 X6.1336 Y2.3005
G1 X6.1394 Y2.2956
G1 X6.1449 Y2.2919
G1 X6.1517 Y2.2886
G1 X6.1589 Y2.2862
G1 X6.1664 Y2.2847
G1 X6.1739 Y2.2842
G1 X6.1815 Y2.2848
G1 X6.1889 Y2.2863
G1 X6.1961 Y2.2888
G1 X6.2029 Y2.2922
G1 X6.2091 Y2.2965
G1 X6.2148 Y2.3015
G1 X6.2197 Y2.3073
G1 X6.2238 Y2.3136
G1 X6.2271 Y2.3205
G1 X6.2294 Y2.3277
G1 X6.2308 Y2.3352
G1 X6.2312 Y2.3417
G1 X6.2307 Y2.3493
G1 X6.2297 Y2.3546
G0 Z0.125
G0 X6.1838 Y2.0983
G0 Z0.03
G1 F5.0 Z-0.01
G1 F10.0 X6.1763 Y2.0992
G1 X6.1687 Y2.099
G1 X6.1612 Y2.0979
G1 X6.1539 Y2.0957
G1 X6.147 Y2.0927
G1 X6.1449 Y2.0915
G1 X6.1386 Y2.0873
G1 X6.1329 Y2.0823
G1 X6.1279 Y2.0766
G1 X6.1238 Y2.0703
G1 X6.1204 Y2.0635
G1 X6.118 Y2.0563
G1 X6.1166 Y2.0488
G1 X6.1162 Y2.0412
G1 X6.1167 Y2.0337
G1 X6.1183 Y2.0263
G1 X6.1208 Y2.0191
G1 X6.1243 Y2.0124
G1 X6.1286 Y2.0061
G1 X6.1336 Y2.0005
G1 X6.1394 Y1.9956
G1 X6.1449 Y1.9919
G1 X6.1517 Y1.9886
G1 X6.1589 Y1.9862
G1 X6.1664 Y1.9847
G1 X6.1739 Y1.9842
G1 X6.1815 Y1.9848
G1 X6.1889 Y1.9863
G1 X6.1961 Y1.9888
G1 X6.2029 Y1.9922
G1 X6.2091 Y1.9965
G1 X6.2148 Y2.0015
G1 X6.2197 Y2.0073
G1 X6.2238 Y2.0136
G1 X6.2271 Y2.0205
G1 X6.2294 Y2.0277
G1 X6.2308 Y2.0352
G1 X6.2312 Y2.0417
G1 X6.2307 Y2.0493
G1 X6.2292 Y2.0567
G1 X6.2267 Y2.0639
G1 X6.2234 Y2.0707
G1 X6.2191 Y2.077
G1 X6.2141 Y2.0827
G1 X6.2083 Y2.0876
G1 X6.202 Y2.0918
G1 X6.1952 Y2.0951
G1 X6.188 Y2.0974
G1 X6.1838 Y2.0983
G0 Z0.125
G0 X6.3677 Y2.0549
G0 Z0.03
G1 F5.0 Z-0.01
G1 F10.0 X6.3665 Y2.0475
G1 X6.3662 Y2.0399
G1 X6.367 Y2.0323
G1 X6.3687 Y2.025
G1 X6.3714 Y2.0179
G1 X6.375 Y2.0112
G1 X6.3794 Y2.005
G1 X6.3846 Y1.9995
G1 X6.3905 Y1.9948
G1 X6.3949 Y1.9919
G1 X6.4017 Y1.9886
G1 X6.4089 Y1.9862
G1 X6.4164 Y1.9847
G1 X6.4239 Y1.9842
G1 X6.4315 Y1.9848
G1 X6.4389 Y1.9863
G1 X6.4461 Y1.9888
G1 X6.4529 Y1.9922
G1 X6.4591 Y1.9965
G1 X6.4648 Y2.0015
G1 X6.4697 Y2.0073
G1 X6.4738 Y2.0136
G1 X6.4771 Y2.0205
G1 X6.4794 Y2.0277
G1 X6.4808 Y2.0352
G1 X6.4812 Y2.0417
G1 X6.4807 Y2.0493
G1 X6.4792 Y2.0567
G1 X6.4767 Y2.0639
G1 X6.4734 Y2.0707
G1 X6.4691 Y2.077
G1 X6.4641 Y2.0827
G1 X6.4583 Y2.0876
G1 X6.452 Y2.0918
G1 X6.4452 Y2.0951
G1 X6.438 Y2.0974
G1 X6.4305 Y2.0988
G1 X6.4229 Y2.0992
G1 X6.4154 Y2.0986
G1 X6.408 Y2.0971
G1 X6.4008 Y2.0945
G1 X6.3949 Y2.0915
G1 X6.3886 Y2.0873
G1 X6.3829 Y2.0823
G1 X6.3779 Y2.0766
G1 X6.3738 Y2.0703
G1 X6.3704 Y2.0635
G1 X6.368 Y2.0563
G1 X6.3677 Y2.0549
G0 Z0.125
G0 X6.5636 Y0.3863
G0 Z0.03
G1 F5.0 Z-0.01
G1 F10.0 X6.5557 Y0.3849
G1 X6.548 Y0.3825
G1 X6.5406 Y0.3791
G1 X6.5387 Y0.378
G1 X6.532 Y0.3736
G1 X6.5258 Y0.3683
G1 X6.5204 Y0.3624
G1 X6.5158 Y0.3558
G1 X6.512 Y0.3486
G1 X6.5091 Y0.3411
G1 X6.5072 Y0.3333
G1 X6.5063 Y0.3253
G1 Y0.3172
G1 X6.5074 Y0.3092
G1 X6.5094 Y0.3014
G1 X6.5124 Y0.2939
G1 X6.5163 Y0.2869
G1 X6.5211 Y0.2803
G1 X6.5266 Y0.2745
G1 X6.5328 Y0.2693
G1 X6.5387 Y0.2655
G1 X6.5459 Y0.2619
G1 X6.5535 Y0.2592
G1 X6.5614 Y0.2575
G1 X6.5694 Y0.2568
G1 X6.5775 Y0.257
G1 X6.5854 Y0.2583
G1 X6.5932 Y0.2606
G1 X6.6006 Y0.2638
G1 X6.6075 Y0.2679
G1 X6.6139 Y0.2728
G1 X6.6197 Y0.2784
G1 X6.6246 Y0.2848
G1 X6.6288 Y0.2917
G1 X6.6321 Y0.299
G1 X6.6344 Y0.3068
G1 X6.6358 Y0.3147
G1 X6.6362 Y0.3217
G1 X6.6357 Y0.3298
G1 X6.6342 Y0.3377
G1 X6.6317 Y0.3454
G1 X6.6283 Y0.3527
G1 X6.6241 Y0.3595
G1 X6.619 Y0.3658
G1 X6.6132 Y0.3714
G1 X6.6067 Y0.3762
G1 X6.5997 Y0.3802
G1 X6.5922 Y0.3832
G1 X6.5844 Y0.3854
G1 X6.5765 Y0.3865
G1 X6.5684 Y0.3867
G1 X6.5636 Y0.3863
G0 Z0.125
G0 X3.9412 Y0.3233
G0 Z0.03
G1 F5.0 Z-0.01
G1 F10.0 X3.9405 Y0.3313
G1 X3.9388 Y0.3392
G1 X3.9361 Y0.3468
G1 X3.9326 Y0.3541
G1 X3.9281 Y0.3608
G1 X3.9229 Y0.3669
G1 X3.9169 Y0.3724
G1 X3.9104 Y0.377
G1 X3.9033 Y0.3808
G1 X3.8957 Y0.3837
G1 X3.8879 Y0.3857
G1 X3.8799 Y0.3866
G1 X3.8718
G1 X3.8639 Y0.3856
G1 X3.856 Y0.3835
G1 X3.8485 Y0.3806
G1 X3.8437 Y0.378
G1 X3.837 Y0.3736
G1 X3.8308 Y0.3683
G1 X3.8254 Y0.3624
G1 X3.8208 Y0.3558
G1 X3.817 Y0.3486
G1 X3.8141 Y0.3411
G1 X3.8122 Y0.3333
G1 X3.8113 Y0.3253
G1 Y0.3172
G1 X3.8124 Y0.3092
G1 X3.8144 Y0.3014
G1 X3.8174 Y0.2939
G1 X3.8213 Y0.2869
G1 X3.8261 Y0.2803
G1 X3.8316 Y0.2745
G1 X3.8378 Y0.2693
G1 X3.8437 Y0.2655
G1 X3.8509 Y0.2619
G1 X3.8585 Y0.2592
G1 X3.8664 Y0.2575
G1 X3.8744 Y0.2568
G1 X3.8825 Y0.257
G1 X3.8904 Y0.2583
G1 X3.8982 Y0.2606
G1 X3.9056 Y0.2638
G1 X3.9125 Y0.2679
G1 X3.9189 Y0.2728
G1 X3.9247 Y0.2784
G1 X3.9296 Y0.2848
G1 X3.9338 Y0.2917
G1 X3.9371 Y0.299
G1 X3.9394 Y0.3068
G1 X3.9408 Y0.3147
G1 X3.9412 Y0.3217
G1 Y0.3233
( Profile4 )
S1000
G0 Z0.125
G0 X6.4062 Y0.4117
G0 Z0.03
G1 F5.0 Z-0.01
G1 F10.0 X4.0412
G1 Y0.1967
G1 X4.0407 Y0.1946
G1 X4.0393 Y0.1928
G1 X4.0373 Y0.1919
G1 X4.0362 Y0.1917
G1 X3.6362
G1 X3.634 Y0.1922
G1 X3.6323 Y0.1936
G1 X3.6313 Y0.1957
G1 X3.6312 Y0.1967
G1 Y0.5717
G1 X3.6317 Y0.5739
G1 X3.6326 Y0.5752
G1 X3.8687 Y0.8237
G1 Y4.1137
G1 X3.8692 Y4.1159
G1 X3.8706 Y4.1177
G1 X3.8726 Y4.1186
G1 X3.8737 Y4.1187
G1 X4.1237
G1 X4.1259 Y4.1182
G1 X4.1276 Y4.1168
G1 X4.1286 Y4.1148
G1 X4.1287 Y4.1137
G1 Y4.0325
G1 X4.2437
G1 Y4.335
G1 X4.1287
G1 Y4.2537
G1 X4.1282 Y4.2516
G1 X4.1268 Y4.2498
G1 X4.1248 Y4.2489
G1 X4.1237 Y4.2487
G1 X3.8737
G1 X3.8715 Y4.2492
G1 X3.8698 Y4.2506
G1 X3.8688 Y4.2527
G1 X3.8687 Y4.2537
G1 Y5.1323
G1 X3.8692 Y5.1345
G1 X3.8706 Y5.1363
G1 X3.8726 Y5.1372
G1 X3.8737 Y5.1373
G1 X4.1237
G1 X4.1259 Y5.1368
G1 X4.1276 Y5.1354
G1 X4.1286 Y5.1334
G1 X4.1287 Y5.1323
G1 Y5.0511
G1 X4.2437
G1 Y5.3536
G1 X4.1287
G1 Y5.2723
G1 X4.1282 Y5.2702
G1 X4.1268 Y5.2684
G1 X4.1248 Y5.2675
G1 X4.1237 Y5.2673
G1 X3.8737
G1 X3.8715 Y5.2678
G1 X3.8698 Y5.2692
G1 X3.8688 Y5.2713
G1 X3.8687 Y5.2723
G1 Y6.0217
G1 X3.8692 Y6.0239
G1 X3.8706 Y6.0257
G1 X3.8726 Y6.0266
G1 X3.8737 Y6.0267
G1 X4.8037
G1 X4.8059 Y6.0262
G1 X4.8076 Y6.0248
G1 X4.8086 Y6.0228
G1 X4.8087 Y6.0217
G1 Y5.7717
G1 X4.8082 Y5.7696
G1 X4.8068 Y5.7678
G1 X4.8048 Y5.7669
G1 X4.8037 Y5.7667
G1 X4.7224
G1 Y5.6517
G1 X5.0249
G1 Y5.7667
G1 X4.9437
G1 X4.9415 Y5.7672
G1 X4.9398 Y5.7686
G1 X4.9388 Y5.7707
G1 X4.9387 Y5.7717
G1 Y6.0217
G1 X4.9392 Y6.0239
G1 X4.9406 Y6.0257
G1 X4.9426 Y6.0266
G1 X4.9437 Y6.0267
G1 X6.0037
G1 X6.0059 Y6.0262
G1 X6.0076 Y6.0248
G1 X6.0086 Y6.0228
G1 X6.0087 Y6.0217
G1 Y5.7717
G1 X6.0082 Y5.7696
G1 X6.0068 Y5.7678
G1 X6.0048 Y5.7669
G1 X6.0037 Y5.7667
G1 X5.9224
G1 Y5.6517
G1 X6.2249
G1 Y5.7667
G1 X6.1437
G1 X6.1415 Y5.7672
G1 X6.1398 Y5.7686
G1 X6.1388 Y5.7707
G1 X6.1387 Y5.7717
G1 Y6.0217
G1 X6.1392 Y6.0239
G1 X6.1406 Y6.0257
G1 X6.1426 Y6.0266
G1 X6.1437 Y6.0267
G1 X6.5737
G1 X6.5759 Y6.0262
G1 X6.5776 Y6.0248
G1 X6.5786 Y6.0228
G1 X6.5787 Y6.0217
G1 Y0.8237
G1 X6.8148 Y0.5752
G1 X6.8159 Y0.5733
G1 X6.8162 Y0.5717
G1 Y0.1967
G1 X6.8157 Y0.1946
G1 X6.8143 Y0.1928
G1 X6.8123 Y0.1919
G1 X6.8112 Y0.1917
G1 X6.4112
G1 X6.409 Y0.1922
G1 X6.4073 Y0.1936
G1 X6.4063 Y0.1957
G1 X6.4062 Y0.1967
G1 Y0.4117
( Profile5 )
S1000
G0 Z0.125
G0 X8.615 Y2.975
G0 Z0.03
G1 F5.0 Z-0.01
G1 F10.0 X8.6145 Y2.983
G1 X8.613 Y2.991
G1 X8.6105 Y2.9986
G1 X8.6072 Y3.006
G1 X8.6029 Y3.0128
G1 X8.5978 Y3.0191
G1 X8.592 Y3.0246
G1 X8.5855 Y3.0294
G1 X8.5785 Y3.0334
G1 X8.571 Y3.0365
G1 X8.5633 Y3.0386
G1 X8.5553 Y3.0398
G1 X8.5472 Y3.0399
G1 X8.5392 Y3.0391
G1 X8.5314 Y3.0373
G1 X8.5238 Y3.0345
G1 X8.5175 Y3.0313
G1 X8.5108 Y3.0268
G1 X8.5047 Y3.0216
G1 X8.4992 Y3.0156
G1 X8.4946 Y3.009
G1 X8.4908 Y3.0019
G1 X8.488 Y2.9944
G1 X8.486 Y2.9865
G1 X8.4851 Y2.9785
G1 X8.4852 Y2.9705
G1 X8.4862 Y2.9625
G1 X8.4883 Y2.9547
G1 X8.4913 Y2.9472
G1 X8.4951 Y2.9401
G1 X8.4999 Y2.9336
G1 X8.5054 Y2.9277
G1 X8.5116 Y2.9226
G1 X8.5175 Y2.9187
G1 X8.5247 Y2.9151
G1 X8.5323 Y2.9124
G1 X8.5402 Y2.9107
G1 X8.5482 Y2.91
G1 X8.5563 Y2.9103
G1 X8.5643 Y2.9116
G1 X8.572 Y2.9138
G1 X8.5794 Y2.917
G1 X8.5863 Y2.9211
G1 X8.5927 Y2.926
G1 X8.5985 Y2.9317
G1 X8.6035 Y2.938
G1 X8.6076 Y2.9449
G1 X8.6109 Y2.9523
G1 X8.6132 Y2.96
G1 X8.6146 Y2.968
G1 X8.615 Y2.975
G0 Z0.125
G0 X9.485
G0 Z0.03
G1 F5.0 Z-0.01
G1 F10.0 X9.4855 Y2.967
G1 X9.487 Y2.959
G1 X9.4895 Y2.9514
G1 X9.4928 Y2.944
G1 X9.4971 Y2.9372
G1 X9.5022 Y2.9309
G1 X9.508 Y2.9254
G1 X9.5145 Y2.9206
G1 X9.5175 Y2.9187
G1 X9.5247 Y2.9151
G1 X9.5323 Y2.9124
G1 X9.5402 Y2.9107
G1 X9.5482 Y2.91
G1 X9.5563 Y2.9103
G1 X9.5643 Y2.9116
G1 X9.572 Y2.9138
G1 X9.5794 Y2.917
G1 X9.5863 Y2.9211
G1 X9.5927 Y2.926
G1 X9.5985 Y2.9317
G1 X9.6035 Y2.938
G1 X9.6076 Y2.9449
G1 X9.6109 Y2.9523
G1 X9.6132 Y2.96
G1 X9.6146 Y2.968
G1 X9.615 Y2.975
G1 X9.6145 Y2.983
G1 X9.613 Y2.991
G1 X9.6105 Y2.9986
G1 X9.6072 Y3.006
G1 X9.6029 Y3.0128
G1 X9.5978 Y3.0191
G1 X9.592 Y3.0246
G1 X9.5855 Y3.0294
G1 X9.5785 Y3.0334
G1 X9.571 Y3.0365
G1 X9.5633 Y3.0386
G1 X9.5553 Y3.0398
G1 X9.5472 Y3.0399
G1 X9.5392 Y3.0391
G1 X9.5314 Y3.0373
G1 X9.5238 Y3.0345
G1 X9.5175 Y3.0313
G1 X9.5108 Y3.0268
G1 X9.5047 Y3.0216
G1 X9.4992 Y3.0156
G1 X9.4946 Y3.009
G1 X9.4908 Y3.0019
G1 X9.488 Y2.9944
G1 X9.486 Y2.9865
G1 X9.4851 Y2.9785
G1 X9.485 Y2.975
G0 Z0.125
G0 X9.5464 Y3.9201
G0 Z0.03
G1 F5.0 Z-0.01
G1 F10.0 X9.5538
G1 X9.5612 Y3.9212
G1 X9.5683 Y3.9231
G1 X9.5751 Y3.9261
G1 X9.5815 Y3.9299
G1 X9.5873 Y3.9346
G1 X9.5924 Y3.9399
G1 X9.5967 Y3.946
G1 X9.6002 Y3.9525
G1 X9.6028 Y3.9595
G1 X9.6044 Y3.9667
G1 X9.605 Y3.9741
G1 Y3.975
G1 X9.6045 Y3.9824
G1 X9.603 Y3.9897
G1 X9.6006 Y3.9967
G1 X9.5972 Y4.0033
G1 X9.5929 Y4.0094
G1 X9.5879 Y4.0148
G1 X9.5822 Y4.0196
G1 X9.5759 Y4.0235
G1 X9.5692 Y4.0265
G1 X9.5621 Y4.0287
G1 X9.5547 Y4.0298
G1 X9.5473 Y4.0299
G1 X9.54 Y4.0291
G1 X9.5328 Y4.0272
G1 X9.5259 Y4.0244
G1 X9.5225 Y4.0226
G1 X9.5163 Y4.0185
G1 X9.5108 Y4.0136
G1 X9.506 Y4.008
G1 X9.5019 Y4.0017
G1 X9.4988 Y3.995
G1 X9.4965 Y3.9879
G1 X9.4953 Y3.9806
G1 X9.495 Y3.9732
G1 X9.4958 Y3.9658
G1 X9.4975 Y3.9586
G1 X9.5002 Y3.9517
G1 X9.5038 Y3.9452
G1 X9.5082 Y3.9393
G1 X9.5134 Y3.934
G1 X9.5192 Y3.9294
G1 X9.5225 Y3.9274
G1 X9.5292 Y3.9241
G1 X9.5362 Y3.9218
G1 X9.5435 Y3.9204
G1 X9.5464 Y3.9201
G0 Z0.125
G0 X8.6049 Y3.972
G0 Z0.03
G1 F5.0 Z-0.01
G1 F10.0 X8.605 Y3.975
G1 X8.6045 Y3.9824
G1 X8.603 Y3.9897
G1 X8.6006 Y3.9967
G1 X8.5972 Y4.0033
G1 X8.5929 Y4.0094
G1 X8.5879 Y4.0148
G1 X8.5822 Y4.0196
G1 X8.5759 Y4.0235
G1 X8.5692 Y4.0265
G1 X8.5621 Y4.0287
G1 X8.5547 Y4.0298
G1 X8.5473 Y4.0299
G1 X8.54 Y4.0291
G1 X8.5328 Y4.0272
G1 X8.5259 Y4.0244
G1 X8.5225 Y4.0226
G1 X8.5163 Y4.0185
G1 X8.5108 Y4.0136
G1 X8.506 Y4.008
G1 X8.5019 Y4.0017
G1 X8.4988 Y3.995
G1 X8.4965 Y3.9879
G1 X8.4953 Y3.9806
G1 X8.495 Y3.9732
G1 X8.4958 Y3.9658
G1 X8.4975 Y3.9586
G1 X8.5002 Y3.9517
G1 X8.5038 Y3.9452
G1 X8.5082 Y3.9393
G1 X8.5134 Y3.934
G1 X8.5192 Y3.9294
G1 X8.5225 Y3.9274
G1 X8.5292 Y3.9241
G1 X8.5362 Y3.9218
G1 X8.5435 Y3.9204
G1 X8.5509 Y3.92
G1 X8.5583 Y3.9206
G1 X8.5655 Y3.9222
G1 X8.5725 Y3.9248
G1 X8.579 Y3.9283
G1 X8.585 Y3.9326
G1 X8.5904 Y3.9377
G1 X8.5951 Y3.9435
G1 X8.5989 Y3.9498
G1 X8.6018 Y3.9567
G1 X8.6038 Y3.9638
G1 X8.6049 Y3.9711
G1 Y3.972
G0 Z0.125
G0 X8.5576 Y4.3126
G0 Z0.03
G1 F5.0 Z-0.01
G1 F10.0 X8.5648 Y4.3141
G1 X8.5718 Y4.3166
G1 X8.5784 Y4.32
G1 X8.5845 Y4.3243
G1 X8.5899 Y4.3293
G1 X8.5947 Y4.335
G1 X8.5986 Y4.3413
G1 X8.6016 Y4.3481
G1 X8.6037 Y4.3552
G1 X8.6048 Y4.3625
G1 X8.605 Y4.3671
G1 X8.6045 Y4.3745
G1 X8.603 Y4.3818
G1 X8.6006 Y4.3888
G1 X8.5972 Y4.3954
G1 X8.5929 Y4.4015
G1 X8.5879 Y4.4069
G1 X8.5822 Y4.4117
G1 X8.5759 Y4.4156
G1 X8.5692 Y4.4186
G1 X8.5621 Y4.4208
G1 X8.5547 Y4.4219
G1 X8.5473 Y4.422
G1 X8.54 Y4.4212
G1 X8.5328 Y4.4193
G1 X8.5259 Y4.4165
G1 X8.5225 Y4.4147
G1 X8.5163 Y4.4106
G1 X8.5108 Y4.4057
G1 X8.506 Y4.4001
G1 X8.5019 Y4.3938
G1 X8.4988 Y4.3871
G1 X8.4965 Y4.38
G1 X8.4953 Y4.3727
G1 X8.495 Y4.3653
G1 X8.4958 Y4.3579
G1 X8.4975 Y4.3507
G1 X8.5002 Y4.3438
G1 X8.5038 Y4.3373
G1 X8.5082 Y4.3314
G1 X8.5134 Y4.3261
G1 X8.5192 Y4.3215
G1 X8.5225 Y4.3195
G1 X8.5292 Y4.3162
G1 X8.5362 Y4.3139
G1 X8.5435 Y4.3125
G1 X8.5509 Y4.3121
G1 X8.5576 Y4.3126
G0 Z0.125
G0 X8.5507 Y4.91
G0 Z0.03
G1 F5.0 Z-0.01
G1 F10.0 X8.5588 Y4.9106
G1 X8.5667 Y4.9122
G1 X8.5743 Y4.9147
G1 X8.5816 Y4.9182
G1 X8.5884 Y4.9226
G1 X8.5946 Y4.9277
G1 X8.6001 Y4.9336
G1 X8.6048 Y4.9401
G1 X8.6087 Y4.9472
G1 X8.6117 Y4.9547
G1 X8.6138 Y4.9625
G1 X8.6148 Y4.9705
G1 X8.615 Y4.975
G1 X8.6145 Y4.983
G1 X8.613 Y4.991
G1 X8.6105 Y4.9986
G1 X8.6072 Y5.006
G1 X8.6029 Y5.0128
G1 X8.5978 Y5.0191
G1 X8.592 Y5.0246
G1 X8.5855 Y5.0294
G1 X8.5785 Y5.0334
G1 X8.571 Y5.0365
G1 X8.5633 Y5.0386
G1 X8.5553 Y5.0398
G1 X8.5472 Y5.0399
G1 X8.5392 Y5.0391
G1 X8.5314 Y5.0373
G1 X8.5238 Y5.0345
G1 X8.5175 Y5.0313
G1 X8.5108 Y5.0268
G1 X8.5047 Y5.0216
G1 X8.4992 Y5.0156
G1 X8.4946 Y5.009
G1 X8.4908 Y5.0019
G1 X8.488 Y4.9944
G1 X8.486 Y4.9865
G1 X8.4851 Y4.9785
G1 X8.4852 Y4.9705
G1 X8.4862 Y4.9625
G1 X8.4883 Y4.9547
G1 X8.4913 Y4.9472
G1 X8.4951 Y4.9401
G1 X8.4999 Y4.9336
G1 X8.5054 Y4.9277
G1 X8.5116 Y4.9226
G1 X8.5175 Y4.9187
G1 X8.5247 Y4.9151
G1 X8.5323 Y4.9124
G1 X8.5402 Y4.9107
G1 X8.5482 Y4.91
G1 X8.5507
G0 Z0.125
G0 X9.4129 Y5.003
G0 Z0.03
G1 F5.0 Z-0.01
G1 F10.0 X9.4142 Y4.9951
G1 X9.4166 Y4.9874
G1 X9.4198 Y4.98
G1 X9.424 Y4.9731
G1 X9.429 Y4.9667
G1 X9.4347 Y4.9611
G1 X9.4411 Y4.9562
G1 X9.445 Y4.9537
G1 X9.4522 Y4.9501
G1 X9.4598 Y4.9474
G1 X9.4677 Y4.9457
G1 X9.4757 Y4.945
G1 X9.4838 Y4.9453
G1 X9.4918 Y4.9466
G1 X9.4995 Y4.9488
G1 X9.5069 Y4.952
G1 X9.5138 Y4.9561
G1 X9.5202 Y4.961
G1 X9.526 Y4.9667
G1 X9.531 Y4.973
G1 X9.5351 Y4.9799
G1 X9.5384 Y4.9873
G1 X9.5407 Y4.995
G1 X9.5421 Y5.003
G1 X9.5425 Y5.01
G1 X9.542 Y5.018
G1 X9.5405 Y5.026
G1 X9.538 Y5.0336
G1 X9.5347 Y5.041
G1 X9.5304 Y5.0478
G1 X9.5253 Y5.0541
G1 X9.5195 Y5.0596
G1 X9.513 Y5.0644
G1 X9.506 Y5.0684
G1 X9.4985 Y5.0715
G1 X9.4908 Y5.0736
G1 X9.4828 Y5.0748
G1 X9.4747 Y5.0749
G1 X9.4667 Y5.0741
G1 X9.4589 Y5.0723
G1 X9.4513 Y5.0695
G1 X9.445 Y5.0663
G1 X9.4383 Y5.0618
G1 X9.4322 Y5.0566
G1 X9.4267 Y5.0506
G1 X9.4221 Y5.044
G1 X9.4183 Y5.0369
G1 X9.4155 Y5.0294
G1 X9.4135 Y5.0215
G1 X9.4126 Y5.0135
G1 X9.4127 Y5.0055
G1 X9.4129 Y5.003
G0 Z0.125
G0 X7.6875 Y5.0097
G0 Z0.03
G1 F5.0 Z-0.01
G1 F10.0 Y5.01
G1 X7.687 Y5.018
G1 X7.6855 Y5.026
G1 X7.683 Y5.0336
G1 X7.6797 Y5.041
G1 X7.6754 Y5.0478
G1 X7.6703 Y5.0541
G1 X7.6645 Y5.0596
G1 X7.658 Y5.0644
G1 X7.651 Y5.0684
G1 X7.6435 Y5.0715
G1 X7.6358 Y5.0736
G1 X7.6278 Y5.0748
G1 X7.6197 Y5.0749
G1 X7.6117 Y5.0741
G1 X7.6039 Y5.0723
G1 X7.5963 Y5.0695
G1 X7.59 Y5.0663
G1 X7.5833 Y5.0618
G1 X7.5772 Y5.0566
G1 X7.5717 Y5.0506
G1 X7.5671 Y5.044
G1 X7.5633 Y5.0369
G1 X7.5605 Y5.0294
G1 X7.5585 Y5.0215
G1 X7.5576 Y5.0135
G1 X7.5577 Y5.0055
G1 X7.5587 Y4.9975
G1 X7.5608 Y4.9897
G1 X7.5638 Y4.9822
G1 X7.5676 Y4.9751
G1 X7.5724 Y4.9686
G1 X7.5779 Y4.9627
G1 X7.5841 Y4.9576
G1 X7.59 Y4.9537
G1 X7.5972 Y4.9501
G1 X7.6048 Y4.9474
G1 X7.6127 Y4.9457
G1 X7.6207 Y4.945
G1 X7.6288 Y4.9453
G1 X7.6368 Y4.9466
G1 X7.6445 Y4.9488
G1 X7.6519 Y4.952
G1 X7.6588 Y4.9561
G1 X7.6652 Y4.961
G1 X7.671 Y4.9667
G1 X7.676 Y4.973
G1 X7.6801 Y4.9799
G1 X7.6834 Y4.9873
G1 X7.6857 Y4.995
G1 X7.6871 Y5.003
G1 X7.6875 Y5.0097
G0 Z0.125
G0 X7.5572 Y4.0295
G0 Z0.03
G1 F5.0 Z-0.01
G1 F10.0 X7.5498 Y4.03
G1 X7.5424 Y4.0295
G1 X7.5352 Y4.028
G1 X7.5282 Y4.0255
G1 X7.5225 Y4.0226
G1 X7.5163 Y4.0185
G1 X7.5108 Y4.0136
G1 X7.506 Y4.008
G1 X7.5019 Y4.0017
G1 X7.4988 Y3.995
G1 X7.4965 Y3.9879
G1 X7.4953 Y3.9806
G1 X7.495 Y3.9732
G1 X7.4958 Y3.9658
G1 X7.4975 Y3.9586
G1 X7.5002 Y3.9517
G1 X7.5038 Y3.9452
G1 X7.5082 Y3.9393
G1 X7.5134 Y3.934
G1 X7.5192 Y3.9294
G1 X7.5225 Y3.9274
G1 X7.5292 Y3.9241
G1 X7.5362 Y3.9218
G1 X7.5435 Y3.9204
G1 X7.5509 Y3.92
G1 X7.5583 Y3.9206
G1 X7.5655 Y3.9222
G1 X7.5725 Y3.9248
G1 X7.579 Y3.9283
G1 X7.585 Y3.9326
G1 X7.5904 Y3.9377
G1 X7.5951 Y3.9435
G1 X7.5989 Y3.9498
G1 X7.6018 Y3.9567
G1 X7.6038 Y3.9638
G1 X7.6049 Y3.9711
G1 X7.605 Y3.975
G1 X7.6045 Y3.9824
G1 X7.603 Y3.9897
G1 X7.6006 Y3.9967
G1 X7.5972 Y4.0033
G1 X7.5929 Y4.0094
G1 X7.5879 Y4.0148
G1 X7.5822 Y4.0196
G1 X7.5759 Y4.0235
G1 X7.5692 Y4.0265
G1 X7.5621 Y4.0287
G1 X7.5572 Y4.0295
G0 Z0.125
G0 X7.5504 Y3.04
G0 Z0.03
G1 F5.0 Z-0.01
G1 F10.0 X7.5424 Y3.0396
G1 X7.5345 Y3.0381
G1 X7.5268 Y3.0357
G1 X7.5194 Y3.0324
G1 X7.5175 Y3.0313
G1 X7.5108 Y3.0268
G1 X7.5047 Y3.0216
G1 X7.4992 Y3.0156
G1 X7.4946 Y3.009
G1 X7.4908 Y3.0019
G1 X7.488 Y2.9944
G1 X7.486 Y2.9865
G1 X7.4851 Y2.9785
G1 X7.4852 Y2.9705
G1 X7.4862 Y2.9625
G1 X7.4883 Y2.9547
G1 X7.4913 Y2.9472
G1 X7.4951 Y2.9401
G1 X7.4999 Y2.9336
G1 X7.5054 Y2.9277
G1 X7.5116 Y2.9226
G1 X7.5175 Y2.9187
G1 X7.5247 Y2.9151
G1 X7.5323 Y2.9124
G1 X7.5402 Y2.9107
G1 X7.5482 Y2.91
G1 X7.5563 Y2.9103
G1 X7.5643 Y2.9116
G1 X7.572 Y2.9138
G1 X7.5794 Y2.917
G1 X7.5863 Y2.9211
G1 X7.5927 Y2.926
G1 X7.5985 Y2.9317
G1 X7.6035 Y2.938
G1 X7.6076 Y2.9449
G1 X7.6109 Y2.9523
G1 X7.6132 Y2.96
G1 X7.6146 Y2.968
G1 X7.615 Y2.975
G1 X7.6145 Y2.983
G1 X7.613 Y2.991
G1 X7.6105 Y2.9986
G1 X7.6072 Y3.006
G1 X7.6029 Y3.0128
G1 X7.5978 Y3.0191
G1 X7.592 Y3.0246
G1 X7.5855 Y3.0294
G1 X7.5785 Y3.0334
G1 X7.571 Y3.0365
G1 X7.5633 Y3.0386
G1 X7.5553 Y3.0398
G1 X7.5504 Y3.04
( Profile6 )
S1000
G0 Z0.125
G0 X10.1425 Y4.5789
G0 Z0.03
G1 F5.0 Z-0.01
G1 F10.0 X10.142 Y4.5646
G1 X10.1405 Y4.5504
G1 X10.138 Y4.5363
G1 X10.1345 Y4.5224
G1 X10.1301 Y4.5088
G1 X10.1248 Y4.4955
G1 X10.1185 Y4.4827
G1 X10.1113 Y4.4703
G1 X10.1033 Y4.4584
G1 X10.0945 Y4.4471
G1 X10.0849 Y4.4365
G1 X10.0746 Y4.4265
G1 X10.0656 Y4.4189
G1 X10.055 Y4.4098
G1 X10.0451 Y4.4
G1 X10.036 Y4.3894
G1 X10.0276 Y4.3783
G1 X10.02 Y4.3665
G1 X10.0133 Y4.3543
G1 X10.0075 Y4.3416
G1 X10.0026 Y4.3285
G1 X9.9986 Y4.3151
G1 X9.9956 Y4.3015
G1 X9.9936 Y4.2877
G1 X9.9926 Y4.2737
G1 X9.9925 Y4.2667
G1 Y3.6833
G1 X9.993 Y3.6693
G1 X9.9945 Y3.6555
G1 X9.997 Y3.6417
G1 X10.0004 Y3.6282
G1 X10.0049 Y3.6149
G1 X10.0102 Y3.6021
G1 X10.0165 Y3.5896
G1 X10.0236 Y3.5776
G1 X10.0316 Y3.5661
G1 X10.0404 Y3.5553
G1 X10.05 Y3.5451
G1 X10.0602 Y3.5356
G1 X10.0656 Y3.5311
G1 X10.0765 Y3.5217
G1 X10.0867 Y3.5117
G1 X10.0961 Y3.5009
G1 X10.1048 Y3.4895
G1 X10.1127 Y3.4776
G1 X10.1197 Y3.4651
G1 X10.1258 Y3.4521
G1 X10.131 Y3.4388
G1 X10.1352 Y3.4251
G1 X10.1385 Y3.4112
G1 X10.1408 Y3.3971
G1 X10.1422 Y3.3828
G1 X10.1425 Y3.3711
G1 Y3.1147
G1 X10.142 Y3.1125
G1 X10.1406 Y3.1108
G1 X10.1386 Y3.1098
G1 X10.1375 Y3.1097
G1 X9.9715
G1 X9.9693 Y3.1102
G1 X9.9676 Y3.1116
G1 X9.9668 Y3.113
G1 X9.9518 Y3.1542
G1 X9.9515 Y3.1559
G1 Y3.3647
G1 X9.951 Y3.3685
G1 X9.9495 Y3.3721
G1 X9.9472 Y3.3752
G1 X9.9441 Y3.3776
G1 X9.9406 Y3.3791
G1 X9.9368 Y3.3797
G1 X9.9365
G1 X9.8585
G1 X9.8547 Y3.3792
G1 X9.8511 Y3.3777
G1 X9.848 Y3.3754
G1 X9.8456 Y3.3723
G1 X9.8441 Y3.3688
G1 X9.8435 Y3.365
G1 Y3.3647
G1 Y3.1559
G1 X9.8432 Y3.1542
G1 X9.8282 Y3.113
G1 X9.827 Y3.1111
G1 X9.8251 Y3.11
G1 X9.8235 Y3.1097
G1 X9.7425
G1 Y2.8875
G1 X9.742 Y2.8773
G1 X9.7405 Y2.8671
G1 X9.738 Y2.8572
G1 X9.7346 Y2.8475
G1 X9.7302 Y2.8383
G1 X9.725 Y2.8295
G1 X9.7189 Y2.8212
G1 X9.7121 Y2.8136
G1 X9.7045 Y2.8067
G1 X9.6963 Y2.8005
G1 X9.6876 Y2.7952
G1 X9.6783 Y2.7908
G1 X9.6687 Y2.7872
G1 X9.6588 Y2.7847
G1 X9.6486 Y2.7831
G1 X9.6384 Y2.7825
G1 X9.6375
G1 X7.4625
G1 X7.4523 Y2.783
G1 X7.4421 Y2.7845
G1 X7.4322 Y2.787
G1 X7.4225 Y2.7904
G1 X7.4133 Y2.7948
G1 X7.4045 Y2.8
G1 X7.3962 Y2.8061
G1 X7.3886 Y2.8129
G1 X7.3817 Y2.8205
G1 X7.3755 Y2.8287
G1 X7.3702 Y2.8374
G1 X7.3658 Y2.8467
G1 X7.3622 Y2.8563
G1 X7.3597 Y2.8662
G1 X7.3581 Y2.8764
G1 X7.3575 Y2.8866
G1 Y2.8875
G1 Y3.1097
G1 X7.2765
G1 X7.2743 Y3.1102
G1 X7.2726 Y3.1116
G1 X7.2718 Y3.113
G1 X7.2568 Y3.1542
G1 X7.2565 Y3.1559
G1 Y3.3647
G1 X7.256 Y3.3685
G1 X7.2545 Y3.3721
G1 X7.2522 Y3.3752
G1 X7.2491 Y3.3776
G1 X7.2456 Y3.3791
G1 X7.2418 Y3.3797
G1 X7.2415
G1 X7.1635
G1 X7.1597 Y3.3792
G1 X7.1561 Y3.3777
G1 X7.153 Y3.3754
G1 X7.1506 Y3.3723
G1 X7.1491 Y3.3688
G1 X7.1485 Y3.365
G1 Y3.3647
G1 Y3.1559
G1 X7.1482 Y3.1542
G1 X7.1332 Y3.113
G1 X7.132 Y3.1111
G1 X7.1301 Y3.11
G1 X7.1285 Y3.1097
G1 X6.9625
G1 X6.9603 Y3.1102
G1 X6.9586 Y3.1116
G1 X6.9576 Y3.1136
G1 X6.9575 Y3.1147
G1 Y3.3711
G1 X6.958 Y3.3854
G1 X6.9595 Y3.3996
G1 X6.962 Y3.4137
G1 X6.9655 Y3.4276
G1 X6.9699 Y3.4412
G1 X6.9752 Y3.4545
G1 X6.9815 Y3.4673
G1 X6.9887 Y3.4797
G1 X6.9967 Y3.4916
G1 X7.0055 Y3.5029
G1 X7.0151 Y3.5135
G1 X7.0254 Y3.5235
G1 X7.0344 Y3.5311
G1 X7.045 Y3.5402
G1 X7.0549 Y3.55
G1 X7.064 Y3.5606
G1 X7.0724 Y3.5717
G1 X7.08 Y3.5835
G1 X7.0867 Y3.5957
G1 X7.0925 Y3.6084
G1 X7.0974 Y3.6215
G1 X7.1014 Y3.6349
G1 X7.1044 Y3.6485
G1 X7.1064 Y3.6623
G1 X7.1074 Y3.6763
G1 X7.1075 Y3.6833
G1 Y4.2667
G1 X7.107 Y4.2807
G1 X7.1055 Y4.2945
G1 X7.103 Y4.3083
G1 X7.0996 Y4.3218
G1 X7.0951 Y4.3351
G1 X7.0898 Y4.3479
G1 X7.0835 Y4.3604
G1 X7.0764 Y4.3724
G1 X7.0684 Y4.3839
G1 X7.0596 Y4.3947
G1 X7.05 Y4.4049
G1 X7.0398 Y4.4144
G1 X7.0344 Y4.4189
G1 X7.0235 Y4.4283
G1 X7.0133 Y4.4383
G1 X7.0039 Y4.4491
G1 X6.9952 Y4.4605
G1 X6.9873 Y4.4724
G1 X6.9803 Y4.4849
G1 X6.9742 Y4.4979
G1 X6.969 Y4.5112
G1 X6.9648 Y4.5249
G1 X6.9615 Y4.5388
G1 X6.9592 Y4.5529
G1 X6.9578 Y4.5672
G1 X6.9575 Y4.5789
G1 Y4.8353
G1 X6.958 Y4.8375
G1 X6.9594 Y4.8392
G1 X6.9614 Y4.8402
G1 X6.9625 Y4.8403
G1 X7.1285
G1 X7.1307 Y4.8398
G1 X7.1324 Y4.8384
G1 X7.1332 Y4.837
G1 X7.1482 Y4.7958
G1 X7.1485 Y4.7941
G1 Y4.5853
G1 X7.149 Y4.5815
G1 X7.1505 Y4.5779
G1 X7.1528 Y4.5748
G1 X7.1559 Y4.5724
G1 X7.1594 Y4.5709
G1 X7.1632 Y4.5703
G1 X7.1635
G1 X7.2415
G1 X7.2453 Y4.5708
G1 X7.2489 Y4.5723
G1 X7.252 Y4.5746
G1 X7.2544 Y4.5777
G1 X7.2559 Y4.5812
G1 X7.2565 Y4.585
G1 Y4.5853
G1 Y4.7941
G1 X7.2568 Y4.7958
G1 X7.2718 Y4.837
G1 X7.273 Y4.8389
G1 X7.2749 Y4.84
G1 X7.2765 Y4.8403
G1 X7.3575
G1 Y5.1125
G1 X7.358 Y5.1199
G1 X7.3595 Y5.1272
G1 X7.3619 Y5.1342
G1 X7.3653 Y5.1408
G1 X7.3696 Y5.1469
G1 X7.3746 Y5.1523
G1 X7.3803 Y5.1571
G1 X7.3866 Y5.161
G1 X7.3933 Y5.164
G1 X7.4004 Y5.1662
G1 X7.4078 Y5.1673
G1 X7.4125 Y5.1675
G1 X7.4245
G1 X7.4267 Y5.167
G1 X7.4284 Y5.1656
G1 X7.4294 Y5.1636
G1 X7.4295 Y5.1625
G1 Y4.982
G1 X7.43 Y4.968
G1 X7.4315 Y4.9542
G1 X7.434 Y4.9404
G1 X7.4374 Y4.9269
G1 X7.4419 Y4.9136
G1 X7.4472 Y4.9008
G1 X7.4535 Y4.8883
G1 X7.4606 Y4.8763
G1 X7.4686 Y4.8648
G1 X7.4774 Y4.854
G1 X7.487 Y4.8438
G1 X7.4972 Y4.8343
G1 X7.5081 Y4.8256
G1 X7.5196 Y4.8176
G1 X7.5316 Y4.8105
G1 X7.5441 Y4.8043
G1 X7.5571 Y4.799
G1 X7.5703 Y4.7947
G1 X7.5839 Y4.7913
G1 X7.5976 Y4.7889
G1 X7.6115 Y4.7874
G1 X7.6245 Y4.787
G1 X8.2375
G1 X8.2442 Y4.7875
G1 X8.2507 Y4.789
G1 X8.257 Y4.7914
G1 X8.2628 Y4.7948
G1 X8.268 Y4.799
G1 X8.2726 Y4.8039
G1 X8.2764 Y4.8094
G1 X8.2793 Y4.8154
G1 X8.2813 Y4.8218
G1 X8.2824 Y4.8285
G1 X8.2825 Y4.832
G1 Y4.9125
G1 X8.282 Y4.9192
G1 X8.2805 Y4.9257
G1 X8.2781 Y4.932
G1 X8.2747 Y4.9378
G1 X8.2705 Y4.943
G1 X8.2656 Y4.9476
G1 X8.2601 Y4.9514
G1 X8.2541 Y4.9543
G1 X8.2477 Y4.9563
G1 X8.241 Y4.9574
G1 X8.2375 Y4.9575
G1 X7.8175
G1 X7.8108 Y4.957
G1 X7.8043 Y4.9555
G1 X7.798 Y4.9531
G1 X7.7922 Y4.9497
G1 X7.7869 Y4.9455
G1 X7.7824 Y4.9406
G1 X7.7786 Y4.9351
G1 X7.7772 Y4.9326
G1 X7.7709 Y4.9211
G1 X7.7637 Y4.9101
G1 X7.7557 Y4.8996
G1 X7.747 Y4.8898
G1 X7.7375 Y4.8807
G1 X7.7273 Y4.8724
G1 X7.7166 Y4.8648
G1 X7.7052 Y4.8581
G1 X7.6935 Y4.8522
G1 X7.6813 Y4.8473
G1 X7.6687 Y4.8433
G1 X7.6559 Y4.8403
G1 X7.643 Y4.8382
G1 X7.6298 Y4.8372
G1 X7.6167 Y4.8371
G1 X7.6036 Y4.838
G1 X7.5906 Y4.84
G1 X7.5777 Y4.8429
G1 X7.5652 Y4.8468
G1 X7.5529 Y4.8516
G1 X7.5411 Y4.8573
G1 X7.5297 Y4.864
G1 X7.5189 Y4.8714
G1 X7.5087 Y4.8797
G1 X7.4991 Y4.8887
G1 X7.4903 Y4.8985
G1 X7.4822 Y4.9088
G1 X7.4749 Y4.9198
G1 X7.4685 Y4.9313
G1 X7.4629 Y4.9432
G1 X7.4583 Y4.9555
G1 X7.4546 Y4.9681
G1 X7.4519 Y4.981
G1 X7.4502 Y4.9941
G1 X7.4495 Y5.0072
G1 Y5.01
G1 Y5.1125
G1 X7.45 Y5.1199
G1 X7.4515 Y5.1272
G1 X7.4539 Y5.1342
G1 X7.4573 Y5.1408
G1 X7.4616 Y5.1469
G1 X7.4666 Y5.1523
G1 X7.4723 Y5.1571
G1 X7.4786 Y5.161
G1 X7.4853 Y5.164
G1 X7.4924 Y5.1662
G1 X7.4998 Y5.1673
G1 X7.5045 Y5.1675
G1 X9.5955
G1 X9.6029 Y5.167
G1 X9.6102 Y5.1655
G1 X9.6172 Y5.1631
G1 X9.6238 Y5.1597
G1 X9.6299 Y5.1554
G1 X9.6353 Y5.1504
G1 X9.6401 Y5.1447
G1 X9.644 Y5.1384
G1 X9.647 Y5.1317
G1 X9.6492 Y5.1246
G1 X9.6503 Y5.1172
G1 X9.6505 Y5.1125
G1 Y5.01
G1 X9.65 Y4.9969
G1 X9.6485 Y4.9838
G1 X9.646 Y4.9709
G1 X9.6426 Y4.9582
G1 X9.6381 Y4.9458
G1 X9.6328 Y4.9338
G1 X9.6266 Y4.9222
G1 X9.6195 Y4.9111
G1 X9.6115 Y4.9006
G1 X9.6028 Y4.8908
G1 X9.5934 Y4.8816
G1 X9.5833 Y4.8731
G1 X9.5726 Y4.8655
G1 X9.5614 Y4.8587
G1 X9.5496 Y4.8528
G1 X9.5375 Y4.8477
G1 X9.525 Y4.8436
G1 X9.5122 Y4.8405
G1 X9.4992 Y4.8384
G1 X9.4861 Y4.8372
G1 X9.473 Y4.8371
G1 X9.4598 Y4.8379
G1 X9.4468 Y4.8397
G1 X9.434 Y4.8426
G1 X9.4214 Y4.8464
G1 X9.4091 Y4.8511
G1 X9.3972 Y4.8567
G1 X9.3858 Y4.8633
G1 X9.3749 Y4.8707
G1 X9.3647 Y4.8789
G1 X9.355 Y4.8878
G1 X9.3461 Y4.8975
G1 X9.3379 Y4.9078
G1 X9.3306 Y4.9187
G1 X9.324 Y4.9301
G1 X9.3228 Y4.9326
G1 X9.3193 Y4.9384
G1 X9.3151 Y4.9436
G1 X9.3101 Y4.9481
G1 X9.3045 Y4.9518
G1 X9.2984 Y4.9546
G1 X9.292 Y4.9565
G1 X9.2853 Y4.9574
G1 X9.2825 Y4.9575
G1 X8.8625
G1 X8.8558 Y4.957
G1 X8.8493 Y4.9555
G1 X8.843 Y4.9531
G1 X8.8372 Y4.9497
G1 X8.832 Y4.9455
G1 X8.8274 Y4.9406
G1 X8.8236 Y4.9351
G1 X8.8207 Y4.9291
G1 X8.8187 Y4.9227
G1 X8.8176 Y4.916
G1 X8.8175 Y4.9125
G1 Y4.832
G1 X8.818 Y4.8253
G1 X8.8195 Y4.8188
G1 X8.8219 Y4.8125
G1 X8.8253 Y4.8067
G1 X8.8295 Y4.8015
G1 X8.8344 Y4.7969
G1 X8.8399 Y4.7931
G1 X8.8459 Y4.7902
G1 X8.8523 Y4.7882
G1 X8.859 Y4.7871
G1 X8.8625 Y4.787
G1 X9.4755
G1 X9.4895 Y4.7875
G1 X9.5033 Y4.789
G1 X9.5171 Y4.7915
G1 X9.5306 Y4.7949
G1 X9.5439 Y4.7994
G1 X9.5567 Y4.8047
G1 X9.5692 Y4.811
G1 X9.5812 Y4.8181
G1 X9.5927 Y4.8261
G1 X9.6035 Y4.8349
G1 X9.6137 Y4.8445
G1 X9.6232 Y4.8547
G1 X9.6319 Y4.8656
G1 X9.6399 Y4.8771
G1 X9.647 Y4.8891
G1 X9.6532 Y4.9016
G1 X9.6585 Y4.9146
G1 X9.6628 Y4.9278
G1 X9.6662 Y4.9414
G1 X9.6686 Y4.9551
G1 X9.6701 Y4.969
G1 X9.6705 Y4.982
G1 Y5.1625
G1 X9.671 Y5.1647
G1 X9.6724 Y5.1664
G1 X9.6744 Y5.1674
G1 X9.6755 Y5.1675
G1 X9.6875
G1 X9.6949 Y5.167
G1 X9.7022 Y5.1655
G1 X9.7092 Y5.1631
G1 X9.7158 Y5.1597
G1 X9.7219 Y5.1554
G1 X9.7273 Y5.1504
G1 X9.7321 Y5.1447
G1 X9.736 Y5.1384
G1 X9.739 Y5.1317
G1 X9.7412 Y5.1246
G1 X9.7423 Y5.1172
G1 X9.7425 Y5.1125
G1 Y4.8403
G1 X9.8235
G1 X9.8257 Y4.8398
G1 X9.8274 Y4.8384
G1 X9.8282 Y4.837
G1 X9.8432 Y4.7958
G1 X9.8435 Y4.7941
G1 Y4.5853
G1 X9.844 Y4.5815
G1 X9.8455 Y4.5779
G1 X9.8478 Y4.5748
G1 X9.8509 Y4.5724
G1 X9.8544 Y4.5709
G1 X9.8582 Y4.5703
G1 X9.8585
G1 X9.9365
G1 X9.9403 Y4.5708
G1 X9.9439 Y4.5723
G1 X9.947 Y4.5746
G1 X9.9494 Y4.5777
G1 X9.9509 Y4.5812
G1 X9.9515 Y4.585
G1 Y4.5853
G1 Y4.7941
G1 X9.9518 Y4.7958
G1 X9.9668 Y4.837
G1 X9.968 Y4.8389
G1 X9.9699 Y4.84
G1 X9.9715 Y4.8403
G1 X10.1375
G1 X10.1397 Y4.8398
G1 X10.1414 Y4.8384
G1 X10.1424 Y4.8364
G1 X10.1425 Y4.8353
G1 Y4.5789
( Profile7 )
S1000
G0 Z0.125
G0 X8.615 Y0.35
G0 Z0.03
G1 F5.0 Z-0.01
G1 F10.0 X8.6145 Y0.358
G1 X8.613 Y0.366
G1 X8.6105 Y0.3736
G1 X8.6072 Y0.381
G1 X8.6029 Y0.3878
G1 X8.5978 Y0.3941
G1 X8.592 Y0.3996
G1 X8.5855 Y0.4044
G1 X8.5785 Y0.4084
G1 X8.571 Y0.4115
G1 X8.5633 Y0.4136
G1 X8.5553 Y0.4148
G1 X8.5472 Y0.4149
G1 X8.5392 Y0.4141
G1 X8.5314 Y0.4123
G1 X8.5238 Y0.4095
G1 X8.5175 Y0.4063
G1 X8.5108 Y0.4018
G1 X8.5047 Y0.3966
G1 X8.4992 Y0.3906
G1 X8.4946 Y0.384
G1 X8.4908 Y0.3769
G1 X8.488 Y0.3694
G1 X8.486 Y0.3615
G1 X8.4851 Y0.3535
G1 X8.4852 Y0.3455
G1 X8.4862 Y0.3375
G1 X8.4883 Y0.3297
G1 X8.4913 Y0.3222
G1 X8.4951 Y0.3151
G1 X8.4999 Y0.3086
G1 X8.5054 Y0.3027
G1 X8.5116 Y0.2976
G1 X8.5175 Y0.2937
G1 X8.5247 Y0.2901
G1 X8.5323 Y0.2874
G1 X8.5402 Y0.2857
G1 X8.5482 Y0.285
G1 X8.5563 Y0.2853
G1 X8.5643 Y0.2866
G1 X8.572 Y0.2888
G1 X8.5794 Y0.292
G1 X8.5863 Y0.2961
G1 X8.5927 Y0.301
G1 X8.5985 Y0.3067
G1 X8.6035 Y0.313
G1 X8.6076 Y0.3199
G1 X8.6109 Y0.3273
G1 X8.6132 Y0.335
G1 X8.6146 Y0.343
G1 X8.615 Y0.35
G0 Z0.125
G0 X9.485
G0 Z0.03
G1 F5.0 Z-0.01
G1 F10.0 X9.4855 Y0.342
G1 X9.487 Y0.334
G1 X9.4895 Y0.3264
G1 X9.4928 Y0.319
G1 X9.4971 Y0.3122
G1 X9.5022 Y0.3059
G1 X9.508 Y0.3004
G1 X9.5145 Y0.2956
G1 X9.5175 Y0.2937
G1 X9.5247 Y0.2901
G1 X9.5323 Y0.2874
G1 X9.5402 Y0.2857
G1 X9.5482 Y0.285
G1 X9.5563 Y0.2853
G1 X9.5643 Y0.2866
G1 X9.572 Y0.2888
G1 X9.5794 Y0.292
G1 X9.5863 Y0.2961
G1 X9.5927 Y0.301
G1 X9.5985 Y0.3067
G1 X9.6035 Y0.313
G1 X9.6076 Y0.3199
G1 X9.6109 Y0.3273
G1 X9.6132 Y0.335
G1 X9.6146 Y0.343
G1 X9.615 Y0.35
G1 X9.6145 Y0.358
G1 X9.613 Y0.366
G1 X9.6105 Y0.3736
G1 X9.6072 Y0.381
G1 X9.6029 Y0.3878
G1 X9.5978 Y0.3941
G1 X9.592 Y0.3996
G1 X9.5855 Y0.4044
G1 X9.5785 Y0.4084
G1 X9.571 Y0.4115
G1 X9.5633 Y0.4136
G1 X9.5553 Y0.4148
G1 X9.5472 Y0.4149
G1 X9.5392 Y0.4141
G1 X9.5314 Y0.4123
G1 X9.5238 Y0.4095
G1 X9.5175 Y0.4063
G1 X9.5108 Y0.4018
G1 X9.5047 Y0.3966
G1 X9.4992 Y0.3906
G1 X9.4946 Y0.384
G1 X9.4908 Y0.3769
G1 X9.488 Y0.3694
G1 X9.486 Y0.3615
G1 X9.4851 Y0.3535
G1 X9.485 Y0.35
G0 Z0.125
G0 X9.5464 Y1.2951
G0 Z0.03
G1 F5.0 Z-0.01
G1 F10.0 X9.5538
G1 X9.5612 Y1.2962
G1 X9.5683 Y1.2981
G1 X9.5751 Y1.3011
G1 X9.5815 Y1.3049
G1 X9.5873 Y1.3096
G1 X9.5924 Y1.3149
G1 X9.5967 Y1.321
G1 X9.6002 Y1.3275
G1 X9.6028 Y1.3345
G1 X9.6044 Y1.3417
G1 X9.605 Y1.3491
G1 Y1.35
G1 X9.6045 Y1.3574
G1 X9.603 Y1.3647
G1 X9.6006 Y1.3717
G1 X9.5972 Y1.3783
G1 X9.5929 Y1.3844
G1 X9.5879 Y1.3898
G1 X9.5822 Y1.3946
G1 X9.5759 Y1.3985
G1 X9.5692 Y1.4015
G1 X9.5621 Y1.4037
G1 X9.5547 Y1.4048
G1 X9.5473 Y1.4049
G1 X9.54 Y1.4041
G1 X9.5328 Y1.4022
G1 X9.5259 Y1.3994
G1 X9.5225 Y1.3976
G1 X9.5163 Y1.3935
G1 X9.5108 Y1.3886
G1 X9.506 Y1.383
G1 X9.5019 Y1.3767
G1 X9.4988 Y1.37
G1 X9.4965 Y1.3629
G1 X9.4953 Y1.3556
G1 X9.495 Y1.3482
G1 X9.4958 Y1.3408
G1 X9.4975 Y1.3336
G1 X9.5002 Y1.3267
G1 X9.5038 Y1.3202
G1 X9.5082 Y1.3143
G1 X9.5134 Y1.309
G1 X9.5192 Y1.3044
G1 X9.5225 Y1.3024
G1 X9.5292 Y1.2991
G1 X9.5362 Y1.2968
G1 X9.5435 Y1.2954
G1 X9.5464 Y1.2951
G0 Z0.125
G0 X8.6049 Y1.347
G0 Z0.03
G1 F5.0 Z-0.01
G1 F10.0 X8.605 Y1.35
G1 X8.6045 Y1.3574
G1 X8.603 Y1.3647
G1 X8.6006 Y1.3717
G1 X8.5972 Y1.3783
G1 X8.5929 Y1.3844
G1 X8.5879 Y1.3898
G1 X8.5822 Y1.3946
G1 X8.5759 Y1.3985
G1 X8.5692 Y1.4015
G1 X8.5621 Y1.4037
G1 X8.5547 Y1.4048
G1 X8.5473 Y1.4049
G1 X8.54 Y1.4041
G1 X8.5328 Y1.4022
G1 X8.5259 Y1.3994
G1 X8.5225 Y1.3976
G1 X8.5163 Y1.3935
G1 X8.5108 Y1.3886
G1 X8.506 Y1.383
G1 X8.5019 Y1.3767
G1 X8.4988 Y1.37
G1 X8.4965 Y1.3629
G1 X8.4953 Y1.3556
G1 X8.495 Y1.3482
G1 X8.4958 Y1.3408
G1 X8.4975 Y1.3336
G1 X8.5002 Y1.3267
G1 X8.5038 Y1.3202
G1 X8.5082 Y1.3143
G1 X8.5134 Y1.309
G1 X8.5192 Y1.3044
G1 X8.5225 Y1.3024
G1 X8.5292 Y1.2991
G1 X8.5362 Y1.2968
G1 X8.5435 Y1.2954
G1 X8.5509 Y1.295
G1 X8.5583 Y1.2956
G1 X8.5655 Y1.2972
G1 X8.5725 Y1.2998
G1 X8.579 Y1.3033
G1 X8.585 Y1.3076
G1 X8.5904 Y1.3127
G1 X8.5951 Y1.3185
G1 X8.5989 Y1.3248
G1 X8.6018 Y1.3317
G1 X8.6038 Y1.3388
G1 X8.6049 Y1.3461
G1 Y1.347
G0 Z0.125
G0 X8.5576 Y1.6876
G0 Z0.03
G1 F5.0 Z-0.01
G1 F10.0 X8.5648 Y1.6891
G1 X8.5718 Y1.6916
G1 X8.5784 Y1.695
G1 X8.5845 Y1.6993
G1 X8.5899 Y1.7043
G1 X8.5947 Y1.71
G1 X8.5986 Y1.7163
G1 X8.6016 Y1.7231
G1 X8.6037 Y1.7302
G1 X8.6048 Y1.7375
G1 X8.605 Y1.7421
G1 X8.6045 Y1.7495
G1 X8.603 Y1.7568
G1 X8.6006 Y1.7638
G1 X8.5972 Y1.7704
G1 X8.5929 Y1.7765
G1 X8.5879 Y1.7819
G1 X8.5822 Y1.7867
G1 X8.5759 Y1.7906
G1 X8.5692 Y1.7936
G1 X8.5621 Y1.7958
G1 X8.5547 Y1.7969
G1 X8.5473 Y1.797
G1 X8.54 Y1.7962
G1 X8.5328 Y1.7943
G1 X8.5259 Y1.7915
G1 X8.5225 Y1.7897
G1 X8.5163 Y1.7856
G1 X8.5108 Y1.7807
G1 X8.506 Y1.7751
G1 X8.5019 Y1.7688
G1 X8.4988 Y1.7621
G1 X8.4965 Y1.755
G1 X8.4953 Y1.7477
G1 X8.495 Y1.7403
G1 X8.4958 Y1.7329
G1 X8.4975 Y1.7257
G1 X8.5002 Y1.7188
G1 X8.5038 Y1.7123
G1 X8.5082 Y1.7064
G1 X8.5134 Y1.7011
G1 X8.5192 Y1.6965
G1 X8.5225 Y1.6945
G1 X8.5292 Y1.6912
G1 X8.5362 Y1.6889
G1 X8.5435 Y1.6875
G1 X8.5509 Y1.6871
G1 X8.5576 Y1.6876
G0 Z0.125
G0 X8.5507 Y2.285
G0 Z0.03
G1 F5.0 Z-0.01
G1 F10.0 X8.5588 Y2.2856
G1 X8.5667 Y2.2872
G1 X8.5743 Y2.2897
G1 X8.5816 Y2.2932
G1 X8.5884 Y2.2976
G1 X8.5946 Y2.3027
G1 X8.6001 Y2.3086
G1 X8.6048 Y2.3151
G1 X8.6087 Y2.3222
G1 X8.6117 Y2.3297
G1 X8.6138 Y2.3375
G1 X8.6148 Y2.3455
G1 X8.615 Y2.35
G1 X8.6145 Y2.358
G1 X8.613 Y2.366
G1 X8.6105 Y2.3736
G1 X8.6072 Y2.381
G1 X8.6029 Y2.3878
G1 X8.5978 Y2.3941
G1 X8.592 Y2.3996
G1 X8.5855 Y2.4044
G1 X8.5785 Y2.4084
G1 X8.571 Y2.4115
G1 X8.5633 Y2.4136
G1 X8.5553 Y2.4148
G1 X8.5472 Y2.4149
G1 X8.5392 Y2.4141
G1 X8.5314 Y2.4123
G1 X8.5238 Y2.4095
G1 X8.5175 Y2.4063
G1 X8.5108 Y2.4018
G1 X8.5047 Y2.3966
G1 X8.4992 Y2.3906
G1 X8.4946 Y2.384
G1 X8.4908 Y2.3769
G1 X8.488 Y2.3694
G1 X8.486 Y2.3615
G1 X8.4851 Y2.3535
G1 X8.4852 Y2.3455
G1 X8.4862 Y2.3375
G1 X8.4883 Y2.3297
G1 X8.4913 Y2.3222
G1 X8.4951 Y2.3151
G1 X8.4999 Y2.3086
G1 X8.5054 Y2.3027
G1 X8.5116 Y2.2976
G1 X8.5175 Y2.2937
G1 X8.5247 Y2.2901
G1 X8.5323 Y2.2874
G1 X8.5402 Y2.2857
G1 X8.5482 Y2.285
G1 X8.5507
G0 Z0.125
G0 X9.4129 Y2.378
G0 Z0.03
G1 F5.0 Z-0.01
G1 F10.0 X9.4142 Y2.3701
G1 X9.4166 Y2.3624
G1 X9.4198 Y2.355
G1 X9.424 Y2.3481
G1 X9.429 Y2.3417
G1 X9.4347 Y2.3361
G1 X9.4411 Y2.3312
G1 X9.445 Y2.3287
G1 X9.4522 Y2.3251
G1 X9.4598 Y2.3224
G1 X9.4677 Y2.3207
G1 X9.4757 Y2.32
G1 X9.4838 Y2.3203
G1 X9.4918 Y2.3216
G1 X9.4995 Y2.3238
G1 X9.5069 Y2.327
G1 X9.5138 Y2.3311
G1 X9.5202 Y2.336
G1 X9.526 Y2.3417
G1 X9.531 Y2.348
G1 X9.5351 Y2.3549
G1 X9.5384 Y2.3623
G1 X9.5407 Y2.37
G1 X9.5421 Y2.378
G1 X9.5425 Y2.385
G1 X9.542 Y2.393
G1 X9.5405 Y2.401
G1 X9.538 Y2.4086
G1 X9.5347 Y2.416
G1 X9.5304 Y2.4228
G1 X9.5253 Y2.4291
G1 X9.5195 Y2.4346
G1 X9.513 Y2.4394
G1 X9.506 Y2.4434
G1 X9.4985 Y2.4465
G1 X9.4908 Y2.4486
G1 X9.4828 Y2.4498
G1 X9.4747 Y2.4499
G1 X9.4667 Y2.4491
G1 X9.4589 Y2.4473
G1 X9.4513 Y2.4445
G1 X9.445 Y2.4413
G1 X9.4383 Y2.4368
G1 X9.4322 Y2.4316
G1 X9.4267 Y2.4256
G1 X9.4221 Y2.419
G1 X9.4183 Y2.4119
G1 X9.4155 Y2.4044
G1 X9.4135 Y2.3965
G1 X9.4126 Y2.3885
G1 X9.4127 Y2.3805
G1 X9.4129 Y2.378
G0 Z0.125
G0 X7.6875 Y2.3847
G0 Z0.03
G1 F5.0 Z-0.01
G1 F10.0 Y2.385
G1 X7.687 Y2.393
G1 X7.6855 Y2.401
G1 X7.683 Y2.4086
G1 X7.6797 Y2.416
G1 X7.6754 Y2.4228
G1 X7.6703 Y2.4291
G1 X7.6645 Y2.4346
G1 X7.658 Y2.4394
G1 X7.651 Y2.4434
G1 X7.6435 Y2.4465
G1 X7.6358 Y2.4486
G1 X7.6278 Y2.4498
G1 X7.6197 Y2.4499
G1 X7.6117 Y2.4491
G1 X7.6039 Y2.4473
G1 X7.5963 Y2.4445
G1 X7.59 Y2.4413
G1 X7.5833 Y2.4368
G1 X7.5772 Y2.4316
G1 X7.5717 Y2.4256
G1 X7.5671 Y2.419
G1 X7.5633 Y2.4119
G1 X7.5605 Y2.4044
G1 X7.5585 Y2.3965
G1 X7.5576 Y2.3885
G1 X7.5577 Y2.3805
G1 X7.5587 Y2.3725
G1 X7.5608 Y2.3647
G1 X7.5638 Y2.3572
G1 X7.5676 Y2.3501
G1 X7.5724 Y2.3436
G1 X7.5779 Y2.3377
G1 X7.5841 Y2.3326
G1 X7.59 Y2.3287
G1 X7.5972 Y2.3251
G1 X7.6048 Y2.3224
G1 X7.6127 Y2.3207
G1 X7.6207 Y2.32
G1 X7.6288 Y2.3203
G1 X7.6368 Y2.3216
G1 X7.6445 Y2.3238
G1 X7.6519 Y2.327
G1 X7.6588 Y2.3311
G1 X7.6652 Y2.336
G1 X7.671 Y2.3417
G1 X7.676 Y2.348
G1 X7.6801 Y2.3549
G1 X7.6834 Y2.3623
G1 X7.6857 Y2.37
G1 X7.6871 Y2.378
G1 X7.6875 Y2.3847
G0 Z0.125
G0 X7.5572 Y1.4045
G0 Z0.03
G1 F5.0 Z-0.01
G1 F10.0 X7.5498 Y1.405
G1 X7.5424 Y1.4045
G1 X7.5352 Y1.403
G1 X7.5282 Y1.4005
G1 X7.5225 Y1.3976
G1 X7.5163 Y1.3935
G1 X7.5108 Y1.3886
G1 X7.506 Y1.383
G1 X7.5019 Y1.3767
G1 X7.4988 Y1.37
G1 X7.4965 Y1.3629
G1 X7.4953 Y1.3556
G1 X7.495 Y1.3482
G1 X7.4958 Y1.3408
G1 X7.4975 Y1.3336
G1 X7.5002 Y1.3267
G1 X7.5038 Y1.3202
G1 X7.5082 Y1.3143
G1 X7.5134 Y1.309
G1 X7.5192 Y1.3044
G1 X7.5225 Y1.3024
G1 X7.5292 Y1.2991
G1 X7.5362 Y1.2968
G1 X7.5435 Y1.2954
G1 X7.5509 Y1.295
G1 X7.5583 Y1.2956
G1 X7.5655 Y1.2972
G1 X7.5725 Y1.2998
G1 X7.579 Y1.3033
G1 X7.585 Y1.3076
G1 X7.5904 Y1.3127
G1 X7.5951 Y1.3185
G1 X7.5989 Y1.3248
G1 X7.6018 Y1.3317
G1 X7.6038 Y1.3388
G1 X7.6049 Y1.3461
G1 X7.605 Y1.35
G1 X7.6045 Y1.3574
G1 X7.603 Y1.3647
G1 X7.6006 Y1.3717
G1 X7.5972 Y1.3783
G1 X7.5929 Y1.3844
G1 X7.5879 Y1.3898
G1 X7.5822 Y1.3946
G1 X7.5759 Y1.3985
G1 X7.5692 Y1.4015
G1 X7.5621 Y1.4037
G1 X7.5572 Y1.4045
G0 Z0.125
G0 X7.5504 Y0.415
G0 Z0.03
G1 F5.0 Z-0.01
G1 F10.0 X7.5424 Y0.4146
G1 X7.5345 Y0.4131
G1 X7.5268 Y0.4107
G1 X7.5194 Y0.4074
G1 X7.5175 Y0.4063
G1 X7.5108 Y0.4018
G1 X7.5047 Y0.3966
G1 X7.4992 Y0.3906
G1 X7.4946 Y0.384
G1 X7.4908 Y0.3769
G1 X7.488 Y0.3694
G1 X7.486 Y0.3615
G1 X7.4851 Y0.3535
G1 X7.4852 Y0.3455
G1 X7.4862 Y0.3375
G1 X7.4883 Y0.3297
G1 X7.4913 Y0.3222
G1 X7.4951 Y0.3151
G1 X7.4999 Y0.3086
G1 X7.5054 Y0.3027
G1 X7.5116 Y0.2976
G1 X7.5175 Y0.2937
G1 X7.5247 Y0.2901
G1 X7.5323 Y0.2874
G1 X7.5402 Y0.2857
G1 X7.5482 Y0.285
G1 X7.5563 Y0.2853
G1 X7.5643 Y0.2866
G1 X7.572 Y0.2888
G1 X7.5794 Y0.292
G1 X7.5863 Y0.2961
G1 X7.5927 Y0.301
G1 X7.5985 Y0.3067
G1 X7.6035 Y0.313
G1 X7.6076 Y0.3199
G1 X7.6109 Y0.3273
G1 X7.6132 Y0.335
G1 X7.6146 Y0.343
G1 X7.615 Y0.35
G1 X7.6145 Y0.358
G1 X7.613 Y0.366
G1 X7.6105 Y0.3736
G1 X7.6072 Y0.381
G1 X7.6029 Y0.3878
G1 X7.5978 Y0.3941
G1 X7.592 Y0.3996
G1 X7.5855 Y0.4044
G1 X7.5785 Y0.4084
G1 X7.571 Y0.4115
G1 X7.5633 Y0.4136
G1 X7.5553 Y0.4148
G1 X7.5504 Y0.415
( Profile8 )
S1000
G0 Z0.125
G0 X10.1425 Y1.9539
G0 Z0.03
G1 F5.0 Z-0.01
G1 F10.0 X10.142 Y1.9396
G1 X10.1405 Y1.9254
G1 X10.138 Y1.9113
G1 X10.1345 Y1.8974
G1 X10.1301 Y1.8838
G1 X10.1248 Y1.8705
G1 X10.1185 Y1.8577
G1 X10.1113 Y1.8453
G1 X10.1033 Y1.8334
G1 X10.0945 Y1.8221
G1 X10.0849 Y1.8115
G1 X10.0746 Y1.8015
G1 X10.0656 Y1.7939
G1 X10.055 Y1.7848
G1 X10.0451 Y1.775
G1 X10.036 Y1.7644
G1 X10.0276 Y1.7533
G1 X10.02 Y1.7415
G1 X10.0133 Y1.7293
G1 X10.0075 Y1.7166
G1 X10.0026 Y1.7035
G1 X9.9986 Y1.6901
G1 X9.9956 Y1.6765
G1 X9.9936 Y1.6627
G1 X9.9926 Y1.6487
G1 X9.9925 Y1.6417
G1 Y1.0583
G1 X9.993 Y1.0443
G1 X9.9945 Y1.0305
G1 X9.997 Y1.0167
G1 X10.0004 Y1.0032
G1 X10.0049 Y0.9899
G1 X10.0102 Y0.9771
G1 X10.0165 Y0.9646
G1 X10.0236 Y0.9526
G1 X10.0316 Y0.9411
G1 X10.0404 Y0.9303
G1 X10.05 Y0.9201
G1 X10.0602 Y0.9106
G1 X10.0656 Y0.9061
G1 X10.0765 Y0.8967
G1 X10.0867 Y0.8867
G1 X10.0961 Y0.8759
G1 X10.1048 Y0.8645
G1 X10.1127 Y0.8526
G1 X10.1197 Y0.8401
G1 X10.1258 Y0.8271
G1 X10.131 Y0.8138
G1 X10.1352 Y0.8001
G1 X10.1385 Y0.7862
G1 X10.1408 Y0.7721
G1 X10.1422 Y0.7578
G1 X10.1425 Y0.7461
G1 Y0.4897
G1 X10.142 Y0.4875
G1 X10.1406 Y0.4858
G1 X10.1386 Y0.4848
G1 X10.1375 Y0.4847
G1 X9.9715
G1 X9.9693 Y0.4852
G1 X9.9676 Y0.4866
G1 X9.9668 Y0.488
G1 X9.9518 Y0.5292
G1 X9.9515 Y0.5309
G1 Y0.7397
G1 X9.951 Y0.7435
G1 X9.9495 Y0.7471
G1 X9.9472 Y0.7502
G1 X9.9441 Y0.7526
G1 X9.9406 Y0.7541
G1 X9.9368 Y0.7547
G1 X9.9365
G1 X9.8585
G1 X9.8547 Y0.7542
G1 X9.8511 Y0.7527
G1 X9.848 Y0.7504
G1 X9.8456 Y0.7473
G1 X9.8441 Y0.7438
G1 X9.8435 Y0.74
G1 Y0.7397
G1 Y0.5309
G1 X9.8432 Y0.5292
G1 X9.8282 Y0.488
G1 X9.827 Y0.4861
G1 X9.8251 Y0.485
G1 X9.8235 Y0.4847
G1 X9.7425
G1 Y0.2625
G1 X9.742 Y0.2523
G1 X9.7405 Y0.2421
G1 X9.738 Y0.2322
G1 X9.7346 Y0.2225
G1 X9.7302 Y0.2133
G1 X9.725 Y0.2045
G1 X9.7189 Y0.1962
G1 X9.7121 Y0.1886
G1 X9.7045 Y0.1817
G1 X9.6963 Y0.1755
G1 X9.6876 Y0.1702
G1 X9.6783 Y0.1658
G1 X9.6687 Y0.1622
G1 X9.6588 Y0.1597
G1 X9.6486 Y0.1581
G1 X9.6384 Y0.1575
G1 X9.6375
G1 X7.4625
G1 X7.4523 Y0.158
G1 X7.4421 Y0.1595
G1 X7.4322 Y0.162
G1 X7.4225 Y0.1654
G1 X7.4133 Y0.1698
G1 X7.4045 Y0.175
G1 X7.3962 Y0.1811
G1 X7.3886 Y0.1879
G1 X7.3817 Y0.1955
G1 X7.3755 Y0.2037
G1 X7.3702 Y0.2124
G1 X7.3658 Y0.2217
G1 X7.3622 Y0.2313
G1 X7.3597 Y0.2412
G1 X7.3581 Y0.2514
G1 X7.3575 Y0.2616
G1 Y0.2625
G1 Y0.4847
G1 X7.2765
G1 X7.2743 Y0.4852
G1 X7.2726 Y0.4866
G1 X7.2718 Y0.488
G1 X7.2568 Y0.5292
G1 X7.2565 Y0.5309
G1 Y0.7397
G1 X7.256 Y0.7435
G1 X7.2545 Y0.7471
G1 X7.2522 Y0.7502
G1 X7.2491 Y0.7526
G1 X7.2456 Y0.7541
G1 X7.2418 Y0.7547
G1 X7.2415
G1 X7.1635
G1 X7.1597 Y0.7542
G1 X7.1561 Y0.7527
G1 X7.153 Y0.7504
G1 X7.1506 Y0.7473
G1 X7.1491 Y0.7438
G1 X7.1485 Y0.74
G1 Y0.7397
G1 Y0.5309
G1 X7.1482 Y0.5292
G1 X7.1332 Y0.488
G1 X7.132 Y0.4861
G1 X7.1301 Y0.485
G1 X7.1285 Y0.4847
G1 X6.9625
G1 X6.9603 Y0.4852
G1 X6.9586 Y0.4866
G1 X6.9576 Y0.4886
G1 X6.9575 Y0.4897
G1 Y0.7461
G1 X6.958 Y0.7604
G1 X6.9595 Y0.7746
G1 X6.962 Y0.7887
G1 X6.9655 Y0.8026
G1 X6.9699 Y0.8162
G1 X6.9752 Y0.8295
G1 X6.9815 Y0.8423
G1 X6.9887 Y0.8547
G1 X6.9967 Y0.8666
G1 X7.0055 Y0.8779
G1 X7.0151 Y0.8885
G1 X7.0254 Y0.8985
G1 X7.0344 Y0.9061
G1 X7.045 Y0.9152
G1 X7.0549 Y0.925
G1 X7.064 Y0.9356
G1 X7.0724 Y0.9467
G1 X7.08 Y0.9585
G1 X7.0867 Y0.9707
G1 X7.0925 Y0.9834
G1 X7.0974 Y0.9965
G1 X7.1014 Y1.0099
G1 X7.1044 Y1.0235
G1 X7.1064 Y1.0373
G1 X7.1074 Y1.0513
G1 X7.1075 Y1.0583
G1 Y1.6417
G1 X7.107 Y1.6557
G1 X7.1055 Y1.6695
G1 X7.103 Y1.6833
G1 X7.0996 Y1.6968
G1 X7.0951 Y1.7101
G1 X7.0898 Y1.7229
G1 X7.0835 Y1.7354
G1 X7.0764 Y1.7474
G1 X7.0684 Y1.7589
G1 X7.0596 Y1.7697
G1 X7.05 Y1.7799
G1 X7.0398 Y1.7894
G1 X7.0344 Y1.7939
G1 X7.0235 Y1.8033
G1 X7.0133 Y1.8133
G1 X7.0039 Y1.8241
G1 X6.9952 Y1.8355
G1 X6.9873 Y1.8474
G1 X6.9803 Y1.8599
G1 X6.9742 Y1.8729
G1 X6.969 Y1.8862
G1 X6.9648 Y1.8999
G1 X6.9615 Y1.9138
G1 X6.9592 Y1.9279
G1 X6.9578 Y1.9422
G1 X6.9575 Y1.9539
G1 Y2.2103
G1 X6.958 Y2.2125
G1 X6.9594 Y2.2142
G1 X6.9614 Y2.2152
G1 X6.9625 Y2.2153
G1 X7.1285
G1 X7.1307 Y2.2148
G1 X7.1324 Y2.2134
G1 X7.1332 Y2.212
G1 X7.1482 Y2.1708
G1 X7.1485 Y2.1691
G1 Y1.9603
G1 X7.149 Y1.9565
G1 X7.1505 Y1.9529
G1 X7.1528 Y1.9498
G1 X7.1559 Y1.9474
G1 X7.1594 Y1.9459
G1 X7.1632 Y1.9453
G1 X7.1635
G1 X7.2415
G1 X7.2453 Y1.9458
G1 X7.2489 Y1.9473
G1 X7.252 Y1.9496
G1 X7.2544 Y1.9527
G1 X7.2559 Y1.9562
G1 X7.2565 Y1.96
G1 Y1.9603
G1 Y2.1691
G1 X7.2568 Y2.1708
G1 X7.2718 Y2.212
G1 X7.273 Y2.2139
G1 X7.2749 Y2.215
G1 X7.2765 Y2.2153
G1 X7.3575
G1 Y2.4875
G1 X7.358 Y2.4949
G1 X7.3595 Y2.5022
G1 X7.3619 Y2.5092
G1 X7.3653 Y2.5158
G1 X7.3696 Y2.5219
G1 X7.3746 Y2.5273
G1 X7.3803 Y2.5321
G1 X7.3866 Y2.536
G1 X7.3933 Y2.539
G1 X7.4004 Y2.5412
G1 X7.4078 Y2.5423
G1 X7.4125 Y2.5425
G1 X7.4245
G1 X7.4267 Y2.542
G1 X7.4284 Y2.5406
G1 X7.4294 Y2.5386
G1 X7.4295 Y2.5375
G1 Y2.357
G1 X7.43 Y2.343
G1 X7.4315 Y2.3292
G1 X7.434 Y2.3154
G1 X7.4374 Y2.3019
G1 X7.4419 Y2.2886
G1 X7.4472 Y2.2758
G1 X7.4535 Y2.2633
G1 X7.4606 Y2.2513
G1 X7.4686 Y2.2398
G1 X7.4774 Y2.229
G1 X7.487 Y2.2188
G1 X7.4972 Y2.2093
G1 X7.5081 Y2.2006
G1 X7.5196 Y2.1926
G1 X7.5316 Y2.1855
G1 X7.5441 Y2.1793
G1 X7.5571 Y2.174
G1 X7.5703 Y2.1697
G1 X7.5839 Y2.1663
G1 X7.5976 Y2.1639
G1 X7.6115 Y2.1624
G1 X7.6245 Y2.162
G1 X8.2375
G1 X8.2442 Y2.1625
G1 X8.2507 Y2.164
G1 X8.257 Y2.1664
G1 X8.2628 Y2.1698
G1 X8.268 Y2.174
G1 X8.2726 Y2.1789
G1 X8.2764 Y2.1844
G1 X8.2793 Y2.1904
G1 X8.2813 Y2.1968
G1 X8.2824 Y2.2035
G1 X8.2825 Y2.207
G1 Y2.2875
G1 X8.282 Y2.2942
G1 X8.2805 Y2.3007
G1 X8.2781 Y2.307
G1 X8.2747 Y2.3128
G1 X8.2705 Y2.318
G1 X8.2656 Y2.3226
G1 X8.2601 Y2.3264
G1 X8.2541 Y2.3293
G1 X8.2477 Y2.3313
G1 X8.241 Y2.3324
G1 X8.2375 Y2.3325
G1 X7.8175
G1 X7.8108 Y2.332
G1 X7.8043 Y2.3305
G1 X7.798 Y2.3281
G1 X7.7922 Y2.3247
G1 X7.7869 Y2.3205
G1 X7.7824 Y2.3156
G1 X7.7786 Y2.3101
G1 X7.7772 Y2.3076
G1 X7.7709 Y2.2961
G1 X7.7637 Y2.2851
G1 X7.7557 Y2.2746
G1 X7.747 Y2.2648
G1 X7.7375 Y2.2557
G1 X7.7273 Y2.2474
G1 X7.7166 Y2.2398
G1 X7.7052 Y2.2331
G1 X7.6935 Y2.2272
G1 X7.6813 Y2.2223
G1 X7.6687 Y2.2183
G1 X7.6559 Y2.2153
G1 X7.643 Y2.2132
G1 X7.6298 Y2.2122
G1 X7.6167 Y2.2121
G1 X7.6036 Y2.213
G1 X7.5906 Y2.215
G1 X7.5777 Y2.2179
G1 X7.5652 Y2.2218
G1 X7.5529 Y2.2266
G1 X7.5411 Y2.2323
G1 X7.5297 Y2.239
G1 X7.5189 Y2.2464
G1 X7.5087 Y2.2547
G1 X7.4991 Y2.2637
G1 X7.4903 Y2.2735
G1 X7.4822 Y2.2838
G1 X7.4749 Y2.2948
G1 X7.4685 Y2.3063
G1 X7.4629 Y2.3182
G1 X7.4583 Y2.3305
G1 X7.4546 Y2.3431
G1 X7.4519 Y2.356
G1 X7.4502 Y2.3691
G1 X7.4495 Y2.3822
G1 Y2.385
G1 Y2.4875
G1 X7.45 Y2.4949
G1 X7.4515 Y2.5022
G1 X7.4539 Y2.5092
G1 X7.4573 Y2.5158
G1 X7.4616 Y2.5219
G1 X7.4666 Y2.5273
G1 X7.4723 Y2.5321
G1 X7.4786 Y2.536
G1 X7.4853 Y2.539
G1 X7.4924 Y2.5412
G1 X7.4998 Y2.5423
G1 X7.5045 Y2.5425
G1 X9.5955
G1 X9.6029 Y2.542
G1 X9.6102 Y2.5405
G1 X9.6172 Y2.5381
G1 X9.6238 Y2.5347
G1 X9.6299 Y2.5304
G1 X9.6353 Y2.5254
G1 X9.6401 Y2.5197
G1 X9.644 Y2.5134
G1 X9.647 Y2.5067
G1 X9.6492 Y2.4996
G1 X9.6503 Y2.4922
G1 X9.6505 Y2.4875
G1 Y2.385
G1 X9.65 Y2.3719
G1 X9.6485 Y2.3588
G1 X9.646 Y2.3459
G1 X9.6426 Y2.3332
G1 X9.6381 Y2.3208
G1 X9.6328 Y2.3088
G1 X9.6266 Y2.2972
G1 X9.6195 Y2.2861
G1 X9.6115 Y2.2756
G1 X9.6028 Y2.2658
G1 X9.5934 Y2.2566
G1 X9.5833 Y2.2481
G1 X9.5726 Y2.2405
G1 X9.5614 Y2.2337
G1 X9.5496 Y2.2278
G1 X9.5375 Y2.2227
G1 X9.525 Y2.2186
G1 X9.5122 Y2.2155
G1 X9.4992 Y2.2134
G1 X9.4861 Y2.2122
G1 X9.473 Y2.2121
G1 X9.4598 Y2.2129
G1 X9.4468 Y2.2147
G1 X9.434 Y2.2176
G1 X9.4214 Y2.2214
G1 X9.4091 Y2.2261
G1 X9.3972 Y2.2317
G1 X9.3858 Y2.2383
G1 X9.3749 Y2.2457
G1 X9.3647 Y2.2539
G1 X9.355 Y2.2628
G1 X9.3461 Y2.2725
G1 X9.3379 Y2.2828
G1 X9.3306 Y2.2937
G1 X9.324 Y2.3051
G1 X9.3228 Y2.3076
G1 X9.3193 Y2.3134
G1 X9.3151 Y2.3186
G1 X9.3101 Y2.3231
G1 X9.3045 Y2.3268
G1 X9.2984 Y2.3296
G1 X9.292 Y2.3315
G1 X9.2853 Y2.3324
G1 X9.2825 Y2.3325
G1 X8.8625
G1 X8.8558 Y2.332
G1 X8.8493 Y2.3305
G1 X8.843 Y2.3281
G1 X8.8372 Y2.3247
G1 X8.832 Y2.3205
G1 X8.8274 Y2.3156
G1 X8.8236 Y2.3101
G1 X8.8207 Y2.3041
G1 X8.8187 Y2.2977
G1 X8.8176 Y2.291
G1 X8.8175 Y2.2875
G1 Y2.207
G1 X8.818 Y2.2003
G1 X8.8195 Y2.1938
G1 X8.8219 Y2.1875
G1 X8.8253 Y2.1817
G1 X8.8295 Y2.1765
G1 X8.8344 Y2.1719
G1 X8.8399 Y2.1681
G1 X8.8459 Y2.1652
G1 X8.8523 Y2.1632
G1 X8.859 Y2.1621
G1 X8.8625 Y2.162
G1 X9.4755
G1 X9.4895 Y2.1625
G1 X9.5033 Y2.164
G1 X9.5171 Y2.1665
G1 X9.5306 Y2.1699
G1 X9.5439 Y2.1744
G1 X9.5567 Y2.1797
G1 X9.5692 Y2.186
G1 X9.5812 Y2.1931
G1 X9.5927 Y2.2011
G1 X9.6035 Y2.2099
G1 X9.6137 Y2.2195
G1 X9.6232 Y2.2297
G1 X9.6319 Y2.2406
G1 X9.6399 Y2.2521
G1 X9.647 Y2.2641
G1 X9.6532 Y2.2766
G1 X9.6585 Y2.2896
G1 X9.6628 Y2.3028
G1 X9.6662 Y2.3164
G1 X9.6686 Y2.3301
G1 X9.6701 Y2.344
G1 X9.6705 Y2.357
G1 Y2.5375
G1 X9.671 Y2.5397
G1 X9.6724 Y2.5414
G1 X9.6744 Y2.5424
G1 X9.6755 Y2.5425
G1 X9.6875
G1 X9.6949 Y2.542
G1 X9.7022 Y2.5405
G1 X9.7092 Y2.5381
G1 X9.7158 Y2.5347
G1 X9.7219 Y2.5304
G1 X9.7273 Y2.5254
G1 X9.7321 Y2.5197
G1 X9.736 Y2.5134
G1 X9.739 Y2.5067
G1 X9.7412 Y2.4996
G1 X9.7423 Y2.4922
G1 X9.7425 Y2.4875
G1 Y2.2153
G1 X9.8235
G1 X9.8257 Y2.2148
G1 X9.8274 Y2.2134
G1 X9.8282 Y2.212
G1 X9.8432 Y2.1708
G1 X9.8435 Y2.1691
G1 Y1.9603
G1 X9.844 Y1.9565
G1 X9.8455 Y1.9529
G1 X9.8478 Y1.9498
G1 X9.8509 Y1.9474
G1 X9.8544 Y1.9459
G1 X9.8582 Y1.9453
G1 X9.8585
G1 X9.9365
G1 X9.9403 Y1.9458
G1 X9.9439 Y1.9473
G1 X9.947 Y1.9496
G1 X9.9494 Y1.9527
G1 X9.9509 Y1.9562
G1 X9.9515 Y1.96
G1 Y1.9603
G1 Y2.1691
G1 X9.9518 Y2.1708
G1 X9.9668 Y2.212
G1 X9.968 Y2.2139
G1 X9.9699 Y2.215
G1 X9.9715 Y2.2153
G1 X10.1375
G1 X10.1397 Y2.2148
G1 X10.1414 Y2.2134
G1 X10.1424 Y2.2114
G1 X10.1425 Y2.2103
G1 Y1.9539
( Profile9 )
S1000
G0 Z0.125
G0 X7.165 Y5.725
G0 Z0.03
G1 F5.0 Z-0.01
G1 F10.0 X7.1645 Y5.7288
G1 X7.163 Y5.7324
G1 X7.1607 Y5.7355
G1 X7.1576 Y5.7379
G1 X7.1541 Y5.7394
G1 X7.1503 Y5.74
G1 X7.1464 Y5.7396
G1 X7.1428 Y5.7382
G1 X7.1425 Y5.738
G1 X7.1394 Y5.7356
G1 X7.1371 Y5.7326
G1 X7.1355 Y5.729
G1 X7.135 Y5.7252
G1 X7.1355 Y5.7213
G1 X7.1369 Y5.7177
G1 X7.1392 Y5.7146
G1 X7.1422 Y5.7122
G1 X7.1425 Y5.712
G1 X7.1461 Y5.7105
G1 X7.1499 Y5.71
G1 X7.1538 Y5.7105
G1 X7.1573 Y5.7119
G1 X7.1605 Y5.7142
G1 X7.1629 Y5.7173
G1 X7.1644 Y5.7208
G1 X7.165 Y5.7247
G1 Y5.725
G0 Z0.125
G0 X7.36
G0 Z0.03
G1 F5.0 Z-0.01
G1 F10.0 X7.3605 Y5.7212
G1 X7.362 Y5.7176
G1 X7.3643 Y5.7145
G1 X7.3674 Y5.7121
G1 X7.3675 Y5.712
G1 X7.3711 Y5.7105
G1 X7.3749 Y5.71
G1 X7.3788 Y5.7105
G1 X7.3823 Y5.7119
G1 X7.3855 Y5.7142
G1 X7.3879 Y5.7173
G1 X7.3894 Y5.7208
G1 X7.39 Y5.7247
G1 Y5.725
G1 X7.3895 Y5.7288
G1 X7.388 Y5.7324
G1 X7.3857 Y5.7355
G1 X7.3826 Y5.7379
G1 X7.3791 Y5.7394
G1 X7.3753 Y5.74
G1 X7.3714 Y5.7396
G1 X7.3678 Y5.7382
G1 X7.3675 Y5.738
G1 X7.3644 Y5.7356
G1 X7.3621 Y5.7326
G1 X7.3605 Y5.729
G1 X7.36 Y5.7252
G1 Y5.725
G0 Z0.125
G0 X7.374 Y5.515
G0 Z0.03
G1 F5.0 Z-0.01
G1 F10.0 X7.3702 Y5.5142
G1 X7.3675 Y5.513
G1 X7.3644 Y5.5106
G1 X7.3621 Y5.5076
G1 X7.3605 Y5.504
G1 X7.36 Y5.5002
G1 X7.3605 Y5.4963
G1 X7.3619 Y5.4927
G1 X7.3642 Y5.4896
G1 X7.3672 Y5.4872
G1 X7.3675 Y5.487
G1 X7.3711 Y5.4855
G1 X7.3749 Y5.485
G1 X7.3788 Y5.4855
G1 X7.3823 Y5.4869
G1 X7.3855 Y5.4892
G1 X7.3879 Y5.4923
G1 X7.3894 Y5.4958
G1 X7.39 Y5.4997
G1 Y5.5
G1 X7.3895 Y5.5038
G1 X7.388 Y5.5074
G1 X7.3857 Y5.5105
G1 X7.3826 Y5.5129
G1 X7.3791 Y5.5144
G1 X7.3753 Y5.515
G1 X7.374
G0 Z0.125
G0 X7.165 Y5.501
G0 Z0.03
G1 F5.0 Z-0.01
G1 F10.0 X7.1642 Y5.5048
G1 X7.1625 Y5.5083
G1 X7.16 Y5.5112
G1 X7.1568 Y5.5134
G1 X7.1531 Y5.5147
G1 X7.1493 Y5.515
G1 X7.1454 Y5.5143
G1 X7.1425 Y5.513
G1 X7.1394 Y5.5106
G1 X7.1371 Y5.5076
G1 X7.1355 Y5.504
G1 X7.135 Y5.5002
G1 X7.1355 Y5.4963
G1 X7.1369 Y5.4927
G1 X7.1392 Y5.4896
G1 X7.1422 Y5.4872
G1 X7.1425 Y5.487
G1 X7.1461 Y5.4855
G1 X7.1499 Y5.485
G1 X7.1538 Y5.4855
G1 X7.1573 Y5.4869
G1 X7.1605 Y5.4892
G1 X7.1629 Y5.4923
G1 X7.1644 Y5.4958
G1 X7.165 Y5.4997
G1 Y5.5
G1 Y5.501
G0 Z0.125
M5
M30
