( Made using CamBam - http://www.cambam.co.uk )
( carriageplate3 2/7/2015 3:32:38 PM )
( T0 : 0.0599 )
G20 G90 G64 G40
G0 Z0.125
( T0 : 0.0599 )
T0 M6
( Profile1 )
G17
M3 S1000
G0 X1.1683 Y0.4144
G0 Z0.025
G1 F5.0 Z-0.05
G1 F10.0 X1.1725 Y0.4115
G1 X1.1796 Y0.4085
G1 X1.1873 Y0.4075
G1 X1.195 Y0.4084
G1 X1.2022 Y0.4113
G1 X1.2084 Y0.4159
G1 X1.2132 Y0.422
G1 X1.2164 Y0.4291
G1 X1.2175 Y0.4368
G1 X1.2176 Y0.4375
G1 X1.2166 Y0.4452
G1 X1.2136 Y0.4524
G1 X1.2089 Y0.4586
G1 X1.2028 Y0.4633
G1 X1.1957 Y0.4664
G1 X1.1881 Y0.4675
G1 X1.1804 Y0.4667
G1 X1.1731 Y0.4639
G1 X1.1725 Y0.4635
G1 X1.1663 Y0.4588
G1 X1.1616 Y0.4527
G1 X1.1585 Y0.4455
G1 X1.1575 Y0.4379
G1 X1.1584 Y0.4302
G1 X1.1612 Y0.423
G1 X1.1658 Y0.4167
G1 X1.1683 Y0.4144
G1 F5.0 Z-0.1
G1 F10.0 X1.1725 Y0.4115
G1 X1.1796 Y0.4085
G1 X1.1873 Y0.4075
G1 X1.195 Y0.4084
G1 X1.2022 Y0.4113
G1 X1.2084 Y0.4159
G1 X1.2132 Y0.422
G1 X1.2164 Y0.4291
G1 X1.2175 Y0.4368
G1 X1.2176 Y0.4375
G1 X1.2166 Y0.4452
G1 X1.2136 Y0.4524
G1 X1.2089 Y0.4586
G1 X1.2028 Y0.4633
G1 X1.1957 Y0.4664
G1 X1.1881 Y0.4675
G1 X1.1804 Y0.4667
G1 X1.1731 Y0.4639
G1 X1.1725 Y0.4635
G1 X1.1663 Y0.4588
G1 X1.1616 Y0.4527
G1 X1.1585 Y0.4455
G1 X1.1575 Y0.4379
G1 X1.1584 Y0.4302
G1 X1.1612 Y0.423
G1 X1.1658 Y0.4167
G1 X1.1683 Y0.4144
G1 F5.0 Z-0.15
G1 F10.0 X1.1725 Y0.4115
G1 X1.1796 Y0.4085
G1 X1.1873 Y0.4075
G1 X1.195 Y0.4084
G1 X1.2022 Y0.4113
G1 X1.2084 Y0.4159
G1 X1.2132 Y0.422
G1 X1.2164 Y0.4291
G1 X1.2175 Y0.4368
G1 X1.2176 Y0.4375
G1 X1.2166 Y0.4452
G1 X1.2136 Y0.4524
G1 X1.2089 Y0.4586
G1 X1.2028 Y0.4633
G1 X1.1957 Y0.4664
G1 X1.1881 Y0.4675
G1 X1.1804 Y0.4667
G1 X1.1731 Y0.4639
G1 X1.1725 Y0.4635
G1 X1.1663 Y0.4588
G1 X1.1616 Y0.4527
G1 X1.1585 Y0.4455
G1 X1.1575 Y0.4379
G1 X1.1584 Y0.4302
G1 X1.1612 Y0.423
G1 X1.1658 Y0.4167
G1 X1.1683 Y0.4144
G1 F5.0 Z-0.2
G1 F10.0 X1.1725 Y0.4115
G1 X1.1796 Y0.4085
G1 X1.1873 Y0.4075
G1 X1.195 Y0.4084
G1 X1.2022 Y0.4113
G1 X1.2084 Y0.4159
G1 X1.2132 Y0.422
G1 X1.2164 Y0.4291
G1 X1.2175 Y0.4368
G1 X1.2176 Y0.4375
G1 X1.2166 Y0.4452
G1 X1.2136 Y0.4524
G1 X1.2089 Y0.4586
G1 X1.2028 Y0.4633
G1 X1.1957 Y0.4664
G1 X1.1881 Y0.4675
G1 X1.1804 Y0.4667
G1 X1.1731 Y0.4639
G1 X1.1725 Y0.4635
G1 X1.1663 Y0.4588
G1 X1.1616 Y0.4527
G1 X1.1585 Y0.4455
G1 X1.1575 Y0.4379
G1 X1.1584 Y0.4302
G1 X1.1612 Y0.423
G1 X1.1658 Y0.4167
G1 X1.1683 Y0.4144
G1 F5.0 Z-0.25
G1 F10.0 X1.1725 Y0.4115
G1 X1.1796 Y0.4085
G1 X1.1873 Y0.4075
G1 X1.195 Y0.4084
G1 X1.2022 Y0.4113
G1 X1.2084 Y0.4159
G1 X1.2132 Y0.422
G1 X1.2164 Y0.4291
G1 X1.2175 Y0.4368
G1 X1.2176 Y0.4375
G1 X1.2166 Y0.4452
G1 X1.2136 Y0.4524
G1 X1.2089 Y0.4586
G1 X1.2028 Y0.4633
G1 X1.1957 Y0.4664
G1 X1.1881 Y0.4675
G1 X1.1804 Y0.4667
G1 X1.1731 Y0.4639
G1 X1.1725 Y0.4635
G1 X1.1663 Y0.4588
G1 X1.1616 Y0.4527
G1 X1.1585 Y0.4455
G1 X1.1575 Y0.4379
G1 X1.1584 Y0.4302
G1 X1.1612 Y0.423
G1 X1.1658 Y0.4167
G1 X1.1683 Y0.4144
G0 Z0.125
G0 X0.2275 Y0.4366
G0 Z0.025
G1 F5.0 Z-0.05
G1 F10.0 X0.2276 Y0.4375
G1 X0.2266 Y0.4464
G1 X0.2236 Y0.4548
G1 X0.2188 Y0.4624
G1 X0.2125 Y0.4688
G1 X0.205 Y0.4735
G1 X0.1965 Y0.4765
G1 X0.1876 Y0.4775
G1 X0.1787 Y0.4766
G1 X0.1703 Y0.4737
G1 X0.1675 Y0.4722
G1 X0.1603 Y0.4669
G1 X0.1544 Y0.4601
G1 X0.1502 Y0.4522
G1 X0.1479 Y0.4435
G1 X0.1476 Y0.4346
G1 X0.1492 Y0.4258
G1 X0.1528 Y0.4176
G1 X0.158 Y0.4104
G1 X0.1648 Y0.4045
G1 X0.1675 Y0.4028
G1 X0.1757 Y0.3992
G1 X0.1845 Y0.3976
G1 X0.1934 Y0.3979
G1 X0.2021 Y0.4002
G1 X0.21 Y0.4044
G1 X0.2168 Y0.4102
G1 X0.2221 Y0.4174
G1 X0.2257 Y0.4256
G1 X0.2274 Y0.4343
G1 X0.2275 Y0.4366
G1 F5.0 Z-0.1
G1 F10.0 X0.2276 Y0.4375
G1 X0.2266 Y0.4464
G1 X0.2236 Y0.4548
G1 X0.2188 Y0.4624
G1 X0.2125 Y0.4688
G1 X0.205 Y0.4735
G1 X0.1965 Y0.4765
G1 X0.1876 Y0.4775
G1 X0.1787 Y0.4766
G1 X0.1703 Y0.4737
G1 X0.1675 Y0.4722
G1 X0.1603 Y0.4669
G1 X0.1544 Y0.4601
G1 X0.1502 Y0.4522
G1 X0.1479 Y0.4435
G1 X0.1476 Y0.4346
G1 X0.1492 Y0.4258
G1 X0.1528 Y0.4176
G1 X0.158 Y0.4104
G1 X0.1648 Y0.4045
G1 X0.1675 Y0.4028
G1 X0.1757 Y0.3992
G1 X0.1845 Y0.3976
G1 X0.1934 Y0.3979
G1 X0.2021 Y0.4002
G1 X0.21 Y0.4044
G1 X0.2168 Y0.4102
G1 X0.2221 Y0.4174
G1 X0.2257 Y0.4256
G1 X0.2274 Y0.4343
G1 X0.2275 Y0.4366
G1 F5.0 Z-0.15
G1 F10.0 X0.2276 Y0.4375
G1 X0.2266 Y0.4464
G1 X0.2236 Y0.4548
G1 X0.2188 Y0.4624
G1 X0.2125 Y0.4688
G1 X0.205 Y0.4735
G1 X0.1965 Y0.4765
G1 X0.1876 Y0.4775
G1 X0.1787 Y0.4766
G1 X0.1703 Y0.4737
G1 X0.1675 Y0.4722
G1 X0.1603 Y0.4669
G1 X0.1544 Y0.4601
G1 X0.1502 Y0.4522
G1 X0.1479 Y0.4435
G1 X0.1476 Y0.4346
G1 X0.1492 Y0.4258
G1 X0.1528 Y0.4176
G1 X0.158 Y0.4104
G1 X0.1648 Y0.4045
G1 X0.1675 Y0.4028
G1 X0.1757 Y0.3992
G1 X0.1845 Y0.3976
G1 X0.1934 Y0.3979
G1 X0.2021 Y0.4002
G1 X0.21 Y0.4044
G1 X0.2168 Y0.4102
G1 X0.2221 Y0.4174
G1 X0.2257 Y0.4256
G1 X0.2274 Y0.4343
G1 X0.2275 Y0.4366
G1 F5.0 Z-0.2
G1 F10.0 X0.2276 Y0.4375
G1 X0.2266 Y0.4464
G1 X0.2236 Y0.4548
G1 X0.2188 Y0.4624
G1 X0.2125 Y0.4688
G1 X0.205 Y0.4735
G1 X0.1965 Y0.4765
G1 X0.1876 Y0.4775
G1 X0.1787 Y0.4766
G1 X0.1703 Y0.4737
G1 X0.1675 Y0.4722
G1 X0.1603 Y0.4669
G1 X0.1544 Y0.4601
G1 X0.1502 Y0.4522
G1 X0.1479 Y0.4435
G1 X0.1476 Y0.4346
G1 X0.1492 Y0.4258
G1 X0.1528 Y0.4176
G1 X0.158 Y0.4104
G1 X0.1648 Y0.4045
G1 X0.1675 Y0.4028
G1 X0.1757 Y0.3992
G1 X0.1845 Y0.3976
G1 X0.1934 Y0.3979
G1 X0.2021 Y0.4002
G1 X0.21 Y0.4044
G1 X0.2168 Y0.4102
G1 X0.2221 Y0.4174
G1 X0.2257 Y0.4256
G1 X0.2274 Y0.4343
G1 X0.2275 Y0.4366
G1 F5.0 Z-0.25
G1 F10.0 X0.2276 Y0.4375
G1 X0.2266 Y0.4464
G1 X0.2236 Y0.4548
G1 X0.2188 Y0.4624
G1 X0.2125 Y0.4688
G1 X0.205 Y0.4735
G1 X0.1965 Y0.4765
G1 X0.1876 Y0.4775
G1 X0.1787 Y0.4766
G1 X0.1703 Y0.4737
G1 X0.1675 Y0.4722
G1 X0.1603 Y0.4669
G1 X0.1544 Y0.4601
G1 X0.1502 Y0.4522
G1 X0.1479 Y0.4435
G1 X0.1476 Y0.4346
G1 X0.1492 Y0.4258
G1 X0.1528 Y0.4176
G1 X0.158 Y0.4104
G1 X0.1648 Y0.4045
G1 X0.1675 Y0.4028
G1 X0.1757 Y0.3992
G1 X0.1845 Y0.3976
G1 X0.1934 Y0.3979
G1 X0.2021 Y0.4002
G1 X0.21 Y0.4044
G1 X0.2168 Y0.4102
G1 X0.2221 Y0.4174
G1 X0.2257 Y0.4256
G1 X0.2274 Y0.4343
G1 X0.2275 Y0.4366
G0 Z0.125
G0 X0.1891 Y1.3975
G0 Z0.025
G1 F5.0 Z-0.05
G1 F10.0 X0.1979 Y1.3988
G1 X0.2063 Y1.4021
G1 X0.2137 Y1.4072
G1 X0.2197 Y1.4137
G1 X0.2242 Y1.4215
G1 X0.2269 Y1.43
G1 X0.2276 Y1.4375
G1 X0.2266 Y1.4464
G1 X0.2236 Y1.4548
G1 X0.2188 Y1.4624
G1 X0.2125 Y1.4688
G1 X0.205 Y1.4735
G1 X0.1965 Y1.4765
G1 X0.1876 Y1.4775
G1 X0.1787 Y1.4766
G1 X0.1703 Y1.4737
G1 X0.1675 Y1.4722
G1 X0.1603 Y1.4669
G1 X0.1544 Y1.4601
G1 X0.1502 Y1.4522
G1 X0.1479 Y1.4435
G1 X0.1476 Y1.4346
G1 X0.1492 Y1.4258
G1 X0.1528 Y1.4176
G1 X0.158 Y1.4104
G1 X0.1648 Y1.4045
G1 X0.1675 Y1.4028
G1 X0.1757 Y1.3992
G1 X0.1845 Y1.3976
G1 X0.1891 Y1.3975
G1 F5.0 Z-0.1
G1 F10.0 X0.1979 Y1.3988
G1 X0.2063 Y1.4021
G1 X0.2137 Y1.4072
G1 X0.2197 Y1.4137
G1 X0.2242 Y1.4215
G1 X0.2269 Y1.43
G1 X0.2276 Y1.4375
G1 X0.2266 Y1.4464
G1 X0.2236 Y1.4548
G1 X0.2188 Y1.4624
G1 X0.2125 Y1.4688
G1 X0.205 Y1.4735
G1 X0.1965 Y1.4765
G1 X0.1876 Y1.4775
G1 X0.1787 Y1.4766
G1 X0.1703 Y1.4737
G1 X0.1675 Y1.4722
G1 X0.1603 Y1.4669
G1 X0.1544 Y1.4601
G1 X0.1502 Y1.4522
G1 X0.1479 Y1.4435
G1 X0.1476 Y1.4346
G1 X0.1492 Y1.4258
G1 X0.1528 Y1.4176
G1 X0.158 Y1.4104
G1 X0.1648 Y1.4045
G1 X0.1675 Y1.4028
G1 X0.1757 Y1.3992
G1 X0.1845 Y1.3976
G1 X0.1891 Y1.3975
G1 F5.0 Z-0.15
G1 F10.0 X0.1979 Y1.3988
G1 X0.2063 Y1.4021
G1 X0.2137 Y1.4072
G1 X0.2197 Y1.4137
G1 X0.2242 Y1.4215
G1 X0.2269 Y1.43
G1 X0.2276 Y1.4375
G1 X0.2266 Y1.4464
G1 X0.2236 Y1.4548
G1 X0.2188 Y1.4624
G1 X0.2125 Y1.4688
G1 X0.205 Y1.4735
G1 X0.1965 Y1.4765
G1 X0.1876 Y1.4775
G1 X0.1787 Y1.4766
G1 X0.1703 Y1.4737
G1 X0.1675 Y1.4722
G1 X0.1603 Y1.4669
G1 X0.1544 Y1.4601
G1 X0.1502 Y1.4522
G1 X0.1479 Y1.4435
G1 X0.1476 Y1.4346
G1 X0.1492 Y1.4258
G1 X0.1528 Y1.4176
G1 X0.158 Y1.4104
G1 X0.1648 Y1.4045
G1 X0.1675 Y1.4028
G1 X0.1757 Y1.3992
G1 X0.1845 Y1.3976
G1 X0.1891 Y1.3975
G1 F5.0 Z-0.2
G1 F10.0 X0.1979 Y1.3988
G1 X0.2063 Y1.4021
G1 X0.2137 Y1.4072
G1 X0.2197 Y1.4137
G1 X0.2242 Y1.4215
G1 X0.2269 Y1.43
G1 X0.2276 Y1.4375
G1 X0.2266 Y1.4464
G1 X0.2236 Y1.4548
G1 X0.2188 Y1.4624
G1 X0.2125 Y1.4688
G1 X0.205 Y1.4735
G1 X0.1965 Y1.4765
G1 X0.1876 Y1.4775
G1 X0.1787 Y1.4766
G1 X0.1703 Y1.4737
G1 X0.1675 Y1.4722
G1 X0.1603 Y1.4669
G1 X0.1544 Y1.4601
G1 X0.1502 Y1.4522
G1 X0.1479 Y1.4435
G1 X0.1476 Y1.4346
G1 X0.1492 Y1.4258
G1 X0.1528 Y1.4176
G1 X0.158 Y1.4104
G1 X0.1648 Y1.4045
G1 X0.1675 Y1.4028
G1 X0.1757 Y1.3992
G1 X0.1845 Y1.3976
G1 X0.1891 Y1.3975
G1 F5.0 Z-0.25
G1 F10.0 X0.1979 Y1.3988
G1 X0.2063 Y1.4021
G1 X0.2137 Y1.4072
G1 X0.2197 Y1.4137
G1 X0.2242 Y1.4215
G1 X0.2269 Y1.43
G1 X0.2276 Y1.4375
G1 X0.2266 Y1.4464
G1 X0.2236 Y1.4548
G1 X0.2188 Y1.4624
G1 X0.2125 Y1.4688
G1 X0.205 Y1.4735
G1 X0.1965 Y1.4765
G1 X0.1876 Y1.4775
G1 X0.1787 Y1.4766
G1 X0.1703 Y1.4737
G1 X0.1675 Y1.4722
G1 X0.1603 Y1.4669
G1 X0.1544 Y1.4601
G1 X0.1502 Y1.4522
G1 X0.1479 Y1.4435
G1 X0.1476 Y1.4346
G1 X0.1492 Y1.4258
G1 X0.1528 Y1.4176
G1 X0.158 Y1.4104
G1 X0.1648 Y1.4045
G1 X0.1675 Y1.4028
G1 X0.1757 Y1.3992
G1 X0.1845 Y1.3976
G1 X0.1891 Y1.3975
G0 Z0.125
G0 X1.1575 Y1.4363
G0 Z0.025
G1 F5.0 Z-0.05
G1 F10.0 X1.1588 Y1.4287
G1 X1.162 Y1.4216
G1 X1.1669 Y1.4156
G1 X1.1725 Y1.4115
G1 X1.1796 Y1.4085
G1 X1.1873 Y1.4075
G1 X1.195 Y1.4084
G1 X1.2022 Y1.4113
G1 X1.2084 Y1.4159
G1 X1.2132 Y1.422
G1 X1.2164 Y1.4291
G1 X1.2175 Y1.4368
G1 X1.2176 Y1.4375
G1 X1.2166 Y1.4452
G1 X1.2136 Y1.4524
G1 X1.2089 Y1.4586
G1 X1.2028 Y1.4633
G1 X1.1957 Y1.4664
G1 X1.1881 Y1.4675
G1 X1.1804 Y1.4667
G1 X1.1731 Y1.4639
G1 X1.1725 Y1.4635
G1 X1.1663 Y1.4588
G1 X1.1616 Y1.4527
G1 X1.1585 Y1.4455
G1 X1.1575 Y1.4379
G1 Y1.4363
G1 F5.0 Z-0.1
G1 F10.0 X1.1588 Y1.4287
G1 X1.162 Y1.4216
G1 X1.1669 Y1.4156
G1 X1.1725 Y1.4115
G1 X1.1796 Y1.4085
G1 X1.1873 Y1.4075
G1 X1.195 Y1.4084
G1 X1.2022 Y1.4113
G1 X1.2084 Y1.4159
G1 X1.2132 Y1.422
G1 X1.2164 Y1.4291
G1 X1.2175 Y1.4368
G1 X1.2176 Y1.4375
G1 X1.2166 Y1.4452
G1 X1.2136 Y1.4524
G1 X1.2089 Y1.4586
G1 X1.2028 Y1.4633
G1 X1.1957 Y1.4664
G1 X1.1881 Y1.4675
G1 X1.1804 Y1.4667
G1 X1.1731 Y1.4639
G1 X1.1725 Y1.4635
G1 X1.1663 Y1.4588
G1 X1.1616 Y1.4527
G1 X1.1585 Y1.4455
G1 X1.1575 Y1.4379
G1 Y1.4363
G1 F5.0 Z-0.15
G1 F10.0 X1.1588 Y1.4287
G1 X1.162 Y1.4216
G1 X1.1669 Y1.4156
G1 X1.1725 Y1.4115
G1 X1.1796 Y1.4085
G1 X1.1873 Y1.4075
G1 X1.195 Y1.4084
G1 X1.2022 Y1.4113
G1 X1.2084 Y1.4159
G1 X1.2132 Y1.422
G1 X1.2164 Y1.4291
G1 X1.2175 Y1.4368
G1 X1.2176 Y1.4375
G1 X1.2166 Y1.4452
G1 X1.2136 Y1.4524
G1 X1.2089 Y1.4586
G1 X1.2028 Y1.4633
G1 X1.1957 Y1.4664
G1 X1.1881 Y1.4675
G1 X1.1804 Y1.4667
G1 X1.1731 Y1.4639
G1 X1.1725 Y1.4635
G1 X1.1663 Y1.4588
G1 X1.1616 Y1.4527
G1 X1.1585 Y1.4455
G1 X1.1575 Y1.4379
G1 Y1.4363
G1 F5.0 Z-0.2
G1 F10.0 X1.1588 Y1.4287
G1 X1.162 Y1.4216
G1 X1.1669 Y1.4156
G1 X1.1725 Y1.4115
G1 X1.1796 Y1.4085
G1 X1.1873 Y1.4075
G1 X1.195 Y1.4084
G1 X1.2022 Y1.4113
G1 X1.2084 Y1.4159
G1 X1.2132 Y1.422
G1 X1.2164 Y1.4291
G1 X1.2175 Y1.4368
G1 X1.2176 Y1.4375
G1 X1.2166 Y1.4452
G1 X1.2136 Y1.4524
G1 X1.2089 Y1.4586
G1 X1.2028 Y1.4633
G1 X1.1957 Y1.4664
G1 X1.1881 Y1.4675
G1 X1.1804 Y1.4667
G1 X1.1731 Y1.4639
G1 X1.1725 Y1.4635
G1 X1.1663 Y1.4588
G1 X1.1616 Y1.4527
G1 X1.1585 Y1.4455
G1 X1.1575 Y1.4379
G1 Y1.4363
G1 F5.0 Z-0.25
G1 F10.0 X1.1588 Y1.4287
G1 X1.162 Y1.4216
G1 X1.1669 Y1.4156
G1 X1.1725 Y1.4115
G1 X1.1796 Y1.4085
G1 X1.1873 Y1.4075
G1 X1.195 Y1.4084
G1 X1.2022 Y1.4113
G1 X1.2084 Y1.4159
G1 X1.2132 Y1.422
G1 X1.2164 Y1.4291
G1 X1.2175 Y1.4368
G1 X1.2176 Y1.4375
G1 X1.2166 Y1.4452
G1 X1.2136 Y1.4524
G1 X1.2089 Y1.4586
G1 X1.2028 Y1.4633
G1 X1.1957 Y1.4664
G1 X1.1881 Y1.4675
G1 X1.1804 Y1.4667
G1 X1.1731 Y1.4639
G1 X1.1725 Y1.4635
G1 X1.1663 Y1.4588
G1 X1.1616 Y1.4527
G1 X1.1585 Y1.4455
G1 X1.1575 Y1.4379
G1 Y1.4363
G0 Z0.125
G0 X1.5496 Y1.4374
G0 Z0.025
G1 F5.0 Z-0.05
G1 F10.0 X1.5506 Y1.4297
G1 X1.5535 Y1.4226
G1 X1.5582 Y1.4164
G1 X1.5643 Y1.4116
G1 X1.5646 Y1.4115
G1 X1.5717 Y1.4085
G1 X1.5794 Y1.4075
G1 X1.5871 Y1.4084
G1 X1.5943 Y1.4113
G1 X1.6005 Y1.4159
G1 X1.6053 Y1.422
G1 X1.6085 Y1.4291
G1 X1.6096 Y1.4368
G1 X1.6097 Y1.4375
G1 X1.6087 Y1.4452
G1 X1.6057 Y1.4524
G1 X1.601 Y1.4586
G1 X1.5949 Y1.4633
G1 X1.5878 Y1.4664
G1 X1.5802 Y1.4675
G1 X1.5725 Y1.4667
G1 X1.5652 Y1.4639
G1 X1.5646 Y1.4635
G1 X1.5584 Y1.4588
G1 X1.5537 Y1.4527
G1 X1.5506 Y1.4455
G1 X1.5496 Y1.4379
G1 Y1.4374
G1 F5.0 Z-0.1
G1 F10.0 X1.5506 Y1.4297
G1 X1.5535 Y1.4226
G1 X1.5582 Y1.4164
G1 X1.5643 Y1.4116
G1 X1.5646 Y1.4115
G1 X1.5717 Y1.4085
G1 X1.5794 Y1.4075
G1 X1.5871 Y1.4084
G1 X1.5943 Y1.4113
G1 X1.6005 Y1.4159
G1 X1.6053 Y1.422
G1 X1.6085 Y1.4291
G1 X1.6096 Y1.4368
G1 X1.6097 Y1.4375
G1 X1.6087 Y1.4452
G1 X1.6057 Y1.4524
G1 X1.601 Y1.4586
G1 X1.5949 Y1.4633
G1 X1.5878 Y1.4664
G1 X1.5802 Y1.4675
G1 X1.5725 Y1.4667
G1 X1.5652 Y1.4639
G1 X1.5646 Y1.4635
G1 X1.5584 Y1.4588
G1 X1.5537 Y1.4527
G1 X1.5506 Y1.4455
G1 X1.5496 Y1.4379
G1 Y1.4374
G1 F5.0 Z-0.15
G1 F10.0 X1.5506 Y1.4297
G1 X1.5535 Y1.4226
G1 X1.5582 Y1.4164
G1 X1.5643 Y1.4116
G1 X1.5646 Y1.4115
G1 X1.5717 Y1.4085
G1 X1.5794 Y1.4075
G1 X1.5871 Y1.4084
G1 X1.5943 Y1.4113
G1 X1.6005 Y1.4159
G1 X1.6053 Y1.422
G1 X1.6085 Y1.4291
G1 X1.6096 Y1.4368
G1 X1.6097 Y1.4375
G1 X1.6087 Y1.4452
G1 X1.6057 Y1.4524
G1 X1.601 Y1.4586
G1 X1.5949 Y1.4633
G1 X1.5878 Y1.4664
G1 X1.5802 Y1.4675
G1 X1.5725 Y1.4667
G1 X1.5652 Y1.4639
G1 X1.5646 Y1.4635
G1 X1.5584 Y1.4588
G1 X1.5537 Y1.4527
G1 X1.5506 Y1.4455
G1 X1.5496 Y1.4379
G1 Y1.4374
G1 F5.0 Z-0.2
G1 F10.0 X1.5506 Y1.4297
G1 X1.5535 Y1.4226
G1 X1.5582 Y1.4164
G1 X1.5643 Y1.4116
G1 X1.5646 Y1.4115
G1 X1.5717 Y1.4085
G1 X1.5794 Y1.4075
G1 X1.5871 Y1.4084
G1 X1.5943 Y1.4113
G1 X1.6005 Y1.4159
G1 X1.6053 Y1.422
G1 X1.6085 Y1.4291
G1 X1.6096 Y1.4368
G1 X1.6097 Y1.4375
G1 X1.6087 Y1.4452
G1 X1.6057 Y1.4524
G1 X1.601 Y1.4586
G1 X1.5949 Y1.4633
G1 X1.5878 Y1.4664
G1 X1.5802 Y1.4675
G1 X1.5725 Y1.4667
G1 X1.5652 Y1.4639
G1 X1.5646 Y1.4635
G1 X1.5584 Y1.4588
G1 X1.5537 Y1.4527
G1 X1.5506 Y1.4455
G1 X1.5496 Y1.4379
G1 Y1.4374
G1 F5.0 Z-0.25
G1 F10.0 X1.5506 Y1.4297
G1 X1.5535 Y1.4226
G1 X1.5582 Y1.4164
G1 X1.5643 Y1.4116
G1 X1.5646 Y1.4115
G1 X1.5717 Y1.4085
G1 X1.5794 Y1.4075
G1 X1.5871 Y1.4084
G1 X1.5943 Y1.4113
G1 X1.6005 Y1.4159
G1 X1.6053 Y1.422
G1 X1.6085 Y1.4291
G1 X1.6096 Y1.4368
G1 X1.6097 Y1.4375
G1 X1.6087 Y1.4452
G1 X1.6057 Y1.4524
G1 X1.601 Y1.4586
G1 X1.5949 Y1.4633
G1 X1.5878 Y1.4664
G1 X1.5802 Y1.4675
G1 X1.5725 Y1.4667
G1 X1.5652 Y1.4639
G1 X1.5646 Y1.4635
G1 X1.5584 Y1.4588
G1 X1.5537 Y1.4527
G1 X1.5506 Y1.4455
G1 X1.5496 Y1.4379
G1 Y1.4374
G0 Z0.125
G0 X2.1475 Y1.4375
G0 Z0.025
G1 F5.0 Z-0.05
G1 F10.0 X2.1485 Y1.4286
G1 X2.1514 Y1.4202
G1 X2.1562 Y1.4126
G1 X2.1625 Y1.4062
G1 X2.1675 Y1.4028
G1 X2.1757 Y1.3992
G1 X2.1845 Y1.3976
G1 X2.1934 Y1.3979
G1 X2.2021 Y1.4002
G1 X2.21 Y1.4044
G1 X2.2168 Y1.4102
G1 X2.2221 Y1.4174
G1 X2.2257 Y1.4256
G1 X2.2274 Y1.4343
G1 X2.2276 Y1.4375
G1 X2.2266 Y1.4464
G1 X2.2236 Y1.4548
G1 X2.2188 Y1.4624
G1 X2.2125 Y1.4688
G1 X2.205 Y1.4735
G1 X2.1965 Y1.4765
G1 X2.1876 Y1.4775
G1 X2.1787 Y1.4766
G1 X2.1703 Y1.4737
G1 X2.1675 Y1.4722
G1 X2.1603 Y1.4669
G1 X2.1544 Y1.4601
G1 X2.1502 Y1.4522
G1 X2.1479 Y1.4435
G1 X2.1475 Y1.4375
G1 F5.0 Z-0.1
G1 F10.0 X2.1485 Y1.4286
G1 X2.1514 Y1.4202
G1 X2.1562 Y1.4126
G1 X2.1625 Y1.4062
G1 X2.1675 Y1.4028
G1 X2.1757 Y1.3992
G1 X2.1845 Y1.3976
G1 X2.1934 Y1.3979
G1 X2.2021 Y1.4002
G1 X2.21 Y1.4044
G1 X2.2168 Y1.4102
G1 X2.2221 Y1.4174
G1 X2.2257 Y1.4256
G1 X2.2274 Y1.4343
G1 X2.2276 Y1.4375
G1 X2.2266 Y1.4464
G1 X2.2236 Y1.4548
G1 X2.2188 Y1.4624
G1 X2.2125 Y1.4688
G1 X2.205 Y1.4735
G1 X2.1965 Y1.4765
G1 X2.1876 Y1.4775
G1 X2.1787 Y1.4766
G1 X2.1703 Y1.4737
G1 X2.1675 Y1.4722
G1 X2.1603 Y1.4669
G1 X2.1544 Y1.4601
G1 X2.1502 Y1.4522
G1 X2.1479 Y1.4435
G1 X2.1475 Y1.4375
G1 F5.0 Z-0.15
G1 F10.0 X2.1485 Y1.4286
G1 X2.1514 Y1.4202
G1 X2.1562 Y1.4126
G1 X2.1625 Y1.4062
G1 X2.1675 Y1.4028
G1 X2.1757 Y1.3992
G1 X2.1845 Y1.3976
G1 X2.1934 Y1.3979
G1 X2.2021 Y1.4002
G1 X2.21 Y1.4044
G1 X2.2168 Y1.4102
G1 X2.2221 Y1.4174
G1 X2.2257 Y1.4256
G1 X2.2274 Y1.4343
G1 X2.2276 Y1.4375
G1 X2.2266 Y1.4464
G1 X2.2236 Y1.4548
G1 X2.2188 Y1.4624
G1 X2.2125 Y1.4688
G1 X2.205 Y1.4735
G1 X2.1965 Y1.4765
G1 X2.1876 Y1.4775
G1 X2.1787 Y1.4766
G1 X2.1703 Y1.4737
G1 X2.1675 Y1.4722
G1 X2.1603 Y1.4669
G1 X2.1544 Y1.4601
G1 X2.1502 Y1.4522
G1 X2.1479 Y1.4435
G1 X2.1475 Y1.4375
G1 F5.0 Z-0.2
G1 F10.0 X2.1485 Y1.4286
G1 X2.1514 Y1.4202
G1 X2.1562 Y1.4126
G1 X2.1625 Y1.4062
G1 X2.1675 Y1.4028
G1 X2.1757 Y1.3992
G1 X2.1845 Y1.3976
G1 X2.1934 Y1.3979
G1 X2.2021 Y1.4002
G1 X2.21 Y1.4044
G1 X2.2168 Y1.4102
G1 X2.2221 Y1.4174
G1 X2.2257 Y1.4256
G1 X2.2274 Y1.4343
G1 X2.2276 Y1.4375
G1 X2.2266 Y1.4464
G1 X2.2236 Y1.4548
G1 X2.2188 Y1.4624
G1 X2.2125 Y1.4688
G1 X2.205 Y1.4735
G1 X2.1965 Y1.4765
G1 X2.1876 Y1.4775
G1 X2.1787 Y1.4766
G1 X2.1703 Y1.4737
G1 X2.1675 Y1.4722
G1 X2.1603 Y1.4669
G1 X2.1544 Y1.4601
G1 X2.1502 Y1.4522
G1 X2.1479 Y1.4435
G1 X2.1475 Y1.4375
G1 F5.0 Z-0.25
G1 F10.0 X2.1485 Y1.4286
G1 X2.1514 Y1.4202
G1 X2.1562 Y1.4126
G1 X2.1625 Y1.4062
G1 X2.1675 Y1.4028
G1 X2.1757 Y1.3992
G1 X2.1845 Y1.3976
G1 X2.1934 Y1.3979
G1 X2.2021 Y1.4002
G1 X2.21 Y1.4044
G1 X2.2168 Y1.4102
G1 X2.2221 Y1.4174
G1 X2.2257 Y1.4256
G1 X2.2274 Y1.4343
G1 X2.2276 Y1.4375
G1 X2.2266 Y1.4464
G1 X2.2236 Y1.4548
G1 X2.2188 Y1.4624
G1 X2.2125 Y1.4688
G1 X2.205 Y1.4735
G1 X2.1965 Y1.4765
G1 X2.1876 Y1.4775
G1 X2.1787 Y1.4766
G1 X2.1703 Y1.4737
G1 X2.1675 Y1.4722
G1 X2.1603 Y1.4669
G1 X2.1544 Y1.4601
G1 X2.1502 Y1.4522
G1 X2.1479 Y1.4435
G1 X2.1475 Y1.4375
G0 Z0.125
G0 X2.2192 Y0.5649
G0 Z0.025
G1 F5.0 Z-0.05
G1 F10.0 X2.2104 Y0.5632
G1 X2.2025 Y0.5597
G1 X2.1953 Y0.5544
G1 X2.1894 Y0.5476
G1 X2.1852 Y0.5397
G1 X2.1829 Y0.531
G1 X2.1826 Y0.5221
G1 X2.1842 Y0.5133
G1 X2.1878 Y0.5051
G1 X2.193 Y0.4979
G1 X2.1998 Y0.492
G1 X2.2025 Y0.4903
G1 X2.2107 Y0.4867
G1 X2.2195 Y0.4851
G1 X2.2284 Y0.4854
G1 X2.2371 Y0.4877
G1 X2.245 Y0.4919
G1 X2.2518 Y0.4977
G1 X2.2571 Y0.5049
G1 X2.2607 Y0.5131
G1 X2.2624 Y0.5218
G1 X2.2626 Y0.525
G1 X2.2616 Y0.5339
G1 X2.2586 Y0.5423
G1 X2.2538 Y0.5499
G1 X2.2475 Y0.5563
G1 X2.24 Y0.561
G1 X2.2315 Y0.564
G1 X2.2226 Y0.565
G1 X2.2192 Y0.5649
G1 F5.0 Z-0.1
G1 F10.0 X2.2104 Y0.5632
G1 X2.2025 Y0.5597
G1 X2.1953 Y0.5544
G1 X2.1894 Y0.5476
G1 X2.1852 Y0.5397
G1 X2.1829 Y0.531
G1 X2.1826 Y0.5221
G1 X2.1842 Y0.5133
G1 X2.1878 Y0.5051
G1 X2.193 Y0.4979
G1 X2.1998 Y0.492
G1 X2.2025 Y0.4903
G1 X2.2107 Y0.4867
G1 X2.2195 Y0.4851
G1 X2.2284 Y0.4854
G1 X2.2371 Y0.4877
G1 X2.245 Y0.4919
G1 X2.2518 Y0.4977
G1 X2.2571 Y0.5049
G1 X2.2607 Y0.5131
G1 X2.2624 Y0.5218
G1 X2.2626 Y0.525
G1 X2.2616 Y0.5339
G1 X2.2586 Y0.5423
G1 X2.2538 Y0.5499
G1 X2.2475 Y0.5563
G1 X2.24 Y0.561
G1 X2.2315 Y0.564
G1 X2.2226 Y0.565
G1 X2.2192 Y0.5649
G1 F5.0 Z-0.15
G1 F10.0 X2.2104 Y0.5632
G1 X2.2025 Y0.5597
G1 X2.1953 Y0.5544
G1 X2.1894 Y0.5476
G1 X2.1852 Y0.5397
G1 X2.1829 Y0.531
G1 X2.1826 Y0.5221
G1 X2.1842 Y0.5133
G1 X2.1878 Y0.5051
G1 X2.193 Y0.4979
G1 X2.1998 Y0.492
G1 X2.2025 Y0.4903
G1 X2.2107 Y0.4867
G1 X2.2195 Y0.4851
G1 X2.2284 Y0.4854
G1 X2.2371 Y0.4877
G1 X2.245 Y0.4919
G1 X2.2518 Y0.4977
G1 X2.2571 Y0.5049
G1 X2.2607 Y0.5131
G1 X2.2624 Y0.5218
G1 X2.2626 Y0.525
G1 X2.2616 Y0.5339
G1 X2.2586 Y0.5423
G1 X2.2538 Y0.5499
G1 X2.2475 Y0.5563
G1 X2.24 Y0.561
G1 X2.2315 Y0.564
G1 X2.2226 Y0.565
G1 X2.2192 Y0.5649
G1 F5.0 Z-0.2
G1 F10.0 X2.2104 Y0.5632
G1 X2.2025 Y0.5597
G1 X2.1953 Y0.5544
G1 X2.1894 Y0.5476
G1 X2.1852 Y0.5397
G1 X2.1829 Y0.531
G1 X2.1826 Y0.5221
G1 X2.1842 Y0.5133
G1 X2.1878 Y0.5051
G1 X2.193 Y0.4979
G1 X2.1998 Y0.492
G1 X2.2025 Y0.4903
G1 X2.2107 Y0.4867
G1 X2.2195 Y0.4851
G1 X2.2284 Y0.4854
G1 X2.2371 Y0.4877
G1 X2.245 Y0.4919
G1 X2.2518 Y0.4977
G1 X2.2571 Y0.5049
G1 X2.2607 Y0.5131
G1 X2.2624 Y0.5218
G1 X2.2626 Y0.525
G1 X2.2616 Y0.5339
G1 X2.2586 Y0.5423
G1 X2.2538 Y0.5499
G1 X2.2475 Y0.5563
G1 X2.24 Y0.561
G1 X2.2315 Y0.564
G1 X2.2226 Y0.565
G1 X2.2192 Y0.5649
G1 F5.0 Z-0.25
G1 F10.0 X2.2104 Y0.5632
G1 X2.2025 Y0.5597
G1 X2.1953 Y0.5544
G1 X2.1894 Y0.5476
G1 X2.1852 Y0.5397
G1 X2.1829 Y0.531
G1 X2.1826 Y0.5221
G1 X2.1842 Y0.5133
G1 X2.1878 Y0.5051
G1 X2.193 Y0.4979
G1 X2.1998 Y0.492
G1 X2.2025 Y0.4903
G1 X2.2107 Y0.4867
G1 X2.2195 Y0.4851
G1 X2.2284 Y0.4854
G1 X2.2371 Y0.4877
G1 X2.245 Y0.4919
G1 X2.2518 Y0.4977
G1 X2.2571 Y0.5049
G1 X2.2607 Y0.5131
G1 X2.2624 Y0.5218
G1 X2.2626 Y0.525
G1 X2.2616 Y0.5339
G1 X2.2586 Y0.5423
G1 X2.2538 Y0.5499
G1 X2.2475 Y0.5563
G1 X2.24 Y0.561
G1 X2.2315 Y0.564
G1 X2.2226 Y0.565
G1 X2.2192 Y0.5649
G0 Z0.125
G0 X2.2224 Y2.31
G0 Z0.025
G1 F5.0 Z-0.05
G1 F10.0 X2.2313 Y2.3109
G1 X2.2398 Y2.3139
G1 X2.2474 Y2.3186
G1 X2.2537 Y2.3249
G1 X2.2585 Y2.3325
G1 X2.2615 Y2.3409
G1 X2.2625 Y2.3498
G1 X2.2626 Y2.35
G1 X2.2616 Y2.3589
G1 X2.2586 Y2.3673
G1 X2.2538 Y2.3749
G1 X2.2475 Y2.3813
G1 X2.24 Y2.386
G1 X2.2315 Y2.389
G1 X2.2226 Y2.39
G1 X2.2137 Y2.3891
G1 X2.2053 Y2.3862
G1 X2.2025 Y2.3847
G1 X2.1953 Y2.3794
G1 X2.1894 Y2.3726
G1 X2.1852 Y2.3647
G1 X2.1829 Y2.356
G1 X2.1826 Y2.3471
G1 X2.1842 Y2.3383
G1 X2.1878 Y2.3301
G1 X2.193 Y2.3229
G1 X2.1998 Y2.317
G1 X2.2025 Y2.3153
G1 X2.2107 Y2.3117
G1 X2.2195 Y2.3101
G1 X2.2224 Y2.31
G1 F5.0 Z-0.1
G1 F10.0 X2.2313 Y2.3109
G1 X2.2398 Y2.3139
G1 X2.2474 Y2.3186
G1 X2.2537 Y2.3249
G1 X2.2585 Y2.3325
G1 X2.2615 Y2.3409
G1 X2.2625 Y2.3498
G1 X2.2626 Y2.35
G1 X2.2616 Y2.3589
G1 X2.2586 Y2.3673
G1 X2.2538 Y2.3749
G1 X2.2475 Y2.3813
G1 X2.24 Y2.386
G1 X2.2315 Y2.389
G1 X2.2226 Y2.39
G1 X2.2137 Y2.3891
G1 X2.2053 Y2.3862
G1 X2.2025 Y2.3847
G1 X2.1953 Y2.3794
G1 X2.1894 Y2.3726
G1 X2.1852 Y2.3647
G1 X2.1829 Y2.356
G1 X2.1826 Y2.3471
G1 X2.1842 Y2.3383
G1 X2.1878 Y2.3301
G1 X2.193 Y2.3229
G1 X2.1998 Y2.317
G1 X2.2025 Y2.3153
G1 X2.2107 Y2.3117
G1 X2.2195 Y2.3101
G1 X2.2224 Y2.31
G1 F5.0 Z-0.15
G1 F10.0 X2.2313 Y2.3109
G1 X2.2398 Y2.3139
G1 X2.2474 Y2.3186
G1 X2.2537 Y2.3249
G1 X2.2585 Y2.3325
G1 X2.2615 Y2.3409
G1 X2.2625 Y2.3498
G1 X2.2626 Y2.35
G1 X2.2616 Y2.3589
G1 X2.2586 Y2.3673
G1 X2.2538 Y2.3749
G1 X2.2475 Y2.3813
G1 X2.24 Y2.386
G1 X2.2315 Y2.389
G1 X2.2226 Y2.39
G1 X2.2137 Y2.3891
G1 X2.2053 Y2.3862
G1 X2.2025 Y2.3847
G1 X2.1953 Y2.3794
G1 X2.1894 Y2.3726
G1 X2.1852 Y2.3647
G1 X2.1829 Y2.356
G1 X2.1826 Y2.3471
G1 X2.1842 Y2.3383
G1 X2.1878 Y2.3301
G1 X2.193 Y2.3229
G1 X2.1998 Y2.317
G1 X2.2025 Y2.3153
G1 X2.2107 Y2.3117
G1 X2.2195 Y2.3101
G1 X2.2224 Y2.31
G1 F5.0 Z-0.2
G1 F10.0 X2.2313 Y2.3109
G1 X2.2398 Y2.3139
G1 X2.2474 Y2.3186
G1 X2.2537 Y2.3249
G1 X2.2585 Y2.3325
G1 X2.2615 Y2.3409
G1 X2.2625 Y2.3498
G1 X2.2626 Y2.35
G1 X2.2616 Y2.3589
G1 X2.2586 Y2.3673
G1 X2.2538 Y2.3749
G1 X2.2475 Y2.3813
G1 X2.24 Y2.386
G1 X2.2315 Y2.389
G1 X2.2226 Y2.39
G1 X2.2137 Y2.3891
G1 X2.2053 Y2.3862
G1 X2.2025 Y2.3847
G1 X2.1953 Y2.3794
G1 X2.1894 Y2.3726
G1 X2.1852 Y2.3647
G1 X2.1829 Y2.356
G1 X2.1826 Y2.3471
G1 X2.1842 Y2.3383
G1 X2.1878 Y2.3301
G1 X2.193 Y2.3229
G1 X2.1998 Y2.317
G1 X2.2025 Y2.3153
G1 X2.2107 Y2.3117
G1 X2.2195 Y2.3101
G1 X2.2224 Y2.31
G1 F5.0 Z-0.25
G1 F10.0 X2.2313 Y2.3109
G1 X2.2398 Y2.3139
G1 X2.2474 Y2.3186
G1 X2.2537 Y2.3249
G1 X2.2585 Y2.3325
G1 X2.2615 Y2.3409
G1 X2.2625 Y2.3498
G1 X2.2626 Y2.35
G1 X2.2616 Y2.3589
G1 X2.2586 Y2.3673
G1 X2.2538 Y2.3749
G1 X2.2475 Y2.3813
G1 X2.24 Y2.386
G1 X2.2315 Y2.389
G1 X2.2226 Y2.39
G1 X2.2137 Y2.3891
G1 X2.2053 Y2.3862
G1 X2.2025 Y2.3847
G1 X2.1953 Y2.3794
G1 X2.1894 Y2.3726
G1 X2.1852 Y2.3647
G1 X2.1829 Y2.356
G1 X2.1826 Y2.3471
G1 X2.1842 Y2.3383
G1 X2.1878 Y2.3301
G1 X2.193 Y2.3229
G1 X2.1998 Y2.317
G1 X2.2025 Y2.3153
G1 X2.2107 Y2.3117
G1 X2.2195 Y2.3101
G1 X2.2224 Y2.31
G0 Z0.125
G0 X1.2173 Y2.4338
G0 Z0.025
G1 F5.0 Z-0.05
G1 F10.0 X1.2176 Y2.4375
G1 X1.2166 Y2.4452
G1 X1.2136 Y2.4524
G1 X1.2089 Y2.4586
G1 X1.2028 Y2.4633
G1 X1.1957 Y2.4664
G1 X1.1881 Y2.4675
G1 X1.1804 Y2.4667
G1 X1.1731 Y2.4639
G1 X1.1725 Y2.4635
G1 X1.1663 Y2.4588
G1 X1.1616 Y2.4527
G1 X1.1585 Y2.4455
G1 X1.1575 Y2.4379
G1 X1.1584 Y2.4302
G1 X1.1612 Y2.423
G1 X1.1658 Y2.4167
G1 X1.1718 Y2.4119
G1 X1.1725 Y2.4115
G1 X1.1796 Y2.4085
G1 X1.1873 Y2.4075
G1 X1.195 Y2.4084
G1 X1.2022 Y2.4113
G1 X1.2084 Y2.4159
G1 X1.2132 Y2.422
G1 X1.2164 Y2.4291
G1 X1.2173 Y2.4338
G1 F5.0 Z-0.1
G1 F10.0 X1.2176 Y2.4375
G1 X1.2166 Y2.4452
G1 X1.2136 Y2.4524
G1 X1.2089 Y2.4586
G1 X1.2028 Y2.4633
G1 X1.1957 Y2.4664
G1 X1.1881 Y2.4675
G1 X1.1804 Y2.4667
G1 X1.1731 Y2.4639
G1 X1.1725 Y2.4635
G1 X1.1663 Y2.4588
G1 X1.1616 Y2.4527
G1 X1.1585 Y2.4455
G1 X1.1575 Y2.4379
G1 X1.1584 Y2.4302
G1 X1.1612 Y2.423
G1 X1.1658 Y2.4167
G1 X1.1718 Y2.4119
G1 X1.1725 Y2.4115
G1 X1.1796 Y2.4085
G1 X1.1873 Y2.4075
G1 X1.195 Y2.4084
G1 X1.2022 Y2.4113
G1 X1.2084 Y2.4159
G1 X1.2132 Y2.422
G1 X1.2164 Y2.4291
G1 X1.2173 Y2.4338
G1 F5.0 Z-0.15
G1 F10.0 X1.2176 Y2.4375
G1 X1.2166 Y2.4452
G1 X1.2136 Y2.4524
G1 X1.2089 Y2.4586
G1 X1.2028 Y2.4633
G1 X1.1957 Y2.4664
G1 X1.1881 Y2.4675
G1 X1.1804 Y2.4667
G1 X1.1731 Y2.4639
G1 X1.1725 Y2.4635
G1 X1.1663 Y2.4588
G1 X1.1616 Y2.4527
G1 X1.1585 Y2.4455
G1 X1.1575 Y2.4379
G1 X1.1584 Y2.4302
G1 X1.1612 Y2.423
G1 X1.1658 Y2.4167
G1 X1.1718 Y2.4119
G1 X1.1725 Y2.4115
G1 X1.1796 Y2.4085
G1 X1.1873 Y2.4075
G1 X1.195 Y2.4084
G1 X1.2022 Y2.4113
G1 X1.2084 Y2.4159
G1 X1.2132 Y2.422
G1 X1.2164 Y2.4291
G1 X1.2173 Y2.4338
G1 F5.0 Z-0.2
G1 F10.0 X1.2176 Y2.4375
G1 X1.2166 Y2.4452
G1 X1.2136 Y2.4524
G1 X1.2089 Y2.4586
G1 X1.2028 Y2.4633
G1 X1.1957 Y2.4664
G1 X1.1881 Y2.4675
G1 X1.1804 Y2.4667
G1 X1.1731 Y2.4639
G1 X1.1725 Y2.4635
G1 X1.1663 Y2.4588
G1 X1.1616 Y2.4527
G1 X1.1585 Y2.4455
G1 X1.1575 Y2.4379
G1 X1.1584 Y2.4302
G1 X1.1612 Y2.423
G1 X1.1658 Y2.4167
G1 X1.1718 Y2.4119
G1 X1.1725 Y2.4115
G1 X1.1796 Y2.4085
G1 X1.1873 Y2.4075
G1 X1.195 Y2.4084
G1 X1.2022 Y2.4113
G1 X1.2084 Y2.4159
G1 X1.2132 Y2.422
G1 X1.2164 Y2.4291
G1 X1.2173 Y2.4338
G1 F5.0 Z-0.25
G1 F10.0 X1.2176 Y2.4375
G1 X1.2166 Y2.4452
G1 X1.2136 Y2.4524
G1 X1.2089 Y2.4586
G1 X1.2028 Y2.4633
G1 X1.1957 Y2.4664
G1 X1.1881 Y2.4675
G1 X1.1804 Y2.4667
G1 X1.1731 Y2.4639
G1 X1.1725 Y2.4635
G1 X1.1663 Y2.4588
G1 X1.1616 Y2.4527
G1 X1.1585 Y2.4455
G1 X1.1575 Y2.4379
G1 X1.1584 Y2.4302
G1 X1.1612 Y2.423
G1 X1.1658 Y2.4167
G1 X1.1718 Y2.4119
G1 X1.1725 Y2.4115
G1 X1.1796 Y2.4085
G1 X1.1873 Y2.4075
G1 X1.195 Y2.4084
G1 X1.2022 Y2.4113
G1 X1.2084 Y2.4159
G1 X1.2132 Y2.422
G1 X1.2164 Y2.4291
G1 X1.2173 Y2.4338
G0 Z0.125
G0 X0.2275 Y2.4374
G0 Z0.025
G1 F5.0 Z-0.05
G1 F10.0 X0.2276 Y2.4375
G1 X0.2266 Y2.4464
G1 X0.2236 Y2.4548
G1 X0.2188 Y2.4624
G1 X0.2125 Y2.4688
G1 X0.205 Y2.4735
G1 X0.1965 Y2.4765
G1 X0.1876 Y2.4775
G1 X0.1787 Y2.4766
G1 X0.1703 Y2.4737
G1 X0.1675 Y2.4722
G1 X0.1603 Y2.4669
G1 X0.1544 Y2.4601
G1 X0.1502 Y2.4522
G1 X0.1479 Y2.4435
G1 X0.1476 Y2.4346
G1 X0.1492 Y2.4258
G1 X0.1528 Y2.4176
G1 X0.158 Y2.4104
G1 X0.1648 Y2.4045
G1 X0.1675 Y2.4028
G1 X0.1757 Y2.3992
G1 X0.1845 Y2.3976
G1 X0.1934 Y2.3979
G1 X0.2021 Y2.4002
G1 X0.21 Y2.4044
G1 X0.2168 Y2.4102
G1 X0.2221 Y2.4174
G1 X0.2257 Y2.4256
G1 X0.2274 Y2.4343
G1 X0.2275 Y2.4374
G1 F5.0 Z-0.1
G1 F10.0 X0.2276 Y2.4375
G1 X0.2266 Y2.4464
G1 X0.2236 Y2.4548
G1 X0.2188 Y2.4624
G1 X0.2125 Y2.4688
G1 X0.205 Y2.4735
G1 X0.1965 Y2.4765
G1 X0.1876 Y2.4775
G1 X0.1787 Y2.4766
G1 X0.1703 Y2.4737
G1 X0.1675 Y2.4722
G1 X0.1603 Y2.4669
G1 X0.1544 Y2.4601
G1 X0.1502 Y2.4522
G1 X0.1479 Y2.4435
G1 X0.1476 Y2.4346
G1 X0.1492 Y2.4258
G1 X0.1528 Y2.4176
G1 X0.158 Y2.4104
G1 X0.1648 Y2.4045
G1 X0.1675 Y2.4028
G1 X0.1757 Y2.3992
G1 X0.1845 Y2.3976
G1 X0.1934 Y2.3979
G1 X0.2021 Y2.4002
G1 X0.21 Y2.4044
G1 X0.2168 Y2.4102
G1 X0.2221 Y2.4174
G1 X0.2257 Y2.4256
G1 X0.2274 Y2.4343
G1 X0.2275 Y2.4374
G1 F5.0 Z-0.15
G1 F10.0 X0.2276 Y2.4375
G1 X0.2266 Y2.4464
G1 X0.2236 Y2.4548
G1 X0.2188 Y2.4624
G1 X0.2125 Y2.4688
G1 X0.205 Y2.4735
G1 X0.1965 Y2.4765
G1 X0.1876 Y2.4775
G1 X0.1787 Y2.4766
G1 X0.1703 Y2.4737
G1 X0.1675 Y2.4722
G1 X0.1603 Y2.4669
G1 X0.1544 Y2.4601
G1 X0.1502 Y2.4522
G1 X0.1479 Y2.4435
G1 X0.1476 Y2.4346
G1 X0.1492 Y2.4258
G1 X0.1528 Y2.4176
G1 X0.158 Y2.4104
G1 X0.1648 Y2.4045
G1 X0.1675 Y2.4028
G1 X0.1757 Y2.3992
G1 X0.1845 Y2.3976
G1 X0.1934 Y2.3979
G1 X0.2021 Y2.4002
G1 X0.21 Y2.4044
G1 X0.2168 Y2.4102
G1 X0.2221 Y2.4174
G1 X0.2257 Y2.4256
G1 X0.2274 Y2.4343
G1 X0.2275 Y2.4374
G1 F5.0 Z-0.2
G1 F10.0 X0.2276 Y2.4375
G1 X0.2266 Y2.4464
G1 X0.2236 Y2.4548
G1 X0.2188 Y2.4624
G1 X0.2125 Y2.4688
G1 X0.205 Y2.4735
G1 X0.1965 Y2.4765
G1 X0.1876 Y2.4775
G1 X0.1787 Y2.4766
G1 X0.1703 Y2.4737
G1 X0.1675 Y2.4722
G1 X0.1603 Y2.4669
G1 X0.1544 Y2.4601
G1 X0.1502 Y2.4522
G1 X0.1479 Y2.4435
G1 X0.1476 Y2.4346
G1 X0.1492 Y2.4258
G1 X0.1528 Y2.4176
G1 X0.158 Y2.4104
G1 X0.1648 Y2.4045
G1 X0.1675 Y2.4028
G1 X0.1757 Y2.3992
G1 X0.1845 Y2.3976
G1 X0.1934 Y2.3979
G1 X0.2021 Y2.4002
G1 X0.21 Y2.4044
G1 X0.2168 Y2.4102
G1 X0.2221 Y2.4174
G1 X0.2257 Y2.4256
G1 X0.2274 Y2.4343
G1 X0.2275 Y2.4374
G1 F5.0 Z-0.25
G1 F10.0 X0.2276 Y2.4375
G1 X0.2266 Y2.4464
G1 X0.2236 Y2.4548
G1 X0.2188 Y2.4624
G1 X0.2125 Y2.4688
G1 X0.205 Y2.4735
G1 X0.1965 Y2.4765
G1 X0.1876 Y2.4775
G1 X0.1787 Y2.4766
G1 X0.1703 Y2.4737
G1 X0.1675 Y2.4722
G1 X0.1603 Y2.4669
G1 X0.1544 Y2.4601
G1 X0.1502 Y2.4522
G1 X0.1479 Y2.4435
G1 X0.1476 Y2.4346
G1 X0.1492 Y2.4258
G1 X0.1528 Y2.4176
G1 X0.158 Y2.4104
G1 X0.1648 Y2.4045
G1 X0.1675 Y2.4028
G1 X0.1757 Y2.3992
G1 X0.1845 Y2.3976
G1 X0.1934 Y2.3979
G1 X0.2021 Y2.4002
G1 X0.21 Y2.4044
G1 X0.2168 Y2.4102
G1 X0.2221 Y2.4174
G1 X0.2257 Y2.4256
G1 X0.2274 Y2.4343
G1 X0.2275 Y2.4374
G0 Z0.125
G0 Y2.655
G0 Z0.025
G1 F5.0 Z-0.05
G1 F10.0 X0.2973
G1 Y2.6875
G1 X0.2983 Y2.6952
G1 X0.3012 Y2.7023
G1 X0.3059 Y2.7085
G1 X0.3119 Y2.7133
G1 X0.3191 Y2.7163
G1 X0.3267 Y2.7174
G1 X0.3272 Y2.7175
G1 X0.4272
G1 X0.4349 Y2.7165
G1 X0.442 Y2.7135
G1 X0.4482 Y2.7088
G1 X0.453 Y2.7028
G1 X0.456 Y2.6956
G1 X0.4571 Y2.688
G1 X0.4572 Y2.6875
G1 Y2.655
G1 X0.8375
G1 X0.8493 Y2.656
G1 X0.8608 Y2.6589
G1 X0.8715 Y2.6638
G1 X0.8814 Y2.6704
G1 X0.8899 Y2.6786
G1 X0.897 Y2.688
G1 X0.9024 Y2.6986
G1 X0.9059 Y2.7099
G1 X0.9075 Y2.7216
G1 X0.9076 Y2.725
G1 Y2.775
G1 X0.9086 Y2.7911
G1 X0.9115 Y2.8069
G1 X0.9165 Y2.8223
G1 X0.9232 Y2.8369
G1 X0.9318 Y2.8506
G1 X0.942 Y2.8631
G1 X0.9536 Y2.8742
G1 X0.9665 Y2.8839
G1 X0.9806 Y2.8918
G1 X0.9955 Y2.898
G1 X1.011 Y2.9022
G1 X1.027 Y2.9045
G1 X1.0375 Y2.905
G1 X1.3375
G1 X1.3536 Y2.904
G1 X1.3694 Y2.901
G1 X1.3848 Y2.896
G1 X1.3994 Y2.8893
G1 X1.4131 Y2.8807
G1 X1.4256 Y2.8705
G1 X1.4367 Y2.8589
G1 X1.4464 Y2.846
G1 X1.4543 Y2.8319
G1 X1.4605 Y2.817
G1 X1.4647 Y2.8015
G1 X1.467 Y2.7855
G1 X1.4675 Y2.775
G1 Y2.725
G1 X1.4685 Y2.7132
G1 X1.4714 Y2.7017
G1 X1.4763 Y2.691
G1 X1.4829 Y2.6811
G1 X1.4911 Y2.6726
G1 X1.5005 Y2.6655
G1 X1.5111 Y2.6601
G1 X1.5224 Y2.6566
G1 X1.5341 Y2.655
G1 X1.5375
G1 X1.9179
G1 Y2.6875
G1 X1.9189 Y2.6952
G1 X1.9218 Y2.7023
G1 X1.9265 Y2.7085
G1 X1.9325 Y2.7133
G1 X1.9397 Y2.7163
G1 X1.9473 Y2.7174
G1 X1.9478 Y2.7175
G1 X2.0478
G1 X2.0555 Y2.7165
G1 X2.0626 Y2.7135
G1 X2.0688 Y2.7088
G1 X2.0736 Y2.7028
G1 X2.0766 Y2.6956
G1 X2.0777 Y2.688
G1 X2.0778 Y2.6875
G1 Y2.655
G1 X2.325
G1 X2.3376 Y2.654
G1 X2.3499 Y2.651
G1 X2.3616 Y2.6461
G1 X2.3723 Y2.6394
G1 X2.3819 Y2.6312
G1 X2.39 Y2.6215
G1 X2.3966 Y2.6107
G1 X2.4013 Y2.5989
G1 X2.4029 Y2.593
G1 X2.4037 Y2.5853
G1 X2.4029 Y2.5795
G1 X2.3991 Y2.5675
G1 X2.3934 Y2.5561
G1 X2.386 Y2.5459
G1 X2.3771 Y2.5369
G1 X2.3669 Y2.5294
G1 X2.3557 Y2.5237
G1 X2.3437 Y2.5198
G1 X2.3312 Y2.5178
G1 X2.325 Y2.5176
G1 X2.2225
G1 X2.2042 Y2.5166
G1 X2.1862 Y2.5136
G1 X2.1685 Y2.5086
G1 X2.1516 Y2.5018
G1 X2.1354 Y2.4931
G1 X2.1203 Y2.4828
G1 X2.1064 Y2.4708
G1 X2.094 Y2.4575
G1 X2.083 Y2.4428
G1 X2.0737 Y2.427
G1 X2.0662 Y2.4103
G1 X2.0605 Y2.3929
G1 X2.0568 Y2.375
G1 X2.0551 Y2.3568
G1 X2.055 Y2.35
G1 Y1.75
G1 X2.056 Y1.7437
G1 X2.0589 Y1.7381
G1 X2.0634 Y1.7337
G1 X2.069 Y1.7309
G1 X2.075 Y1.73
G1 X2.125
G1 X2.1313 Y1.731
G1 X2.1369 Y1.7339
G1 X2.1413 Y1.7384
G1 X2.1441 Y1.744
G1 X2.1451 Y1.75
G1 Y2.1898
G1 X2.1441 Y2.1961
G1 X2.1411 Y2.2017
G1 X2.1366 Y2.2062
G1 X2.1354 Y2.207
G1 X2.1203 Y2.2173
G1 X2.1065 Y2.2293
G1 X2.094 Y2.2426
G1 X2.083 Y2.2573
G1 X2.0738 Y2.2731
G1 X2.0663 Y2.2898
G1 X2.0606 Y2.3072
G1 X2.0569 Y2.3251
G1 X2.0552 Y2.3433
G1 X2.0555 Y2.3616
G1 X2.0577 Y2.3798
G1 X2.062 Y2.3976
G1 X2.0681 Y2.4148
G1 X2.0761 Y2.4313
G1 X2.0858 Y2.4468
G1 X2.0972 Y2.4611
G1 X2.1101 Y2.4741
G1 X2.1243 Y2.4856
G1 X2.1397 Y2.4955
G1 X2.1561 Y2.5037
G1 X2.1732 Y2.51
G1 X2.191 Y2.5145
G1 X2.2091 Y2.5169
G1 X2.2225 Y2.5175
G1 X2.325
G1 X2.3376 Y2.5165
G1 X2.3499 Y2.5135
G1 X2.3616 Y2.5086
G1 X2.3723 Y2.5019
G1 X2.3819 Y2.4937
G1 X2.39 Y2.484
G1 X2.3966 Y2.4732
G1 X2.4013 Y2.4614
G1 X2.4041 Y2.4491
G1 X2.405 Y2.4375
G1 Y0.4375
G1 X2.404 Y0.4249
G1 X2.401 Y0.4126
G1 X2.3961 Y0.4009
G1 X2.3894 Y0.3902
G1 X2.3812 Y0.3806
G1 X2.3715 Y0.3725
G1 X2.3607 Y0.3659
G1 X2.3489 Y0.3612
G1 X2.3366 Y0.3584
G1 X2.325 Y0.3576
G1 X2.2225
G1 X2.2042 Y0.3586
G1 X2.1862 Y0.3615
G1 X2.1686 Y0.3665
G1 X2.1516 Y0.3733
G1 X2.1354 Y0.382
G1 X2.1204 Y0.3923
G1 X2.1065 Y0.4043
G1 X2.094 Y0.4176
G1 X2.0831 Y0.4323
G1 X2.0738 Y0.4481
G1 X2.0663 Y0.4648
G1 X2.0606 Y0.4822
G1 X2.0569 Y0.5001
G1 X2.0552 Y0.5183
G1 X2.0555 Y0.5366
G1 X2.0577 Y0.5548
G1 X2.0619 Y0.5726
G1 X2.0681 Y0.5898
G1 X2.0761 Y0.6063
G1 X2.0858 Y0.6218
G1 X2.0972 Y0.6361
G1 X2.1101 Y0.6491
G1 X2.1243 Y0.6606
G1 X2.1354 Y0.668
G1 X2.1402 Y0.6721
G1 X2.1435 Y0.6775
G1 X2.145 Y0.6837
G1 X2.1451 Y0.6852
G1 Y1.125
G1 X2.1441 Y1.1313
G1 X2.1411 Y1.1369
G1 X2.1366 Y1.1413
G1 X2.131 Y1.1441
G1 X2.125 Y1.1451
G1 X2.075
G1 X2.0687 Y1.1441
G1 X2.0631 Y1.1411
G1 X2.0587 Y1.1366
G1 X2.0559 Y1.131
G1 X2.055 Y1.125
G1 Y0.525
G1 X2.056 Y0.5067
G1 X2.0589 Y0.4887
G1 X2.0639 Y0.471
G1 X2.0707 Y0.4541
G1 X2.0794 Y0.4379
G1 X2.0897 Y0.4228
G1 X2.1017 Y0.4089
G1 X2.115 Y0.3965
G1 X2.1297 Y0.3855
G1 X2.1455 Y0.3762
G1 X2.1622 Y0.3687
G1 X2.1796 Y0.363
G1 X2.1975 Y0.3593
G1 X2.2157 Y0.3576
G1 X2.2225 Y0.3575
G1 X2.325
G1 X2.3376 Y0.3565
G1 X2.3499 Y0.3535
G1 X2.3616 Y0.3486
G1 X2.3723 Y0.3419
G1 X2.3819 Y0.3337
G1 X2.39 Y0.324
G1 X2.3966 Y0.3132
G1 X2.4013 Y0.3014
G1 X2.4029 Y0.2955
G1 X2.4037 Y0.2878
G1 X2.4029 Y0.282
G1 X2.3991 Y0.27
G1 X2.3934 Y0.2586
G1 X2.386 Y0.2484
G1 X2.3771 Y0.2394
G1 X2.3669 Y0.2319
G1 X2.3557 Y0.2262
G1 X2.3437 Y0.2223
G1 X2.3312 Y0.2203
G1 X2.325 Y0.22
G1 X2.0778 Y0.2201
G1 Y0.1875
G1 X2.0768 Y0.1798
G1 X2.0738 Y0.1727
G1 X2.0691 Y0.1665
G1 X2.0631 Y0.1617
G1 X2.0559 Y0.1587
G1 X2.0483 Y0.1576
G1 X2.0478
G1 X1.9478
G1 X1.9401 Y0.1586
G1 X1.933 Y0.1615
G1 X1.9268 Y0.1662
G1 X1.922 Y0.1722
G1 X1.919 Y0.1794
G1 X1.9179 Y0.187
G1 Y0.1875
G1 Y0.2201
G1 X1.5375
G1 X1.5257 Y0.2191
G1 X1.5142 Y0.2161
G1 X1.5035 Y0.2112
G1 X1.4936 Y0.2046
G1 X1.4851 Y0.1964
G1 X1.478 Y0.187
G1 X1.4726 Y0.1764
G1 X1.4691 Y0.1651
G1 X1.4675 Y0.1534
G1 Y0.15
G1 Y0.1
G1 X1.4665 Y0.0839
G1 X1.4635 Y0.0681
G1 X1.4585 Y0.0527
G1 X1.4518 Y0.0381
G1 X1.4432 Y0.0244
G1 X1.433 Y0.0119
G1 X1.4214 Y0.0008
G1 X1.4085 Y-0.0089
G1 X1.3944 Y-0.0168
G1 X1.3795 Y-0.023
G1 X1.364 Y-0.0272
G1 X1.348 Y-0.0295
G1 X1.3375 Y-0.0299
G1 X1.0375 Y-0.03
G1 X1.0214 Y-0.029
G1 X1.0056 Y-0.026
G1 X0.9902 Y-0.021
G1 X0.9756 Y-0.0143
G1 X0.9619 Y-0.0057
G1 X0.9494 Y0.0045
G1 X0.9383 Y0.0161
G1 X0.9286 Y0.029
G1 X0.9207 Y0.0431
G1 X0.9145 Y0.058
G1 X0.9103 Y0.0735
G1 X0.908 Y0.0895
G1 X0.9076 Y0.1
G1 Y0.15
G1 X0.9066 Y0.1618
G1 X0.9036 Y0.1733
G1 X0.8987 Y0.184
G1 X0.8921 Y0.1939
G1 X0.8839 Y0.2024
G1 X0.8745 Y0.2095
G1 X0.8639 Y0.2149
G1 X0.8526 Y0.2184
G1 X0.8409 Y0.22
G1 X0.8375 Y0.2201
G1 X0.4572
G1 Y0.1875
G1 X0.4562 Y0.1798
G1 X0.4532 Y0.1727
G1 X0.4485 Y0.1665
G1 X0.4425 Y0.1617
G1 X0.4353 Y0.1587
G1 X0.4277 Y0.1576
G1 X0.4272
G1 X0.3272
G1 X0.3195 Y0.1586
G1 X0.3124 Y0.1615
G1 X0.3062 Y0.1662
G1 X0.3014 Y0.1722
G1 X0.2984 Y0.1794
G1 X0.2973 Y0.187
G1 Y0.1875
G1 Y0.2201
G1 X0.1
G1 X0.0839 Y0.2211
G1 X0.0681 Y0.224
G1 X0.0527 Y0.229
G1 X0.0381 Y0.2357
G1 X0.0244 Y0.2443
G1 X0.0119 Y0.2545
G1 X0.0008 Y0.2661
G1 X-0.0089 Y0.279
G1 X-0.0168 Y0.2931
G1 X-0.023 Y0.308
G1 X-0.0272 Y0.3235
G1 X-0.0295 Y0.3395
G1 X-0.0299 Y0.35
G1 Y2.525
G1 X-0.0289 Y2.5411
G1 X-0.026 Y2.5569
G1 X-0.021 Y2.5723
G1 X-0.0143 Y2.5869
G1 X-0.0057 Y2.6006
G1 X0.0045 Y2.6131
G1 X0.0161 Y2.6242
G1 X0.029 Y2.6339
G1 X0.0431 Y2.6418
G1 X0.058 Y2.648
G1 X0.0735 Y2.6522
G1 X0.0895 Y2.6545
G1 X0.1 Y2.655
G1 X0.2275
G1 F5.0 Z-0.1
G1 F10.0 X0.2973
G1 Y2.6875
G1 X0.2983 Y2.6952
G1 X0.3012 Y2.7023
G1 X0.3059 Y2.7085
G1 X0.3119 Y2.7133
G1 X0.3191 Y2.7163
G1 X0.3267 Y2.7174
G1 X0.3272 Y2.7175
G1 X0.4272
G1 X0.4349 Y2.7165
G1 X0.442 Y2.7135
G1 X0.4482 Y2.7088
G1 X0.453 Y2.7028
G1 X0.456 Y2.6956
G1 X0.4571 Y2.688
G1 X0.4572 Y2.6875
G1 Y2.655
G1 X0.8375
G1 X0.8493 Y2.656
G1 X0.8608 Y2.6589
G1 X0.8715 Y2.6638
G1 X0.8814 Y2.6704
G1 X0.8899 Y2.6786
G1 X0.897 Y2.688
G1 X0.9024 Y2.6986
G1 X0.9059 Y2.7099
G1 X0.9075 Y2.7216
G1 X0.9076 Y2.725
G1 Y2.775
G1 X0.9086 Y2.7911
G1 X0.9115 Y2.8069
G1 X0.9165 Y2.8223
G1 X0.9232 Y2.8369
G1 X0.9318 Y2.8506
G1 X0.942 Y2.8631
G1 X0.9536 Y2.8742
G1 X0.9665 Y2.8839
G1 X0.9806 Y2.8918
G1 X0.9955 Y2.898
G1 X1.011 Y2.9022
G1 X1.027 Y2.9045
G1 X1.0375 Y2.905
G1 X1.3375
G1 X1.3536 Y2.904
G1 X1.3694 Y2.901
G1 X1.3848 Y2.896
G1 X1.3994 Y2.8893
G1 X1.4131 Y2.8807
G1 X1.4256 Y2.8705
G1 X1.4367 Y2.8589
G1 X1.4464 Y2.846
G1 X1.4543 Y2.8319
G1 X1.4605 Y2.817
G1 X1.4647 Y2.8015
G1 X1.467 Y2.7855
G1 X1.4675 Y2.775
G1 Y2.725
G1 X1.4685 Y2.7132
G1 X1.4714 Y2.7017
G1 X1.4763 Y2.691
G1 X1.4829 Y2.6811
G1 X1.4911 Y2.6726
G1 X1.5005 Y2.6655
G1 X1.5111 Y2.6601
G1 X1.5224 Y2.6566
G1 X1.5341 Y2.655
G1 X1.5375
G1 X1.9179
G1 Y2.6875
G1 X1.9189 Y2.6952
G1 X1.9218 Y2.7023
G1 X1.9265 Y2.7085
G1 X1.9325 Y2.7133
G1 X1.9397 Y2.7163
G1 X1.9473 Y2.7174
G1 X1.9478 Y2.7175
G1 X2.0478
G1 X2.0555 Y2.7165
G1 X2.0626 Y2.7135
G1 X2.0688 Y2.7088
G1 X2.0736 Y2.7028
G1 X2.0766 Y2.6956
G1 X2.0777 Y2.688
G1 X2.0778 Y2.6875
G1 Y2.655
G1 X2.325
G1 X2.3376 Y2.654
G1 X2.3499 Y2.651
G1 X2.3616 Y2.6461
G1 X2.3723 Y2.6394
G1 X2.3819 Y2.6312
G1 X2.39 Y2.6215
G1 X2.3966 Y2.6107
G1 X2.4013 Y2.5989
G1 X2.4029 Y2.593
G1 X2.4037 Y2.5853
G1 X2.4029 Y2.5795
G1 X2.3991 Y2.5675
G1 X2.3934 Y2.5561
G1 X2.386 Y2.5459
G1 X2.3771 Y2.5369
G1 X2.3669 Y2.5294
G1 X2.3557 Y2.5237
G1 X2.3437 Y2.5198
G1 X2.3312 Y2.5178
G1 X2.325 Y2.5176
G1 X2.2225
G1 X2.2042 Y2.5166
G1 X2.1862 Y2.5136
G1 X2.1685 Y2.5086
G1 X2.1516 Y2.5018
G1 X2.1354 Y2.4931
G1 X2.1203 Y2.4828
G1 X2.1064 Y2.4708
G1 X2.094 Y2.4575
G1 X2.083 Y2.4428
G1 X2.0737 Y2.427
G1 X2.0662 Y2.4103
G1 X2.0605 Y2.3929
G1 X2.0568 Y2.375
G1 X2.0551 Y2.3568
G1 X2.055 Y2.35
G1 Y1.75
G1 X2.056 Y1.7437
G1 X2.0589 Y1.7381
G1 X2.0634 Y1.7337
G1 X2.069 Y1.7309
G1 X2.075 Y1.73
G1 X2.125
G1 X2.1313 Y1.731
G1 X2.1369 Y1.7339
G1 X2.1413 Y1.7384
G1 X2.1441 Y1.744
G1 X2.1451 Y1.75
G1 Y2.1898
G1 X2.1441 Y2.1961
G1 X2.1411 Y2.2017
G1 X2.1366 Y2.2062
G1 X2.1354 Y2.207
G1 X2.1203 Y2.2173
G1 X2.1065 Y2.2293
G1 X2.094 Y2.2426
G1 X2.083 Y2.2573
G1 X2.0738 Y2.2731
G1 X2.0663 Y2.2898
G1 X2.0606 Y2.3072
G1 X2.0569 Y2.3251
G1 X2.0552 Y2.3433
G1 X2.0555 Y2.3616
G1 X2.0577 Y2.3798
G1 X2.062 Y2.3976
G1 X2.0681 Y2.4148
G1 X2.0761 Y2.4313
G1 X2.0858 Y2.4468
G1 X2.0972 Y2.4611
G1 X2.1101 Y2.4741
G1 X2.1243 Y2.4856
G1 X2.1397 Y2.4955
G1 X2.1561 Y2.5037
G1 X2.1732 Y2.51
G1 X2.191 Y2.5145
G1 X2.2091 Y2.5169
G1 X2.2225 Y2.5175
G1 X2.325
G1 X2.3376 Y2.5165
G1 X2.3499 Y2.5135
G1 X2.3616 Y2.5086
G1 X2.3723 Y2.5019
G1 X2.3819 Y2.4937
G1 X2.39 Y2.484
G1 X2.3966 Y2.4732
G1 X2.4013 Y2.4614
G1 X2.4041 Y2.4491
G1 X2.405 Y2.4375
G1 Y0.4375
G1 X2.404 Y0.4249
G1 X2.401 Y0.4126
G1 X2.3961 Y0.4009
G1 X2.3894 Y0.3902
G1 X2.3812 Y0.3806
G1 X2.3715 Y0.3725
G1 X2.3607 Y0.3659
G1 X2.3489 Y0.3612
G1 X2.3366 Y0.3584
G1 X2.325 Y0.3576
G1 X2.2225
G1 X2.2042 Y0.3586
G1 X2.1862 Y0.3615
G1 X2.1686 Y0.3665
G1 X2.1516 Y0.3733
G1 X2.1354 Y0.382
G1 X2.1204 Y0.3923
G1 X2.1065 Y0.4043
G1 X2.094 Y0.4176
G1 X2.0831 Y0.4323
G1 X2.0738 Y0.4481
G1 X2.0663 Y0.4648
G1 X2.0606 Y0.4822
G1 X2.0569 Y0.5001
G1 X2.0552 Y0.5183
G1 X2.0555 Y0.5366
G1 X2.0577 Y0.5548
G1 X2.0619 Y0.5726
G1 X2.0681 Y0.5898
G1 X2.0761 Y0.6063
G1 X2.0858 Y0.6218
G1 X2.0972 Y0.6361
G1 X2.1101 Y0.6491
G1 X2.1243 Y0.6606
G1 X2.1354 Y0.668
G1 X2.1402 Y0.6721
G1 X2.1435 Y0.6775
G1 X2.145 Y0.6837
G1 X2.1451 Y0.6852
G1 Y1.125
G1 X2.1441 Y1.1313
G1 X2.1411 Y1.1369
G1 X2.1366 Y1.1413
G1 X2.131 Y1.1441
G1 X2.125 Y1.1451
G1 X2.075
G1 X2.0687 Y1.1441
G1 X2.0631 Y1.1411
G1 X2.0587 Y1.1366
G1 X2.0559 Y1.131
G1 X2.055 Y1.125
G1 Y0.525
G1 X2.056 Y0.5067
G1 X2.0589 Y0.4887
G1 X2.0639 Y0.471
G1 X2.0707 Y0.4541
G1 X2.0794 Y0.4379
G1 X2.0897 Y0.4228
G1 X2.1017 Y0.4089
G1 X2.115 Y0.3965
G1 X2.1297 Y0.3855
G1 X2.1455 Y0.3762
G1 X2.1622 Y0.3687
G1 X2.1796 Y0.363
G1 X2.1975 Y0.3593
G1 X2.2157 Y0.3576
G1 X2.2225 Y0.3575
G1 X2.325
G1 X2.3376 Y0.3565
G1 X2.3499 Y0.3535
G1 X2.3616 Y0.3486
G1 X2.3723 Y0.3419
G1 X2.3819 Y0.3337
G1 X2.39 Y0.324
G1 X2.3966 Y0.3132
G1 X2.4013 Y0.3014
G1 X2.4029 Y0.2955
G1 X2.4037 Y0.2878
G1 X2.4029 Y0.282
G1 X2.3991 Y0.27
G1 X2.3934 Y0.2586
G1 X2.386 Y0.2484
G1 X2.3771 Y0.2394
G1 X2.3669 Y0.2319
G1 X2.3557 Y0.2262
G1 X2.3437 Y0.2223
G1 X2.3312 Y0.2203
G1 X2.325 Y0.22
G1 X2.0778 Y0.2201
G1 Y0.1875
G1 X2.0768 Y0.1798
G1 X2.0738 Y0.1727
G1 X2.0691 Y0.1665
G1 X2.0631 Y0.1617
G1 X2.0559 Y0.1587
G1 X2.0483 Y0.1576
G1 X2.0478
G1 X1.9478
G1 X1.9401 Y0.1586
G1 X1.933 Y0.1615
G1 X1.9268 Y0.1662
G1 X1.922 Y0.1722
G1 X1.919 Y0.1794
G1 X1.9179 Y0.187
G1 Y0.1875
G1 Y0.2201
G1 X1.5375
G1 X1.5257 Y0.2191
G1 X1.5142 Y0.2161
G1 X1.5035 Y0.2112
G1 X1.4936 Y0.2046
G1 X1.4851 Y0.1964
G1 X1.478 Y0.187
G1 X1.4726 Y0.1764
G1 X1.4691 Y0.1651
G1 X1.4675 Y0.1534
G1 Y0.15
G1 Y0.1
G1 X1.4665 Y0.0839
G1 X1.4635 Y0.0681
G1 X1.4585 Y0.0527
G1 X1.4518 Y0.0381
G1 X1.4432 Y0.0244
G1 X1.433 Y0.0119
G1 X1.4214 Y0.0008
G1 X1.4085 Y-0.0089
G1 X1.3944 Y-0.0168
G1 X1.3795 Y-0.023
G1 X1.364 Y-0.0272
G1 X1.348 Y-0.0295
G1 X1.3375 Y-0.0299
G1 X1.0375 Y-0.03
G1 X1.0214 Y-0.029
G1 X1.0056 Y-0.026
G1 X0.9902 Y-0.021
G1 X0.9756 Y-0.0143
G1 X0.9619 Y-0.0057
G1 X0.9494 Y0.0045
G1 X0.9383 Y0.0161
G1 X0.9286 Y0.029
G1 X0.9207 Y0.0431
G1 X0.9145 Y0.058
G1 X0.9103 Y0.0735
G1 X0.908 Y0.0895
G1 X0.9076 Y0.1
G1 Y0.15
G1 X0.9066 Y0.1618
G1 X0.9036 Y0.1733
G1 X0.8987 Y0.184
G1 X0.8921 Y0.1939
G1 X0.8839 Y0.2024
G1 X0.8745 Y0.2095
G1 X0.8639 Y0.2149
G1 X0.8526 Y0.2184
G1 X0.8409 Y0.22
G1 X0.8375 Y0.2201
G1 X0.4572
G1 Y0.1875
G1 X0.4562 Y0.1798
G1 X0.4532 Y0.1727
G1 X0.4485 Y0.1665
G1 X0.4425 Y0.1617
G1 X0.4353 Y0.1587
G1 X0.4277 Y0.1576
G1 X0.4272
G1 X0.3272
G1 X0.3195 Y0.1586
G1 X0.3124 Y0.1615
G1 X0.3062 Y0.1662
G1 X0.3014 Y0.1722
G1 X0.2984 Y0.1794
G1 X0.2973 Y0.187
G1 Y0.1875
G1 Y0.2201
G1 X0.1
G1 X0.0839 Y0.2211
G1 X0.0681 Y0.224
G1 X0.0527 Y0.229
G1 X0.0381 Y0.2357
G1 X0.0244 Y0.2443
G1 X0.0119 Y0.2545
G1 X0.0008 Y0.2661
G1 X-0.0089 Y0.279
G1 X-0.0168 Y0.2931
G1 X-0.023 Y0.308
G1 X-0.0272 Y0.3235
G1 X-0.0295 Y0.3395
G1 X-0.0299 Y0.35
G1 Y2.525
G1 X-0.0289 Y2.5411
G1 X-0.026 Y2.5569
G1 X-0.021 Y2.5723
G1 X-0.0143 Y2.5869
G1 X-0.0057 Y2.6006
G1 X0.0045 Y2.6131
G1 X0.0161 Y2.6242
G1 X0.029 Y2.6339
G1 X0.0431 Y2.6418
G1 X0.058 Y2.648
G1 X0.0735 Y2.6522
G1 X0.0895 Y2.6545
G1 X0.1 Y2.655
G1 X0.2275
G1 F5.0 Z-0.15
G1 F10.0 X0.2973
G1 Y2.6875
G1 X0.2983 Y2.6952
G1 X0.3012 Y2.7023
G1 X0.3059 Y2.7085
G1 X0.3119 Y2.7133
G1 X0.3191 Y2.7163
G1 X0.3267 Y2.7174
G1 X0.3272 Y2.7175
G1 X0.4272
G1 X0.4349 Y2.7165
G1 X0.442 Y2.7135
G1 X0.4482 Y2.7088
G1 X0.453 Y2.7028
G1 X0.456 Y2.6956
G1 X0.4571 Y2.688
G1 X0.4572 Y2.6875
G1 Y2.655
G1 X0.8375
G1 X0.8493 Y2.656
G1 X0.8608 Y2.6589
G1 X0.8715 Y2.6638
G1 X0.8814 Y2.6704
G1 X0.8899 Y2.6786
G1 X0.897 Y2.688
G1 X0.9024 Y2.6986
G1 X0.9059 Y2.7099
G1 X0.9075 Y2.7216
G1 X0.9076 Y2.725
G1 Y2.775
G1 X0.9086 Y2.7911
G1 X0.9115 Y2.8069
G1 X0.9165 Y2.8223
G1 X0.9232 Y2.8369
G1 X0.9318 Y2.8506
G1 X0.942 Y2.8631
G1 X0.9536 Y2.8742
G1 X0.9665 Y2.8839
G1 X0.9806 Y2.8918
G1 X0.9955 Y2.898
G1 X1.011 Y2.9022
G1 X1.027 Y2.9045
G1 X1.0375 Y2.905
G1 X1.3375
G1 X1.3536 Y2.904
G1 X1.3694 Y2.901
G1 X1.3848 Y2.896
G1 X1.3994 Y2.8893
G1 X1.4131 Y2.8807
G1 X1.4256 Y2.8705
G1 X1.4367 Y2.8589
G1 X1.4464 Y2.846
G1 X1.4543 Y2.8319
G1 X1.4605 Y2.817
G1 X1.4647 Y2.8015
G1 X1.467 Y2.7855
G1 X1.4675 Y2.775
G1 Y2.725
G1 X1.4685 Y2.7132
G1 X1.4714 Y2.7017
G1 X1.4763 Y2.691
G1 X1.4829 Y2.6811
G1 X1.4911 Y2.6726
G1 X1.5005 Y2.6655
G1 X1.5111 Y2.6601
G1 X1.5224 Y2.6566
G1 X1.5341 Y2.655
G1 X1.5375
G1 X1.9179
G1 Y2.6875
G1 X1.9189 Y2.6952
G1 X1.9218 Y2.7023
G1 X1.9265 Y2.7085
G1 X1.9325 Y2.7133
G1 X1.9397 Y2.7163
G1 X1.9473 Y2.7174
G1 X1.9478 Y2.7175
G1 X2.0478
G1 X2.0555 Y2.7165
G1 X2.0626 Y2.7135
G1 X2.0688 Y2.7088
G1 X2.0736 Y2.7028
G1 X2.0766 Y2.6956
G1 X2.0777 Y2.688
G1 X2.0778 Y2.6875
G1 Y2.655
G1 X2.325
G1 X2.3376 Y2.654
G1 X2.3499 Y2.651
G1 X2.3616 Y2.6461
G1 X2.3723 Y2.6394
G1 X2.3819 Y2.6312
G1 X2.39 Y2.6215
G1 X2.3966 Y2.6107
G1 X2.4013 Y2.5989
G1 X2.4029 Y2.593
G1 X2.4037 Y2.5853
G1 X2.4029 Y2.5795
G1 X2.3991 Y2.5675
G1 X2.3934 Y2.5561
G1 X2.386 Y2.5459
G1 X2.3771 Y2.5369
G1 X2.3669 Y2.5294
G1 X2.3557 Y2.5237
G1 X2.3437 Y2.5198
G1 X2.3312 Y2.5178
G1 X2.325 Y2.5176
G1 X2.2225
G1 X2.2042 Y2.5166
G1 X2.1862 Y2.5136
G1 X2.1685 Y2.5086
G1 X2.1516 Y2.5018
G1 X2.1354 Y2.4931
G1 X2.1203 Y2.4828
G1 X2.1064 Y2.4708
G1 X2.094 Y2.4575
G1 X2.083 Y2.4428
G1 X2.0737 Y2.427
G1 X2.0662 Y2.4103
G1 X2.0605 Y2.3929
G1 X2.0568 Y2.375
G1 X2.0551 Y2.3568
G1 X2.055 Y2.35
G1 Y1.75
G1 X2.056 Y1.7437
G1 X2.0589 Y1.7381
G1 X2.0634 Y1.7337
G1 X2.069 Y1.7309
G1 X2.075 Y1.73
G1 X2.125
G1 X2.1313 Y1.731
G1 X2.1369 Y1.7339
G1 X2.1413 Y1.7384
G1 X2.1441 Y1.744
G1 X2.1451 Y1.75
G1 Y2.1898
G1 X2.1441 Y2.1961
G1 X2.1411 Y2.2017
G1 X2.1366 Y2.2062
G1 X2.1354 Y2.207
G1 X2.1203 Y2.2173
G1 X2.1065 Y2.2293
G1 X2.094 Y2.2426
G1 X2.083 Y2.2573
G1 X2.0738 Y2.2731
G1 X2.0663 Y2.2898
G1 X2.0606 Y2.3072
G1 X2.0569 Y2.3251
G1 X2.0552 Y2.3433
G1 X2.0555 Y2.3616
G1 X2.0577 Y2.3798
G1 X2.062 Y2.3976
G1 X2.0681 Y2.4148
G1 X2.0761 Y2.4313
G1 X2.0858 Y2.4468
G1 X2.0972 Y2.4611
G1 X2.1101 Y2.4741
G1 X2.1243 Y2.4856
G1 X2.1397 Y2.4955
G1 X2.1561 Y2.5037
G1 X2.1732 Y2.51
G1 X2.191 Y2.5145
G1 X2.2091 Y2.5169
G1 X2.2225 Y2.5175
G1 X2.325
G1 X2.3376 Y2.5165
G1 X2.3499 Y2.5135
G1 X2.3616 Y2.5086
G1 X2.3723 Y2.5019
G1 X2.3819 Y2.4937
G1 X2.39 Y2.484
G1 X2.3966 Y2.4732
G1 X2.4013 Y2.4614
G1 X2.4041 Y2.4491
G1 X2.405 Y2.4375
G1 Y0.4375
G1 X2.404 Y0.4249
G1 X2.401 Y0.4126
G1 X2.3961 Y0.4009
G1 X2.3894 Y0.3902
G1 X2.3812 Y0.3806
G1 X2.3715 Y0.3725
G1 X2.3607 Y0.3659
G1 X2.3489 Y0.3612
G1 X2.3366 Y0.3584
G1 X2.325 Y0.3576
G1 X2.2225
G1 X2.2042 Y0.3586
G1 X2.1862 Y0.3615
G1 X2.1686 Y0.3665
G1 X2.1516 Y0.3733
G1 X2.1354 Y0.382
G1 X2.1204 Y0.3923
G1 X2.1065 Y0.4043
G1 X2.094 Y0.4176
G1 X2.0831 Y0.4323
G1 X2.0738 Y0.4481
G1 X2.0663 Y0.4648
G1 X2.0606 Y0.4822
G1 X2.0569 Y0.5001
G1 X2.0552 Y0.5183
G1 X2.0555 Y0.5366
G1 X2.0577 Y0.5548
G1 X2.0619 Y0.5726
G1 X2.0681 Y0.5898
G1 X2.0761 Y0.6063
G1 X2.0858 Y0.6218
G1 X2.0972 Y0.6361
G1 X2.1101 Y0.6491
G1 X2.1243 Y0.6606
G1 X2.1354 Y0.668
G1 X2.1402 Y0.6721
G1 X2.1435 Y0.6775
G1 X2.145 Y0.6837
G1 X2.1451 Y0.6852
G1 Y1.125
G1 X2.1441 Y1.1313
G1 X2.1411 Y1.1369
G1 X2.1366 Y1.1413
G1 X2.131 Y1.1441
G1 X2.125 Y1.1451
G1 X2.075
G1 X2.0687 Y1.1441
G1 X2.0631 Y1.1411
G1 X2.0587 Y1.1366
G1 X2.0559 Y1.131
G1 X2.055 Y1.125
G1 Y0.525
G1 X2.056 Y0.5067
G1 X2.0589 Y0.4887
G1 X2.0639 Y0.471
G1 X2.0707 Y0.4541
G1 X2.0794 Y0.4379
G1 X2.0897 Y0.4228
G1 X2.1017 Y0.4089
G1 X2.115 Y0.3965
G1 X2.1297 Y0.3855
G1 X2.1455 Y0.3762
G1 X2.1622 Y0.3687
G1 X2.1796 Y0.363
G1 X2.1975 Y0.3593
G1 X2.2157 Y0.3576
G1 X2.2225 Y0.3575
G1 X2.325
G1 X2.3376 Y0.3565
G1 X2.3499 Y0.3535
G1 X2.3616 Y0.3486
G1 X2.3723 Y0.3419
G1 X2.3819 Y0.3337
G1 X2.39 Y0.324
G1 X2.3966 Y0.3132
G1 X2.4013 Y0.3014
G1 X2.4029 Y0.2955
G1 X2.4037 Y0.2878
G1 X2.4029 Y0.282
G1 X2.3991 Y0.27
G1 X2.3934 Y0.2586
G1 X2.386 Y0.2484
G1 X2.3771 Y0.2394
G1 X2.3669 Y0.2319
G1 X2.3557 Y0.2262
G1 X2.3437 Y0.2223
G1 X2.3312 Y0.2203
G1 X2.325 Y0.22
G1 X2.0778 Y0.2201
G1 Y0.1875
G1 X2.0768 Y0.1798
G1 X2.0738 Y0.1727
G1 X2.0691 Y0.1665
G1 X2.0631 Y0.1617
G1 X2.0559 Y0.1587
G1 X2.0483 Y0.1576
G1 X2.0478
G1 X1.9478
G1 X1.9401 Y0.1586
G1 X1.933 Y0.1615
G1 X1.9268 Y0.1662
G1 X1.922 Y0.1722
G1 X1.919 Y0.1794
G1 X1.9179 Y0.187
G1 Y0.1875
G1 Y0.2201
G1 X1.5375
G1 X1.5257 Y0.2191
G1 X1.5142 Y0.2161
G1 X1.5035 Y0.2112
G1 X1.4936 Y0.2046
G1 X1.4851 Y0.1964
G1 X1.478 Y0.187
G1 X1.4726 Y0.1764
G1 X1.4691 Y0.1651
G1 X1.4675 Y0.1534
G1 Y0.15
G1 Y0.1
G1 X1.4665 Y0.0839
G1 X1.4635 Y0.0681
G1 X1.4585 Y0.0527
G1 X1.4518 Y0.0381
G1 X1.4432 Y0.0244
G1 X1.433 Y0.0119
G1 X1.4214 Y0.0008
G1 X1.4085 Y-0.0089
G1 X1.3944 Y-0.0168
G1 X1.3795 Y-0.023
G1 X1.364 Y-0.0272
G1 X1.348 Y-0.0295
G1 X1.3375 Y-0.0299
G1 X1.0375 Y-0.03
G1 X1.0214 Y-0.029
G1 X1.0056 Y-0.026
G1 X0.9902 Y-0.021
G1 X0.9756 Y-0.0143
G1 X0.9619 Y-0.0057
G1 X0.9494 Y0.0045
G1 X0.9383 Y0.0161
G1 X0.9286 Y0.029
G1 X0.9207 Y0.0431
G1 X0.9145 Y0.058
G1 X0.9103 Y0.0735
G1 X0.908 Y0.0895
G1 X0.9076 Y0.1
G1 Y0.15
G1 X0.9066 Y0.1618
G1 X0.9036 Y0.1733
G1 X0.8987 Y0.184
G1 X0.8921 Y0.1939
G1 X0.8839 Y0.2024
G1 X0.8745 Y0.2095
G1 X0.8639 Y0.2149
G1 X0.8526 Y0.2184
G1 X0.8409 Y0.22
G1 X0.8375 Y0.2201
G1 X0.4572
G1 Y0.1875
G1 X0.4562 Y0.1798
G1 X0.4532 Y0.1727
G1 X0.4485 Y0.1665
G1 X0.4425 Y0.1617
G1 X0.4353 Y0.1587
G1 X0.4277 Y0.1576
G1 X0.4272
G1 X0.3272
G1 X0.3195 Y0.1586
G1 X0.3124 Y0.1615
G1 X0.3062 Y0.1662
G1 X0.3014 Y0.1722
G1 X0.2984 Y0.1794
G1 X0.2973 Y0.187
G1 Y0.1875
G1 Y0.2201
G1 X0.1
G1 X0.0839 Y0.2211
G1 X0.0681 Y0.224
G1 X0.0527 Y0.229
G1 X0.0381 Y0.2357
G1 X0.0244 Y0.2443
G1 X0.0119 Y0.2545
G1 X0.0008 Y0.2661
G1 X-0.0089 Y0.279
G1 X-0.0168 Y0.2931
G1 X-0.023 Y0.308
G1 X-0.0272 Y0.3235
G1 X-0.0295 Y0.3395
G1 X-0.0299 Y0.35
G1 Y2.525
G1 X-0.0289 Y2.5411
G1 X-0.026 Y2.5569
G1 X-0.021 Y2.5723
G1 X-0.0143 Y2.5869
G1 X-0.0057 Y2.6006
G1 X0.0045 Y2.6131
G1 X0.0161 Y2.6242
G1 X0.029 Y2.6339
G1 X0.0431 Y2.6418
G1 X0.058 Y2.648
G1 X0.0735 Y2.6522
G1 X0.0895 Y2.6545
G1 X0.1 Y2.655
G1 X0.2275
G1 F5.0 Z-0.2
G1 F10.0 X0.2973
G1 Y2.6875
G1 X0.2983 Y2.6952
G1 X0.3012 Y2.7023
G1 X0.3059 Y2.7085
G1 X0.3119 Y2.7133
G1 X0.3191 Y2.7163
G1 X0.3267 Y2.7174
G1 X0.3272 Y2.7175
G1 X0.4272
G1 X0.4349 Y2.7165
G1 X0.442 Y2.7135
G1 X0.4482 Y2.7088
G1 X0.453 Y2.7028
G1 X0.456 Y2.6956
G1 X0.4571 Y2.688
G1 X0.4572 Y2.6875
G1 Y2.655
G1 X0.8375
G1 X0.8493 Y2.656
G1 X0.8608 Y2.6589
G1 X0.8715 Y2.6638
G1 X0.8814 Y2.6704
G1 X0.8899 Y2.6786
G1 X0.897 Y2.688
G1 X0.9024 Y2.6986
G1 X0.9059 Y2.7099
G1 X0.9075 Y2.7216
G1 X0.9076 Y2.725
G1 Y2.775
G1 X0.9086 Y2.7911
G1 X0.9115 Y2.8069
G1 X0.9165 Y2.8223
G1 X0.9232 Y2.8369
G1 X0.9318 Y2.8506
G1 X0.942 Y2.8631
G1 X0.9536 Y2.8742
G1 X0.9665 Y2.8839
G1 X0.9806 Y2.8918
G1 X0.9955 Y2.898
G1 X1.011 Y2.9022
G1 X1.027 Y2.9045
G1 X1.0375 Y2.905
G1 X1.3375
G1 X1.3536 Y2.904
G1 X1.3694 Y2.901
G1 X1.3848 Y2.896
G1 X1.3994 Y2.8893
G1 X1.4131 Y2.8807
G1 X1.4256 Y2.8705
G1 X1.4367 Y2.8589
G1 X1.4464 Y2.846
G1 X1.4543 Y2.8319
G1 X1.4605 Y2.817
G1 X1.4647 Y2.8015
G1 X1.467 Y2.7855
G1 X1.4675 Y2.775
G1 Y2.725
G1 X1.4685 Y2.7132
G1 X1.4714 Y2.7017
G1 X1.4763 Y2.691
G1 X1.4829 Y2.6811
G1 X1.4911 Y2.6726
G1 X1.5005 Y2.6655
G1 X1.5111 Y2.6601
G1 X1.5224 Y2.6566
G1 X1.5341 Y2.655
G1 X1.5375
G1 X1.9179
G1 Y2.6875
G1 X1.9189 Y2.6952
G1 X1.9218 Y2.7023
G1 X1.9265 Y2.7085
G1 X1.9325 Y2.7133
G1 X1.9397 Y2.7163
G1 X1.9473 Y2.7174
G1 X1.9478 Y2.7175
G1 X2.0478
G1 X2.0555 Y2.7165
G1 X2.0626 Y2.7135
G1 X2.0688 Y2.7088
G1 X2.0736 Y2.7028
G1 X2.0766 Y2.6956
G1 X2.0777 Y2.688
G1 X2.0778 Y2.6875
G1 Y2.655
G1 X2.325
G1 X2.3376 Y2.654
G1 X2.3499 Y2.651
G1 X2.3616 Y2.6461
G1 X2.3723 Y2.6394
G1 X2.3819 Y2.6312
G1 X2.39 Y2.6215
G1 X2.3966 Y2.6107
G1 X2.4013 Y2.5989
G1 X2.4029 Y2.593
G1 X2.4037 Y2.5853
G1 X2.4029 Y2.5795
G1 X2.3991 Y2.5675
G1 X2.3934 Y2.5561
G1 X2.386 Y2.5459
G1 X2.3771 Y2.5369
G1 X2.3669 Y2.5294
G1 X2.3557 Y2.5237
G1 X2.3437 Y2.5198
G1 X2.3312 Y2.5178
G1 X2.325 Y2.5176
G1 X2.2225
G1 X2.2042 Y2.5166
G1 X2.1862 Y2.5136
G1 X2.1685 Y2.5086
G1 X2.1516 Y2.5018
G1 X2.1354 Y2.4931
G1 X2.1203 Y2.4828
G1 X2.1064 Y2.4708
G1 X2.094 Y2.4575
G1 X2.083 Y2.4428
G1 X2.0737 Y2.427
G1 X2.0662 Y2.4103
G1 X2.0605 Y2.3929
G1 X2.0568 Y2.375
G1 X2.0551 Y2.3568
G1 X2.055 Y2.35
G1 Y1.75
G1 X2.056 Y1.7437
G1 X2.0589 Y1.7381
G1 X2.0634 Y1.7337
G1 X2.069 Y1.7309
G1 X2.075 Y1.73
G1 X2.125
G1 X2.1313 Y1.731
G1 X2.1369 Y1.7339
G1 X2.1413 Y1.7384
G1 X2.1441 Y1.744
G1 X2.1451 Y1.75
G1 Y2.1898
G1 X2.1441 Y2.1961
G1 X2.1411 Y2.2017
G1 X2.1366 Y2.2062
G1 X2.1354 Y2.207
G1 X2.1203 Y2.2173
G1 X2.1065 Y2.2293
G1 X2.094 Y2.2426
G1 X2.083 Y2.2573
G1 X2.0738 Y2.2731
G1 X2.0663 Y2.2898
G1 X2.0606 Y2.3072
G1 X2.0569 Y2.3251
G1 X2.0552 Y2.3433
G1 X2.0555 Y2.3616
G1 X2.0577 Y2.3798
G1 X2.062 Y2.3976
G1 X2.0681 Y2.4148
G1 X2.0761 Y2.4313
G1 X2.0858 Y2.4468
G1 X2.0972 Y2.4611
G1 X2.1101 Y2.4741
G1 X2.1243 Y2.4856
G1 X2.1397 Y2.4955
G1 X2.1561 Y2.5037
G1 X2.1732 Y2.51
G1 X2.191 Y2.5145
G1 X2.2091 Y2.5169
G1 X2.2225 Y2.5175
G1 X2.325
G1 X2.3376 Y2.5165
G1 X2.3499 Y2.5135
G1 X2.3616 Y2.5086
G1 X2.3723 Y2.5019
G1 X2.3819 Y2.4937
G1 X2.39 Y2.484
G1 X2.3966 Y2.4732
G1 X2.4013 Y2.4614
G1 X2.4041 Y2.4491
G1 X2.405 Y2.4375
G1 Y0.4375
G1 X2.404 Y0.4249
G1 X2.401 Y0.4126
G1 X2.3961 Y0.4009
G1 X2.3894 Y0.3902
G1 X2.3812 Y0.3806
G1 X2.3715 Y0.3725
G1 X2.3607 Y0.3659
G1 X2.3489 Y0.3612
G1 X2.3366 Y0.3584
G1 X2.325 Y0.3576
G1 X2.2225
G1 X2.2042 Y0.3586
G1 X2.1862 Y0.3615
G1 X2.1686 Y0.3665
G1 X2.1516 Y0.3733
G1 X2.1354 Y0.382
G1 X2.1204 Y0.3923
G1 X2.1065 Y0.4043
G1 X2.094 Y0.4176
G1 X2.0831 Y0.4323
G1 X2.0738 Y0.4481
G1 X2.0663 Y0.4648
G1 X2.0606 Y0.4822
G1 X2.0569 Y0.5001
G1 X2.0552 Y0.5183
G1 X2.0555 Y0.5366
G1 X2.0577 Y0.5548
G1 X2.0619 Y0.5726
G1 X2.0681 Y0.5898
G1 X2.0761 Y0.6063
G1 X2.0858 Y0.6218
G1 X2.0972 Y0.6361
G1 X2.1101 Y0.6491
G1 X2.1243 Y0.6606
G1 X2.1354 Y0.668
G1 X2.1402 Y0.6721
G1 X2.1435 Y0.6775
G1 X2.145 Y0.6837
G1 X2.1451 Y0.6852
G1 Y1.125
G1 X2.1441 Y1.1313
G1 X2.1411 Y1.1369
G1 X2.1366 Y1.1413
G1 X2.131 Y1.1441
G1 X2.125 Y1.1451
G1 X2.075
G1 X2.0687 Y1.1441
G1 X2.0631 Y1.1411
G1 X2.0587 Y1.1366
G1 X2.0559 Y1.131
G1 X2.055 Y1.125
G1 Y0.525
G1 X2.056 Y0.5067
G1 X2.0589 Y0.4887
G1 X2.0639 Y0.471
G1 X2.0707 Y0.4541
G1 X2.0794 Y0.4379
G1 X2.0897 Y0.4228
G1 X2.1017 Y0.4089
G1 X2.115 Y0.3965
G1 X2.1297 Y0.3855
G1 X2.1455 Y0.3762
G1 X2.1622 Y0.3687
G1 X2.1796 Y0.363
G1 X2.1975 Y0.3593
G1 X2.2157 Y0.3576
G1 X2.2225 Y0.3575
G1 X2.325
G1 X2.3376 Y0.3565
G1 X2.3499 Y0.3535
G1 X2.3616 Y0.3486
G1 X2.3723 Y0.3419
G1 X2.3819 Y0.3337
G1 X2.39 Y0.324
G1 X2.3966 Y0.3132
G1 X2.4013 Y0.3014
G1 X2.4029 Y0.2955
G1 X2.4037 Y0.2878
G1 X2.4029 Y0.282
G1 X2.3991 Y0.27
G1 X2.3934 Y0.2586
G1 X2.386 Y0.2484
G1 X2.3771 Y0.2394
G1 X2.3669 Y0.2319
G1 X2.3557 Y0.2262
G1 X2.3437 Y0.2223
G1 X2.3312 Y0.2203
G1 X2.325 Y0.22
G1 X2.0778 Y0.2201
G1 Y0.1875
G1 X2.0768 Y0.1798
G1 X2.0738 Y0.1727
G1 X2.0691 Y0.1665
G1 X2.0631 Y0.1617
G1 X2.0559 Y0.1587
G1 X2.0483 Y0.1576
G1 X2.0478
G1 X1.9478
G1 X1.9401 Y0.1586
G1 X1.933 Y0.1615
G1 X1.9268 Y0.1662
G1 X1.922 Y0.1722
G1 X1.919 Y0.1794
G1 X1.9179 Y0.187
G1 Y0.1875
G1 Y0.2201
G1 X1.5375
G1 X1.5257 Y0.2191
G1 X1.5142 Y0.2161
G1 X1.5035 Y0.2112
G1 X1.4936 Y0.2046
G1 X1.4851 Y0.1964
G1 X1.478 Y0.187
G1 X1.4726 Y0.1764
G1 X1.4691 Y0.1651
G1 X1.4675 Y0.1534
G1 Y0.15
G1 Y0.1
G1 X1.4665 Y0.0839
G1 X1.4635 Y0.0681
G1 X1.4585 Y0.0527
G1 X1.4518 Y0.0381
G1 X1.4432 Y0.0244
G1 X1.433 Y0.0119
G1 X1.4214 Y0.0008
G1 X1.4085 Y-0.0089
G1 X1.3944 Y-0.0168
G1 X1.3795 Y-0.023
G1 X1.364 Y-0.0272
G1 X1.348 Y-0.0295
G1 X1.3375 Y-0.0299
G1 X1.0375 Y-0.03
G1 X1.0214 Y-0.029
G1 X1.0056 Y-0.026
G1 X0.9902 Y-0.021
G1 X0.9756 Y-0.0143
G1 X0.9619 Y-0.0057
G1 X0.9494 Y0.0045
G1 X0.9383 Y0.0161
G1 X0.9286 Y0.029
G1 X0.9207 Y0.0431
G1 X0.9145 Y0.058
G1 X0.9103 Y0.0735
G1 X0.908 Y0.0895
G1 X0.9076 Y0.1
G1 Y0.15
G1 X0.9066 Y0.1618
G1 X0.9036 Y0.1733
G1 X0.8987 Y0.184
G1 X0.8921 Y0.1939
G1 X0.8839 Y0.2024
G1 X0.8745 Y0.2095
G1 X0.8639 Y0.2149
G1 X0.8526 Y0.2184
G1 X0.8409 Y0.22
G1 X0.8375 Y0.2201
G1 X0.4572
G1 Y0.1875
G1 X0.4562 Y0.1798
G1 X0.4532 Y0.1727
G1 X0.4485 Y0.1665
G1 X0.4425 Y0.1617
G1 X0.4353 Y0.1587
G1 X0.4277 Y0.1576
G1 X0.4272
G1 X0.3272
G1 X0.3195 Y0.1586
G1 X0.3124 Y0.1615
G1 X0.3062 Y0.1662
G1 X0.3014 Y0.1722
G1 X0.2984 Y0.1794
G1 X0.2973 Y0.187
G1 Y0.1875
G1 Y0.2201
G1 X0.1
G1 X0.0839 Y0.2211
G1 X0.0681 Y0.224
G1 X0.0527 Y0.229
G1 X0.0381 Y0.2357
G1 X0.0244 Y0.2443
G1 X0.0119 Y0.2545
G1 X0.0008 Y0.2661
G1 X-0.0089 Y0.279
G1 X-0.0168 Y0.2931
G1 X-0.023 Y0.308
G1 X-0.0272 Y0.3235
G1 X-0.0295 Y0.3395
G1 X-0.0299 Y0.35
G1 Y2.525
G1 X-0.0289 Y2.5411
G1 X-0.026 Y2.5569
G1 X-0.021 Y2.5723
G1 X-0.0143 Y2.5869
G1 X-0.0057 Y2.6006
G1 X0.0045 Y2.6131
G1 X0.0161 Y2.6242
G1 X0.029 Y2.6339
G1 X0.0431 Y2.6418
G1 X0.058 Y2.648
G1 X0.0735 Y2.6522
G1 X0.0895 Y2.6545
G1 X0.1 Y2.655
G1 X0.2275
G1 F5.0 Z-0.25
G1 F10.0 X0.2973
G1 Y2.6875
G1 X0.2983 Y2.6952
G1 X0.3012 Y2.7023
G1 X0.3059 Y2.7085
G1 X0.3119 Y2.7133
G1 X0.3191 Y2.7163
G1 X0.3267 Y2.7174
G1 X0.3272 Y2.7175
G1 X0.4272
G1 X0.4349 Y2.7165
G1 X0.442 Y2.7135
G1 X0.4482 Y2.7088
G1 X0.453 Y2.7028
G1 X0.456 Y2.6956
G1 X0.4571 Y2.688
G1 X0.4572 Y2.6875
G1 Y2.655
G1 X0.8375
G1 X0.8493 Y2.656
G1 X0.8608 Y2.6589
G1 X0.8715 Y2.6638
G1 X0.8814 Y2.6704
G1 X0.8899 Y2.6786
G1 X0.897 Y2.688
G1 X0.9024 Y2.6986
G1 X0.9059 Y2.7099
G1 X0.9075 Y2.7216
G1 X0.9076 Y2.725
G1 Y2.775
G1 X0.9086 Y2.7911
G1 X0.9115 Y2.8069
G1 X0.9165 Y2.8223
G1 X0.9232 Y2.8369
G1 X0.9318 Y2.8506
G1 X0.942 Y2.8631
G1 X0.9536 Y2.8742
G1 X0.9665 Y2.8839
G1 X0.9806 Y2.8918
G1 X0.9955 Y2.898
G1 X1.011 Y2.9022
G1 X1.027 Y2.9045
G1 X1.0375 Y2.905
G1 X1.3375
G1 X1.3536 Y2.904
G1 X1.3694 Y2.901
G1 X1.3848 Y2.896
G1 X1.3994 Y2.8893
G1 X1.4131 Y2.8807
G1 X1.4256 Y2.8705
G1 X1.4367 Y2.8589
G1 X1.4464 Y2.846
G1 X1.4543 Y2.8319
G1 X1.4605 Y2.817
G1 X1.4647 Y2.8015
G1 X1.467 Y2.7855
G1 X1.4675 Y2.775
G1 Y2.725
G1 X1.4685 Y2.7132
G1 X1.4714 Y2.7017
G1 X1.4763 Y2.691
G1 X1.4829 Y2.6811
G1 X1.4911 Y2.6726
G1 X1.5005 Y2.6655
G1 X1.5111 Y2.6601
G1 X1.5224 Y2.6566
G1 X1.5341 Y2.655
G1 X1.5375
G1 X1.9179
G1 Y2.6875
G1 X1.9189 Y2.6952
G1 X1.9218 Y2.7023
G1 X1.9265 Y2.7085
G1 X1.9325 Y2.7133
G1 X1.9397 Y2.7163
G1 X1.9473 Y2.7174
G1 X1.9478 Y2.7175
G1 X2.0478
G1 X2.0555 Y2.7165
G1 X2.0626 Y2.7135
G1 X2.0688 Y2.7088
G1 X2.0736 Y2.7028
G1 X2.0766 Y2.6956
G1 X2.0777 Y2.688
G1 X2.0778 Y2.6875
G1 Y2.655
G1 X2.325
G1 X2.3376 Y2.654
G1 X2.3499 Y2.651
G1 X2.3616 Y2.6461
G1 X2.3723 Y2.6394
G1 X2.3819 Y2.6312
G1 X2.39 Y2.6215
G1 X2.3966 Y2.6107
G1 X2.4013 Y2.5989
G1 X2.4029 Y2.593
G1 X2.4037 Y2.5853
G1 X2.4029 Y2.5795
G1 X2.3991 Y2.5675
G1 X2.3934 Y2.5561
G1 X2.386 Y2.5459
G1 X2.3771 Y2.5369
G1 X2.3669 Y2.5294
G1 X2.3557 Y2.5237
G1 X2.3437 Y2.5198
G1 X2.3312 Y2.5178
G1 X2.325 Y2.5176
G1 X2.2225
G1 X2.2042 Y2.5166
G1 X2.1862 Y2.5136
G1 X2.1685 Y2.5086
G1 X2.1516 Y2.5018
G1 X2.1354 Y2.4931
G1 X2.1203 Y2.4828
G1 X2.1064 Y2.4708
G1 X2.094 Y2.4575
G1 X2.083 Y2.4428
G1 X2.0737 Y2.427
G1 X2.0662 Y2.4103
G1 X2.0605 Y2.3929
G1 X2.0568 Y2.375
G1 X2.0551 Y2.3568
G1 X2.055 Y2.35
G1 Y1.75
G1 X2.056 Y1.7437
G1 X2.0589 Y1.7381
G1 X2.0634 Y1.7337
G1 X2.069 Y1.7309
G1 X2.075 Y1.73
G1 X2.125
G1 X2.1313 Y1.731
G1 X2.1369 Y1.7339
G1 X2.1413 Y1.7384
G1 X2.1441 Y1.744
G1 X2.1451 Y1.75
G1 Y2.1898
G1 X2.1441 Y2.1961
G1 X2.1411 Y2.2017
G1 X2.1366 Y2.2062
G1 X2.1354 Y2.207
G1 X2.1203 Y2.2173
G1 X2.1065 Y2.2293
G1 X2.094 Y2.2426
G1 X2.083 Y2.2573
G1 X2.0738 Y2.2731
G1 X2.0663 Y2.2898
G1 X2.0606 Y2.3072
G1 X2.0569 Y2.3251
G1 X2.0552 Y2.3433
G1 X2.0555 Y2.3616
G1 X2.0577 Y2.3798
G1 X2.062 Y2.3976
G1 X2.0681 Y2.4148
G1 X2.0761 Y2.4313
G1 X2.0858 Y2.4468
G1 X2.0972 Y2.4611
G1 X2.1101 Y2.4741
G1 X2.1243 Y2.4856
G1 X2.1397 Y2.4955
G1 X2.1561 Y2.5037
G1 X2.1732 Y2.51
G1 X2.191 Y2.5145
G1 X2.2091 Y2.5169
G1 X2.2225 Y2.5175
G1 X2.325
G1 X2.3376 Y2.5165
G1 X2.3499 Y2.5135
G1 X2.3616 Y2.5086
G1 X2.3723 Y2.5019
G1 X2.3819 Y2.4937
G1 X2.39 Y2.484
G1 X2.3966 Y2.4732
G1 X2.4013 Y2.4614
G1 X2.4041 Y2.4491
G1 X2.405 Y2.4375
G1 Y0.4375
G1 X2.404 Y0.4249
G1 X2.401 Y0.4126
G1 X2.3961 Y0.4009
G1 X2.3894 Y0.3902
G1 X2.3812 Y0.3806
G1 X2.3715 Y0.3725
G1 X2.3607 Y0.3659
G1 X2.3489 Y0.3612
G1 X2.3366 Y0.3584
G1 X2.325 Y0.3576
G1 X2.2225
G1 X2.2042 Y0.3586
G1 X2.1862 Y0.3615
G1 X2.1686 Y0.3665
G1 X2.1516 Y0.3733
G1 X2.1354 Y0.382
G1 X2.1204 Y0.3923
G1 X2.1065 Y0.4043
G1 X2.094 Y0.4176
G1 X2.0831 Y0.4323
G1 X2.0738 Y0.4481
G1 X2.0663 Y0.4648
G1 X2.0606 Y0.4822
G1 X2.0569 Y0.5001
G1 X2.0552 Y0.5183
G1 X2.0555 Y0.5366
G1 X2.0577 Y0.5548
G1 X2.0619 Y0.5726
G1 X2.0681 Y0.5898
G1 X2.0761 Y0.6063
G1 X2.0858 Y0.6218
G1 X2.0972 Y0.6361
G1 X2.1101 Y0.6491
G1 X2.1243 Y0.6606
G1 X2.1354 Y0.668
G1 X2.1402 Y0.6721
G1 X2.1435 Y0.6775
G1 X2.145 Y0.6837
G1 X2.1451 Y0.6852
G1 Y1.125
G1 X2.1441 Y1.1313
G1 X2.1411 Y1.1369
G1 X2.1366 Y1.1413
G1 X2.131 Y1.1441
G1 X2.125 Y1.1451
G1 X2.075
G1 X2.0687 Y1.1441
G1 X2.0631 Y1.1411
G1 X2.0587 Y1.1366
G1 X2.0559 Y1.131
G1 X2.055 Y1.125
G1 Y0.525
G1 X2.056 Y0.5067
G1 X2.0589 Y0.4887
G1 X2.0639 Y0.471
G1 X2.0707 Y0.4541
G1 X2.0794 Y0.4379
G1 X2.0897 Y0.4228
G1 X2.1017 Y0.4089
G1 X2.115 Y0.3965
G1 X2.1297 Y0.3855
G1 X2.1455 Y0.3762
G1 X2.1622 Y0.3687
G1 X2.1796 Y0.363
G1 X2.1975 Y0.3593
G1 X2.2157 Y0.3576
G1 X2.2225 Y0.3575
G1 X2.325
G1 X2.3376 Y0.3565
G1 X2.3499 Y0.3535
G1 X2.3616 Y0.3486
G1 X2.3723 Y0.3419
G1 X2.3819 Y0.3337
G1 X2.39 Y0.324
G1 X2.3966 Y0.3132
G1 X2.4013 Y0.3014
G1 X2.4029 Y0.2955
G1 X2.4037 Y0.2878
G1 X2.4029 Y0.282
G1 X2.3991 Y0.27
G1 X2.3934 Y0.2586
G1 X2.386 Y0.2484
G1 X2.3771 Y0.2394
G1 X2.3669 Y0.2319
G1 X2.3557 Y0.2262
G1 X2.3437 Y0.2223
G1 X2.3312 Y0.2203
G1 X2.325 Y0.22
G1 X2.0778 Y0.2201
G1 Y0.1875
G1 X2.0768 Y0.1798
G1 X2.0738 Y0.1727
G1 X2.0691 Y0.1665
G1 X2.0631 Y0.1617
G1 X2.0559 Y0.1587
G1 X2.0483 Y0.1576
G1 X2.0478
G1 X1.9478
G1 X1.9401 Y0.1586
G1 X1.933 Y0.1615
G1 X1.9268 Y0.1662
G1 X1.922 Y0.1722
G1 X1.919 Y0.1794
G1 X1.9179 Y0.187
G1 Y0.1875
G1 Y0.2201
G1 X1.5375
G1 X1.5257 Y0.2191
G1 X1.5142 Y0.2161
G1 X1.5035 Y0.2112
G1 X1.4936 Y0.2046
G1 X1.4851 Y0.1964
G1 X1.478 Y0.187
G1 X1.4726 Y0.1764
G1 X1.4691 Y0.1651
G1 X1.4675 Y0.1534
G1 Y0.15
G1 Y0.1
G1 X1.4665 Y0.0839
G1 X1.4635 Y0.0681
G1 X1.4585 Y0.0527
G1 X1.4518 Y0.0381
G1 X1.4432 Y0.0244
G1 X1.433 Y0.0119
G1 X1.4214 Y0.0008
G1 X1.4085 Y-0.0089
G1 X1.3944 Y-0.0168
G1 X1.3795 Y-0.023
G1 X1.364 Y-0.0272
G1 X1.348 Y-0.0295
G1 X1.3375 Y-0.0299
G1 X1.0375 Y-0.03
G1 X1.0214 Y-0.029
G1 X1.0056 Y-0.026
G1 X0.9902 Y-0.021
G1 X0.9756 Y-0.0143
G1 X0.9619 Y-0.0057
G1 X0.9494 Y0.0045
G1 X0.9383 Y0.0161
G1 X0.9286 Y0.029
G1 X0.9207 Y0.0431
G1 X0.9145 Y0.058
G1 X0.9103 Y0.0735
G1 X0.908 Y0.0895
G1 X0.9076 Y0.1
G1 Y0.15
G1 X0.9066 Y0.1618
G1 X0.9036 Y0.1733
G1 X0.8987 Y0.184
G1 X0.8921 Y0.1939
G1 X0.8839 Y0.2024
G1 X0.8745 Y0.2095
G1 X0.8639 Y0.2149
G1 X0.8526 Y0.2184
G1 X0.8409 Y0.22
G1 X0.8375 Y0.2201
G1 X0.4572
G1 Y0.1875
G1 X0.4562 Y0.1798
G1 X0.4532 Y0.1727
G1 X0.4485 Y0.1665
G1 X0.4425 Y0.1617
G1 X0.4353 Y0.1587
G1 X0.4277 Y0.1576
G1 X0.4272
G1 X0.3272
G1 X0.3195 Y0.1586
G1 X0.3124 Y0.1615
G1 X0.3062 Y0.1662
G1 X0.3014 Y0.1722
G1 X0.2984 Y0.1794
G1 X0.2973 Y0.187
G1 Y0.1875
G1 Y0.2201
G1 X0.1
G1 X0.0839 Y0.2211
G1 X0.0681 Y0.224
G1 X0.0527 Y0.229
G1 X0.0381 Y0.2357
G1 X0.0244 Y0.2443
G1 X0.0119 Y0.2545
G1 X0.0008 Y0.2661
G1 X-0.0089 Y0.279
G1 X-0.0168 Y0.2931
G1 X-0.023 Y0.308
G1 X-0.0272 Y0.3235
G1 X-0.0295 Y0.3395
G1 X-0.0299 Y0.35
G1 Y2.525
G1 X-0.0289 Y2.5411
G1 X-0.026 Y2.5569
G1 X-0.021 Y2.5723
G1 X-0.0143 Y2.5869
G1 X-0.0057 Y2.6006
G1 X0.0045 Y2.6131
G1 X0.0161 Y2.6242
G1 X0.029 Y2.6339
G1 X0.0431 Y2.6418
G1 X0.058 Y2.648
G1 X0.0735 Y2.6522
G1 X0.0895 Y2.6545
G1 X0.1 Y2.655
G1 X0.2275
G0 Z0.125
M5
M30
