( Made using CamBam - http://www.cambam.co.uk )
( carriageplate3 2/7/2015 1:48:20 PM )
( T0 : 0.01 )
G20 G90 G64 G40
G0 Z0.125
( T0 : 0.01 )
T0 M6
( Profile1 )
G17
M3 S1000
G0 X1.1543 Y0.3936
G0 Z0.025
G1 F5.0 Z-0.1
G1 F10.0 X1.16 Y0.3899
G1 X1.1695 Y0.3855
G1 X1.1797 Y0.3831
G1 X1.1902 Y0.3826
G1 X1.2006 Y0.3841
G1 X1.2105 Y0.3875
G1 X1.2196 Y0.3928
G1 X1.2275 Y0.3997
G1 X1.2339 Y0.408
G1 X1.2387 Y0.4173
G1 X1.2416 Y0.4274
G1 X1.2425 Y0.4375
G1 X1.2415 Y0.4479
G1 X1.2385 Y0.458
G1 X1.2337 Y0.4673
G1 X1.2272 Y0.4755
G1 X1.2193 Y0.4824
G1 X1.2102 Y0.4876
G1 X1.2002 Y0.491
G1 X1.1899 Y0.4924
G1 X1.1794 Y0.4919
G1 X1.1692 Y0.4894
G1 X1.16 Y0.4851
G1 X1.1515 Y0.479
G1 X1.1442 Y0.4714
G1 X1.1386 Y0.4626
G1 X1.1347 Y0.4529
G1 X1.1327 Y0.4426
G1 X1.1328 Y0.4321
G1 X1.1348 Y0.4218
G1 X1.1387 Y0.4121
G1 X1.1444 Y0.4033
G1 X1.1517 Y0.3957
G1 X1.1543 Y0.3936
G0 Z0.125
G0 X0.2524 Y0.4346
G0 Z0.025
G1 F5.0 Z-0.1
G1 F10.0 X0.2525 Y0.4375
G1 X0.2515 Y0.4489
G1 X0.2485 Y0.4599
G1 X0.2437 Y0.4702
G1 X0.2371 Y0.4795
G1 X0.229 Y0.4875
G1 X0.2196 Y0.494
G1 X0.2093 Y0.4988
G1 X0.1982 Y0.5016
G1 X0.1869 Y0.5025
G1 X0.1755 Y0.5014
G1 X0.1645 Y0.4983
G1 X0.155 Y0.4938
G1 X0.1457 Y0.4872
G1 X0.1376 Y0.4792
G1 X0.1311 Y0.4698
G1 X0.1263 Y0.4595
G1 X0.1234 Y0.4484
G1 X0.1225 Y0.4371
G1 X0.1236 Y0.4257
G1 X0.1266 Y0.4147
G1 X0.1315 Y0.4044
G1 X0.1382 Y0.3952
G1 X0.1463 Y0.3872
G1 X0.155 Y0.3812
G1 X0.1653 Y0.3764
G1 X0.1764 Y0.3735
G1 X0.1877 Y0.3725
G1 X0.1991 Y0.3735
G1 X0.2101 Y0.3765
G1 X0.2204 Y0.3814
G1 X0.2297 Y0.388
G1 X0.2377 Y0.3962
G1 X0.2441 Y0.4056
G1 X0.2488 Y0.4159
G1 X0.2516 Y0.427
G1 X0.2524 Y0.4346
G0 Z0.125
G0 X0.1917 Y1.3726
G0 Z0.025
G1 F5.0 Z-0.1
G1 F10.0 X0.203 Y1.3744
G1 X0.2138 Y1.378
G1 X0.2237 Y1.3835
G1 X0.2326 Y1.3907
G1 X0.2401 Y1.3993
G1 X0.246 Y1.4091
G1 X0.25 Y1.4197
G1 X0.2522 Y1.4309
G1 X0.2525 Y1.4375
G1 X0.2515 Y1.4489
G1 X0.2485 Y1.4599
G1 X0.2437 Y1.4702
G1 X0.2371 Y1.4795
G1 X0.229 Y1.4875
G1 X0.2196 Y1.494
G1 X0.2093 Y1.4988
G1 X0.1982 Y1.5016
G1 X0.1869 Y1.5025
G1 X0.1755 Y1.5014
G1 X0.1645 Y1.4983
G1 X0.155 Y1.4938
G1 X0.1457 Y1.4872
G1 X0.1376 Y1.4792
G1 X0.1311 Y1.4698
G1 X0.1263 Y1.4595
G1 X0.1234 Y1.4484
G1 X0.1225 Y1.4371
G1 X0.1236 Y1.4257
G1 X0.1266 Y1.4147
G1 X0.1315 Y1.4044
G1 X0.1382 Y1.3952
G1 X0.1463 Y1.3872
G1 X0.155 Y1.3812
G1 X0.1653 Y1.3764
G1 X0.1764 Y1.3735
G1 X0.1877 Y1.3725
G1 X0.1917 Y1.3726
G0 Z0.125
G0 X1.1326 Y1.4339
G0 Z0.025
G1 F5.0 Z-0.1
G1 F10.0 X1.1343 Y1.4236
G1 X1.1379 Y1.4137
G1 X1.1433 Y1.4047
G1 X1.1503 Y1.397
G1 X1.1587 Y1.3906
G1 X1.16 Y1.3899
G1 X1.1695 Y1.3855
G1 X1.1797 Y1.3831
G1 X1.1902 Y1.3826
G1 X1.2006 Y1.3841
G1 X1.2105 Y1.3875
G1 X1.2196 Y1.3928
G1 X1.2275 Y1.3997
G1 X1.2339 Y1.408
G1 X1.2387 Y1.4173
G1 X1.2416 Y1.4274
G1 X1.2425 Y1.4375
G1 X1.2415 Y1.4479
G1 X1.2385 Y1.458
G1 X1.2337 Y1.4673
G1 X1.2272 Y1.4755
G1 X1.2193 Y1.4824
G1 X1.2102 Y1.4876
G1 X1.2002 Y1.491
G1 X1.1899 Y1.4924
G1 X1.1794 Y1.4919
G1 X1.1692 Y1.4894
G1 X1.16 Y1.4851
G1 X1.1515 Y1.479
G1 X1.1442 Y1.4714
G1 X1.1386 Y1.4626
G1 X1.1347 Y1.4529
G1 X1.1327 Y1.4426
G1 X1.1326 Y1.4339
G0 Z0.125
G0 X1.5246 Y1.4371
G0 Z0.025
G1 F5.0 Z-0.1
G1 F10.0 X1.5257 Y1.4266
G1 X1.5287 Y1.4166
G1 X1.5336 Y1.4073
G1 X1.5402 Y1.3991
G1 X1.5482 Y1.3924
G1 X1.5521 Y1.3899
G1 X1.5616 Y1.3855
G1 X1.5718 Y1.3831
G1 X1.5823 Y1.3826
G1 X1.5927 Y1.3841
G1 X1.6026 Y1.3875
G1 X1.6117 Y1.3928
G1 X1.6196 Y1.3997
G1 X1.626 Y1.408
G1 X1.6308 Y1.4173
G1 X1.6337 Y1.4274
G1 X1.6346 Y1.4375
G1 X1.6336 Y1.4479
G1 X1.6306 Y1.458
G1 X1.6258 Y1.4673
G1 X1.6193 Y1.4755
G1 X1.6114 Y1.4824
G1 X1.6023 Y1.4876
G1 X1.5923 Y1.491
G1 X1.582 Y1.4924
G1 X1.5715 Y1.4919
G1 X1.5613 Y1.4894
G1 X1.5521 Y1.4851
G1 X1.5436 Y1.479
G1 X1.5363 Y1.4714
G1 X1.5307 Y1.4626
G1 X1.5268 Y1.4529
G1 X1.5248 Y1.4426
G1 X1.5246 Y1.4371
G0 Z0.125
G0 X2.1225 Y1.4375
G0 Z0.025
G1 F5.0 Z-0.1
G1 F10.0 X2.1235 Y1.4261
G1 X2.1265 Y1.4151
G1 X2.1313 Y1.4048
G1 X2.1379 Y1.3955
G1 X2.146 Y1.3874
G1 X2.155 Y1.3812
G1 X2.1653 Y1.3764
G1 X2.1764 Y1.3735
G1 X2.1877 Y1.3725
G1 X2.1991 Y1.3735
G1 X2.2101 Y1.3765
G1 X2.2204 Y1.3814
G1 X2.2297 Y1.388
G1 X2.2377 Y1.3962
G1 X2.2441 Y1.4056
G1 X2.2488 Y1.4159
G1 X2.2516 Y1.427
G1 X2.2525 Y1.4375
G1 X2.2515 Y1.4489
G1 X2.2485 Y1.4599
G1 X2.2437 Y1.4702
G1 X2.2371 Y1.4795
G1 X2.229 Y1.4875
G1 X2.2196 Y1.494
G1 X2.2093 Y1.4988
G1 X2.1982 Y1.5016
G1 X2.1869 Y1.5025
G1 X2.1755 Y1.5014
G1 X2.1645 Y1.4983
G1 X2.155 Y1.4938
G1 X2.1457 Y1.4872
G1 X2.1376 Y1.4792
G1 X2.1311 Y1.4698
G1 X2.1263 Y1.4595
G1 X2.1234 Y1.4484
G1 X2.1225 Y1.4375
G0 Z0.125
G0 X2.2154 Y0.5896
G0 Z0.025
G1 F5.0 Z-0.1
G1 F10.0 X2.2042 Y0.5874
G1 X2.1936 Y0.5832
G1 X2.19 Y0.5813
G1 X2.1807 Y0.5747
G1 X2.1726 Y0.5667
G1 X2.1661 Y0.5573
G1 X2.1613 Y0.547
G1 X2.1584 Y0.5359
G1 X2.1575 Y0.5246
G1 X2.1586 Y0.5132
G1 X2.1616 Y0.5022
G1 X2.1665 Y0.4919
G1 X2.1732 Y0.4827
G1 X2.1813 Y0.4747
G1 X2.19 Y0.4687
G1 X2.2003 Y0.4639
G1 X2.2114 Y0.461
G1 X2.2227 Y0.46
G1 X2.2341 Y0.461
G1 X2.2451 Y0.464
G1 X2.2554 Y0.4689
G1 X2.2647 Y0.4755
G1 X2.2727 Y0.4837
G1 X2.2791 Y0.4931
G1 X2.2838 Y0.5034
G1 X2.2866 Y0.5145
G1 X2.2875 Y0.525
G1 X2.2865 Y0.5364
G1 X2.2835 Y0.5474
G1 X2.2787 Y0.5577
G1 X2.2721 Y0.567
G1 X2.264 Y0.575
G1 X2.2546 Y0.5815
G1 X2.2443 Y0.5863
G1 X2.2332 Y0.5891
G1 X2.2219 Y0.59
G1 X2.2154 Y0.5896
G0 Z0.125
G0 X2.2222 Y2.285
G0 Z0.025
G1 F5.0 Z-0.1
G1 F10.0 X2.2336 Y2.286
G1 X2.2446 Y2.2889
G1 X2.255 Y2.2937
G1 X2.2643 Y2.3002
G1 X2.2724 Y2.3083
G1 X2.2789 Y2.3176
G1 X2.2837 Y2.328
G1 X2.2866 Y2.339
G1 X2.2875 Y2.35
G1 X2.2865 Y2.3614
G1 X2.2835 Y2.3724
G1 X2.2787 Y2.3827
G1 X2.2721 Y2.392
G1 X2.264 Y2.4
G1 X2.2546 Y2.4065
G1 X2.2443 Y2.4113
G1 X2.2332 Y2.4141
G1 X2.2219 Y2.415
G1 X2.2105 Y2.4139
G1 X2.1995 Y2.4108
G1 X2.19 Y2.4063
G1 X2.1807 Y2.3997
G1 X2.1726 Y2.3917
G1 X2.1661 Y2.3823
G1 X2.1613 Y2.372
G1 X2.1584 Y2.3609
G1 X2.1575 Y2.3496
G1 X2.1586 Y2.3382
G1 X2.1616 Y2.3272
G1 X2.1665 Y2.3169
G1 X2.1732 Y2.3077
G1 X2.1813 Y2.2997
G1 X2.19 Y2.2937
G1 X2.2003 Y2.2889
G1 X2.2114 Y2.286
G1 X2.2222 Y2.285
G0 Z0.125
G0 X1.2419 Y2.4295
G0 Z0.025
G1 F5.0 Z-0.1
G1 F10.0 X1.2425 Y2.4375
G1 X1.2415 Y2.4479
G1 X1.2385 Y2.458
G1 X1.2337 Y2.4673
G1 X1.2272 Y2.4755
G1 X1.2193 Y2.4824
G1 X1.2102 Y2.4876
G1 X1.2002 Y2.491
G1 X1.1899 Y2.4924
G1 X1.1794 Y2.4919
G1 X1.1692 Y2.4894
G1 X1.16 Y2.4851
G1 X1.1515 Y2.479
G1 X1.1442 Y2.4714
G1 X1.1386 Y2.4626
G1 X1.1347 Y2.4529
G1 X1.1327 Y2.4426
G1 X1.1328 Y2.4321
G1 X1.1348 Y2.4218
G1 X1.1387 Y2.4121
G1 X1.1444 Y2.4033
G1 X1.1517 Y2.3957
G1 X1.16 Y2.3899
G1 X1.1695 Y2.3855
G1 X1.1797 Y2.3831
G1 X1.1902 Y2.3826
G1 X1.2006 Y2.3841
G1 X1.2105 Y2.3875
G1 X1.2196 Y2.3928
G1 X1.2275 Y2.3997
G1 X1.2339 Y2.408
G1 X1.2387 Y2.4173
G1 X1.2416 Y2.4274
G1 X1.2419 Y2.4295
G0 Z0.125
G0 X0.2525 Y2.437
G0 Z0.025
G1 F5.0 Z-0.1
G1 F10.0 Y2.4375
G1 X0.2515 Y2.4489
G1 X0.2485 Y2.4599
G1 X0.2437 Y2.4702
G1 X0.2371 Y2.4795
G1 X0.229 Y2.4875
G1 X0.2196 Y2.494
G1 X0.2093 Y2.4988
G1 X0.1982 Y2.5016
G1 X0.1869 Y2.5025
G1 X0.1755 Y2.5014
G1 X0.1645 Y2.4983
G1 X0.155 Y2.4938
G1 X0.1457 Y2.4872
G1 X0.1376 Y2.4792
G1 X0.1311 Y2.4698
G1 X0.1263 Y2.4595
G1 X0.1234 Y2.4484
G1 X0.1225 Y2.4371
G1 X0.1236 Y2.4257
G1 X0.1266 Y2.4147
G1 X0.1315 Y2.4044
G1 X0.1382 Y2.3952
G1 X0.1463 Y2.3872
G1 X0.155 Y2.3812
G1 X0.1653 Y2.3764
G1 X0.1764 Y2.3735
G1 X0.1877 Y2.3725
G1 X0.1991 Y2.3735
G1 X0.2101 Y2.3765
G1 X0.2204 Y2.3814
G1 X0.2297 Y2.388
G1 X0.2377 Y2.3962
G1 X0.2441 Y2.4056
G1 X0.2488 Y2.4159
G1 X0.2516 Y2.427
G1 X0.2525 Y2.437
G0 Z0.125
G0 Y2.63
G0 Z0.025
G1 F5.0 Z-0.1
G1 F10.0 X0.3222
G1 Y2.657
G1 X0.3232 Y2.66
G1 X0.3258 Y2.6618
G1 X0.3272 Y2.662
G1 X0.3892
G1 X0.3922 Y2.661
G1 X0.394 Y2.6584
G1 X0.3942 Y2.657
G1 Y2.63
G1 X0.8375
G1 X0.8512 Y2.631
G1 X0.8647 Y2.634
G1 X0.8776 Y2.6389
G1 X0.8896 Y2.6456
G1 X0.9006 Y2.654
G1 X0.9102 Y2.6638
G1 X0.9183 Y2.675
G1 X0.9247 Y2.6872
G1 X0.9292 Y2.7002
G1 X0.9318 Y2.7138
G1 X0.9325 Y2.725
G1 Y2.775
G1 X0.9335 Y2.7895
G1 X0.9365 Y2.8036
G1 X0.9414 Y2.8173
G1 X0.9481 Y2.8301
G1 X0.9566 Y2.8419
G1 X0.9665 Y2.8524
G1 X0.9779 Y2.8614
G1 X0.9903 Y2.8688
G1 X1.0037 Y2.8744
G1 X1.0177 Y2.8781
G1 X1.0321 Y2.8799
G1 X1.0375 Y2.88
G1 X1.3375
G1 X1.352 Y2.879
G1 X1.3661 Y2.876
G1 X1.3798 Y2.8711
G1 X1.3926 Y2.8644
G1 X1.4044 Y2.8559
G1 X1.4149 Y2.846
G1 X1.4239 Y2.8346
G1 X1.4313 Y2.8222
G1 X1.4369 Y2.8088
G1 X1.4406 Y2.7948
G1 X1.4424 Y2.7804
G1 X1.4425 Y2.775
G1 Y2.725
G1 X1.4435 Y2.7113
G1 X1.4465 Y2.6978
G1 X1.4514 Y2.6849
G1 X1.4581 Y2.6729
G1 X1.4665 Y2.6619
G1 X1.4763 Y2.6523
G1 X1.4875 Y2.6442
G1 X1.4997 Y2.6378
G1 X1.5127 Y2.6333
G1 X1.5263 Y2.6307
G1 X1.5375 Y2.63
G1 X1.9808
G1 Y2.657
G1 X1.9818 Y2.66
G1 X1.9844 Y2.6618
G1 X1.9858 Y2.662
G1 X2.0478
G1 X2.0508 Y2.661
G1 X2.0526 Y2.6584
G1 X2.0528 Y2.657
G1 Y2.63
G1 X2.325
G1 X2.3354 Y2.629
G1 X2.3455 Y2.626
G1 X2.3548 Y2.6212
G1 X2.363 Y2.6147
G1 X2.3699 Y2.6068
G1 X2.3751 Y2.5977
G1 X2.3785 Y2.5877
G1 X2.3786 Y2.5874
G1 Y2.5851
G1 X2.3753 Y2.5752
G1 X2.3701 Y2.566
G1 X2.3633 Y2.558
G1 X2.3551 Y2.5515
G1 X2.3459 Y2.5466
G1 X2.3358 Y2.5436
G1 X2.3254 Y2.5425
G1 X2.325
G1 X2.2225
G1 X2.2029 Y2.5415
G1 X2.1835 Y2.5385
G1 X2.1645 Y2.5336
G1 X2.1461 Y2.5267
G1 X2.1285 Y2.518
G1 X2.1119 Y2.5076
G1 X2.0965 Y2.4955
G1 X2.0823 Y2.4819
G1 X2.0696 Y2.467
G1 X2.0585 Y2.4508
G1 X2.0491 Y2.4336
G1 X2.0415 Y2.4155
G1 X2.0358 Y2.3967
G1 X2.032 Y2.3775
G1 X2.0302 Y2.3579
G1 X2.03 Y2.35
G1 Y1.75
G1 X2.031 Y1.7406
G1 X2.034 Y1.7316
G1 X2.0387 Y1.7234
G1 X2.0451 Y1.7163
G1 X2.0528 Y1.7108
G1 X2.0615 Y1.7071
G1 X2.0709 Y1.7052
G1 X2.075 Y1.705
G1 X2.125
G1 X2.1344 Y1.706
G1 X2.1434 Y1.709
G1 X2.1516 Y1.7137
G1 X2.1587 Y1.7201
G1 X2.1642 Y1.7278
G1 X2.1679 Y1.7365
G1 X2.1698 Y1.7459
G1 X2.17 Y1.75
G1 Y2.1898
G1 X2.169 Y2.1993
G1 X2.166 Y2.2083
G1 X2.1613 Y2.2165
G1 X2.1549 Y2.2235
G1 X2.1484 Y2.2283
G1 X2.1345 Y2.2379
G1 X2.1219 Y2.2491
G1 X2.1107 Y2.2617
G1 X2.101 Y2.2755
G1 X2.093 Y2.2904
G1 X2.0869 Y2.3062
G1 X2.0827 Y2.3225
G1 X2.0804 Y2.3392
G1 X2.0801 Y2.3561
G1 X2.0819 Y2.3729
G1 X2.0855 Y2.3894
G1 X2.0912 Y2.4053
G1 X2.0986 Y2.4204
G1 X2.1078 Y2.4346
G1 X2.1186 Y2.4476
G1 X2.1309 Y2.4592
G1 X2.1445 Y2.4692
G1 X2.1591 Y2.4776
G1 X2.1746 Y2.4842
G1 X2.1909 Y2.4889
G1 X2.2075 Y2.4917
G1 X2.2225 Y2.4925
G1 X2.325
G1 X2.3354 Y2.4915
G1 X2.3455 Y2.4885
G1 X2.3548 Y2.4837
G1 X2.363 Y2.4772
G1 X2.3699 Y2.4693
G1 X2.3751 Y2.4602
G1 X2.3785 Y2.4502
G1 X2.3799 Y2.4399
G1 X2.38 Y2.4375
G1 Y0.4375
G1 X2.379 Y0.4271
G1 X2.376 Y0.417
G1 X2.3712 Y0.4077
G1 X2.3647 Y0.3995
G1 X2.3568 Y0.3926
G1 X2.3477 Y0.3874
G1 X2.3377 Y0.384
G1 X2.3274 Y0.3826
G1 X2.325 Y0.3825
G1 X2.2225
G1 X2.2056 Y0.3835
G1 X2.189 Y0.3865
G1 X2.1729 Y0.3914
G1 X2.1574 Y0.3982
G1 X2.1429 Y0.4068
G1 X2.1295 Y0.417
G1 X2.1174 Y0.4288
G1 X2.1067 Y0.4419
G1 X2.0977 Y0.4562
G1 X2.0905 Y0.4714
G1 X2.085 Y0.4874
G1 X2.0816 Y0.5039
G1 X2.0801 Y0.5208
G1 X2.0806 Y0.5376
G1 X2.0831 Y0.5543
G1 X2.0875 Y0.5706
G1 X2.0938 Y0.5863
G1 X2.102 Y0.601
G1 X2.1118 Y0.6148
G1 X2.1232 Y0.6272
G1 X2.136 Y0.6382
G1 X2.1484 Y0.6467
G1 X2.1559 Y0.6525
G1 X2.1621 Y0.6597
G1 X2.1666 Y0.668
G1 X2.1693 Y0.6771
G1 X2.17 Y0.6852
G1 Y1.125
G1 X2.169 Y1.1344
G1 X2.166 Y1.1434
G1 X2.1613 Y1.1516
G1 X2.1549 Y1.1587
G1 X2.1472 Y1.1642
G1 X2.1385 Y1.1679
G1 X2.1291 Y1.1698
G1 X2.125 Y1.17
G1 X2.075
G1 X2.0656 Y1.169
G1 X2.0566 Y1.166
G1 X2.0484 Y1.1613
G1 X2.0413 Y1.1549
G1 X2.0358 Y1.1472
G1 X2.0321 Y1.1385
G1 X2.0302 Y1.1291
G1 X2.03 Y1.125
G1 Y0.525
G1 X2.031 Y0.5054
G1 X2.034 Y0.486
G1 X2.0389 Y0.467
G1 X2.0458 Y0.4486
G1 X2.0545 Y0.431
G1 X2.0649 Y0.4144
G1 X2.077 Y0.399
G1 X2.0906 Y0.3848
G1 X2.1055 Y0.3721
G1 X2.1217 Y0.361
G1 X2.1389 Y0.3516
G1 X2.157 Y0.344
G1 X2.1758 Y0.3383
G1 X2.195 Y0.3345
G1 X2.2146 Y0.3327
G1 X2.2225 Y0.3325
G1 X2.325
G1 X2.3354 Y0.3315
G1 X2.3455 Y0.3285
G1 X2.3548 Y0.3237
G1 X2.363 Y0.3172
G1 X2.3699 Y0.3093
G1 X2.3751 Y0.3002
G1 X2.3785 Y0.2902
G1 X2.3786 Y0.2899
G1 Y0.2876
G1 X2.3753 Y0.2777
G1 X2.3701 Y0.2685
G1 X2.3633 Y0.2605
G1 X2.3551 Y0.254
G1 X2.3459 Y0.2491
G1 X2.3358 Y0.2461
G1 X2.3254 Y0.245
G1 X2.325
G1 X2.0528
G1 Y0.218
G1 X2.0518 Y0.215
G1 X2.0492 Y0.2132
G1 X2.0478 Y0.213
G1 X1.9858
G1 X1.9828 Y0.214
G1 X1.981 Y0.2166
G1 X1.9808 Y0.218
G1 Y0.245
G1 X1.5375
G1 X1.5238 Y0.244
G1 X1.5103 Y0.241
G1 X1.4974 Y0.2361
G1 X1.4854 Y0.2294
G1 X1.4744 Y0.221
G1 X1.4648 Y0.2112
G1 X1.4567 Y0.2
G1 X1.4503 Y0.1878
G1 X1.4458 Y0.1748
G1 X1.4432 Y0.1612
G1 X1.4425 Y0.15
G1 Y0.1
G1 X1.4415 Y0.0855
G1 X1.4385 Y0.0714
G1 X1.4336 Y0.0577
G1 X1.4269 Y0.0449
G1 X1.4184 Y0.0331
G1 X1.4085 Y0.0226
G1 X1.3971 Y0.0136
G1 X1.3847 Y0.0062
G1 X1.3713 Y0.0006
G1 X1.3573 Y-0.0031
G1 X1.3429 Y-0.0049
G1 X1.3375 Y-0.005
G1 X1.0375
G1 X1.023 Y-0.004
G1 X1.0089 Y-0.001
G1 X0.9952 Y0.0039
G1 X0.9824 Y0.0106
G1 X0.9706 Y0.0191
G1 X0.9601 Y0.029
G1 X0.9511 Y0.0404
G1 X0.9437 Y0.0528
G1 X0.9381 Y0.0662
G1 X0.9344 Y0.0802
G1 X0.9326 Y0.0946
G1 X0.9325 Y0.1
G1 Y0.15
G1 X0.9315 Y0.1637
G1 X0.9285 Y0.1772
G1 X0.9236 Y0.1901
G1 X0.9169 Y0.2021
G1 X0.9085 Y0.2131
G1 X0.8987 Y0.2227
G1 X0.8875 Y0.2308
G1 X0.8753 Y0.2372
G1 X0.8623 Y0.2417
G1 X0.8487 Y0.2443
G1 X0.8375 Y0.245
G1 X0.3942
G1 Y0.218
G1 X0.3932 Y0.215
G1 X0.3906 Y0.2132
G1 X0.3892 Y0.213
G1 X0.3272
G1 X0.3242 Y0.214
G1 X0.3224 Y0.2166
G1 X0.3222 Y0.218
G1 Y0.245
G1 X0.1
G1 X0.0855 Y0.246
G1 X0.0714 Y0.249
G1 X0.0577 Y0.2539
G1 X0.0449 Y0.2606
G1 X0.0331 Y0.2691
G1 X0.0226 Y0.279
G1 X0.0136 Y0.2904
G1 X0.0062 Y0.3028
G1 X0.0006 Y0.3162
G1 X-0.0031 Y0.3302
G1 X-0.0049 Y0.3446
G1 X-0.005 Y0.35
G1 Y2.525
G1 X-0.004 Y2.5395
G1 X-0.001 Y2.5536
G1 X0.0039 Y2.5673
G1 X0.0106 Y2.5801
G1 X0.0191 Y2.5919
G1 X0.029 Y2.6024
G1 X0.0404 Y2.6114
G1 X0.0528 Y2.6188
G1 X0.0662 Y2.6244
G1 X0.0802 Y2.6281
G1 X0.0946 Y2.6299
G1 X0.1 Y2.63
G1 X0.2525
G0 Z0.125
M5
M30
